;This Gcode has been generated specifically for the LulzBot Mini
;Basic settings: Layer height: 0.38 Walls: 1 Fill: 0
;Filament Diameter: 2.85
;Nozzle Size: 0.5
G21                          ; metric values
G90                          ; absolute positioning
M82                          ; set extruder to absolute mode
M107                         ; start with the fan off
G92 E0                       ; set extruder position to 0
M140 S60; get bed heating up
G28                          ; home all
M109 S140                    ; set to cleaning temp and wait
G1 Z150 E-30 F75             ; suck up XXmm of filament
M109 S140                    ; heat up rest of way
G1 X45 Y174 F11520           ; move behind scraper
G1 Z0  F1200                 ; CRITICAL: set Z to height of top of scraper
G1 X45 Y174 Z-.5 F4000       ; wiping ; plunge into wipe pad
G1 X55 Y172 Z-.5 F4000       ; wiping
G1 X45 Y174 Z0 F4000         ; wiping
G1 X55 Y172 F4000            ; wiping
G1 X45 Y174 F4000            ; wiping
G1 X55 Y172 F4000            ; wiping
G1 X45 Y174 F4000            ; wiping
G1 X55 Y172 F4000            ; wiping
G1 X60 Y174 F4000            ; wiping
G1 X80 Y172 F4000            ; wiping
G1 X60 Y174 F4000            ; wiping
G1 X80 Y172 F4000            ; wiping
G1 X60 Y174 F4000            ; wiping
G1 X90 Y172 F4000            ; wiping
G1 X80 Y174 F4000            ; wiping
G1 X100 Y172 F4000           ; wiping
G1 X80 Y174 F4000            ; wiping
G1 X100 Y172 F4000           ; wiping
G1 X80 Y174 F4000            ; wiping
G1 X100 Y172 F4000           ; wiping
G1 X110 Y174 F4000           ; wiping
G1 X100 Y172 F4000           ; wiping
G1 X110 Y174 F4000           ; wiping
G1 X100 Y172 F4000           ; wiping
G1 X110 Y174 F4000           ; wiping
G1 X115 Y172 Z-0.5 F1000     ; wipe slower and bury noz in cleanish area
G1 Z10                       ; raise z
G28 X0 Y0                    ; home x and y
M109 S140                    ; set to probing temp
M204 S300                    ; Set probing acceleration
G29                          ; Probe
M204 S2000                   ; Restore standard acceleration
G1 X5 Y15 Z10 F5000          ; get out the way
G4 S1                        ; pause
M400                         ; clear buffer
M109 S205    ; set extruder temp and wait
G4 S15                       ; wait for bed to temp up
G1 Z2 E0 F75                 ; extrude filament back into nozzle
M140 S60; get bed temping up during first layer

;Layer count: 155
;LAYER:0
M107
G0 F10500 X81.993 Y15.911 Z0.425
;TYPE:SKIRT
G1 F900 X84.529 Y12.804 E0.16699
G1 X85.016 Y12.787 E0.18728
G1 X85.941 Y11.743 E0.24536
G1 X86.314 Y11.748 E0.26089
G1 X88.312 Y9.608 E0.38280
G1 X92.277 Y12.876 E0.59674
G1 X92.559 Y13.046 E0.61045
G1 X95.164 Y15.257 E0.75272
G1 X98.699 Y15.770 E0.90145
G1 X102.231 Y15.231 E1.05022
G1 X104.816 Y13.003 E1.19232
G1 X105.101 Y12.828 E1.20624
G1 X109.017 Y9.554 E1.41878
G1 X111.051 Y11.660 E1.54069
G1 X111.395 Y11.653 E1.55501
G1 X112.358 Y12.691 E1.61397
G1 X112.822 Y12.704 E1.63330
G1 X115.422 Y15.760 E1.80036
G1 X113.126 Y19.735 E1.99150
G1 X112.929 Y20.135 E2.01006
G1 X109.246 Y26.466 E2.31504
G1 X108.967 Y27.945 E2.37770
G1 X104.292 Y30.629 E2.60216
G1 X102.739 Y47.557 E3.30997
G1 X99.051 Y47.644 E3.46357
G1 X98.903 Y47.658 E3.46976
G1 X94.858 Y47.571 E3.63823
G1 X93.198 Y30.655 E4.34596
G1 X88.513 Y28.021 E4.56975
G1 X88.227 Y26.539 E4.63259
G1 X84.503 Y20.241 E4.93724
G1 X84.300 Y19.835 E4.95614
G1 X81.993 Y15.911 E5.14568
G0 F10500 X81.507 Y16.088
G1 F900 X79.212 Y20.058 E5.33661
G1 X79.013 Y20.463 E5.35540
G1 X75.330 Y26.794 E5.66037
G1 X75.051 Y28.272 E5.72300
G1 X70.376 Y30.956 E5.94746
G1 X68.823 Y47.885 E6.65531
G1 X65.136 Y47.972 E6.80887
G1 X64.987 Y47.986 E6.81510
G1 X60.941 Y47.894 E6.98361
G1 X59.282 Y30.982 E7.69117
G1 X54.598 Y28.347 E7.91495
G1 X54.312 Y26.866 E7.97775
G1 X50.588 Y20.568 E8.28240
G1 X50.385 Y20.164 E8.30123
G1 X48.073 Y16.231 E8.49119
G1 X50.620 Y13.132 E8.65821
G1 X51.101 Y13.115 E8.67825
G1 X52.026 Y12.071 E8.73633
G1 X52.399 Y12.076 E8.75186
G1 X54.396 Y9.936 E8.87374
G1 X58.359 Y13.201 E9.08754
G1 X58.644 Y13.373 E9.10140
G1 X61.250 Y15.585 E9.24373
G1 X64.784 Y16.097 E9.39241
G1 X68.317 Y15.559 E9.54121
G1 X70.901 Y13.331 E9.68328
G1 X71.182 Y13.158 E9.69702
G1 X75.100 Y9.881 E9.90970
G1 X77.134 Y11.987 E10.03161
G1 X77.479 Y11.980 E10.04597
G1 X78.442 Y13.019 E10.10496
G1 X78.907 Y13.032 E10.12433
G1 X81.507 Y16.088 E10.29140
G0 F10500 X47.921 Y16.728
G1 F900 X45.626 Y20.698 E10.48233
G1 X45.427 Y21.103 E10.50112
G1 X41.744 Y27.434 E10.80609
G1 X41.465 Y28.913 E10.86876
G1 X36.790 Y31.597 E11.09322
G1 X35.237 Y48.525 E11.80103
G1 X31.550 Y48.612 E11.95459
G1 X31.402 Y48.626 E11.96078
G1 X27.356 Y48.539 E12.12928
G1 X25.696 Y31.623 E12.83701
G1 X21.012 Y28.988 E13.06079
G1 X20.726 Y27.507 E13.12359
G1 X17.002 Y21.209 E13.42824
G1 X16.799 Y20.806 E13.44703
G1 X14.491 Y16.879 E13.63669
G1 X17.027 Y13.772 E13.80369
G1 X17.515 Y13.755 E13.82402
G1 X18.440 Y12.711 E13.88210
G1 X18.813 Y12.716 E13.89763
G1 X20.811 Y10.576 E14.01953
G1 X24.776 Y13.844 E14.23348
G1 X25.058 Y14.014 E14.24719
G1 X27.663 Y16.225 E14.38946
G1 X31.197 Y16.738 E14.53815
G1 X34.730 Y16.199 E14.68696
G1 X37.315 Y13.971 E14.82905
G1 X37.596 Y13.798 E14.84279
G1 X41.514 Y10.521 E15.05547
G1 X43.549 Y12.628 E15.17744
G1 X43.893 Y12.621 E15.19176
G1 X44.855 Y13.659 E15.25069
G1 X45.321 Y13.672 E15.27010
G1 X47.921 Y16.728 E15.43717
G1 F600 E13.93717
G1 Z0.525
G0 F10500 X41.949 Y17.826
;TYPE:WALL-INNER
G1 Z0.425
G1 F600 E15.43717
G1 F900 X42.371 Y17.838 E15.45475
G1 X41.877 Y18.693 E15.49586
G1 X41.677 Y19.099 E15.51471
G1 X37.705 Y25.928 E15.84365
G1 X37.653 Y26.202 E15.85527
G1 X33.443 Y28.618 E16.05738
G1 X31.910 Y29.468 E16.13036
G1 X32.652 Y30.185 E16.17333
G1 X31.351 Y44.367 E16.76631
G1 X31.258 Y44.373 E16.77019
G1 X31.217 Y44.372 E16.77190
G1 X29.826 Y30.210 E17.36442
G1 X30.564 Y29.486 E17.40746
G1 X24.811 Y26.250 E17.68230
G1 X24.758 Y25.978 E17.69384
G1 X20.729 Y19.165 E18.02341
G1 X20.532 Y18.773 E18.04168
G1 X20.031 Y17.919 E18.08290
G1 X20.452 Y17.905 E18.10044
G1 X20.603 Y16.992 E18.13898
G1 X21.651 Y17.008 E18.18262
G1 X21.685 Y16.802 E18.19131
G1 X22.311 Y17.318 E18.22509
G1 X22.571 Y17.476 E18.23776
G1 X26.222 Y20.575 E18.43716
G1 X27.057 Y20.430 E18.47245
G1 X31.211 Y21.034 E18.64723
G1 X35.358 Y20.401 E18.82190
G1 X36.198 Y20.544 E18.85738
G1 X39.832 Y17.411 E19.05716
G1 X40.087 Y17.255 E19.06961
G1 X40.709 Y16.735 E19.10337
G1 X40.744 Y16.938 E19.11194
G1 X41.793 Y16.916 E19.15563
G1 X41.949 Y17.826 E19.19408
G0 F10500 X42.479 Y17.216
;TYPE:WALL-OUTER
G1 F900 X43.438 Y17.243 E19.23402
G1 X42.429 Y18.988 E19.31795
G1 X42.232 Y19.387 E19.33648
G1 X38.299 Y26.149 E19.66220
G1 X38.214 Y26.601 E19.68135
G1 X33.742 Y29.167 E19.89603
G1 X32.951 Y29.605 E19.93368
G1 X33.301 Y29.944 E19.95396
G1 X31.922 Y44.979 E20.58262
G1 X31.347 Y44.992 E20.60657
G1 X31.275 Y44.999 E20.60958
G1 X30.649 Y44.985 E20.63565
G1 X29.175 Y29.973 E21.26373
G1 X29.532 Y29.623 E21.28454
G1 X24.252 Y26.653 E21.53678
G1 X24.165 Y26.203 E21.55587
G1 X20.179 Y19.462 E21.88195
G1 X19.983 Y19.072 E21.90012
G1 X18.960 Y17.331 E21.98420
G1 X19.919 Y17.298 E22.02416
G1 X20.075 Y16.359 E22.06379
G1 X21.122 Y16.375 E22.10739
G1 X21.245 Y15.630 E22.13883
G1 X22.673 Y16.807 E22.21588
G1 X22.932 Y16.964 E22.22849
G1 X26.403 Y19.909 E22.41803
G1 X27.047 Y19.798 E22.44524
G1 X31.209 Y20.402 E22.62035
G1 X35.363 Y19.768 E22.79532
G1 X36.012 Y19.878 E22.82273
G1 X39.460 Y16.906 E23.01227
G1 X39.721 Y16.746 E23.02502
G1 X41.140 Y15.559 E23.10205
G1 X41.268 Y16.302 E23.13344
G1 X42.318 Y16.280 E23.17717
G1 X42.479 Y17.216 E23.21671
G0 F10500 X41.642 Y17.336
;TYPE:SKIN
G1 F900 X41.449 Y17.143 E23.22808
G0 F10500 X40.582 Y17.160
G1 F900 X41.804 Y18.381 E23.30001
G0 F10500 X41.500 Y18.961
G1 F900 X40.063 Y17.525 E23.38460
G0 F10500 X39.575 Y17.920
G1 F900 X41.176 Y19.522 E23.47890
G0 F10500 X40.851 Y20.081
G1 F900 X39.100 Y18.330 E23.58201
G0 F10500 X38.626 Y18.739
G1 F900 X40.527 Y20.640 E23.69395
G0 F10500 X40.201 Y21.199
G1 F900 X38.151 Y19.148 E23.81469
G0 F10500 X37.676 Y19.557
G1 F900 X39.876 Y21.757 E23.94424
G0 F10500 X39.551 Y22.316
G1 F900 X37.202 Y19.967 E24.08256
G0 F10500 X33.304 Y28.443
G1 F900 X22.919 Y18.058 E24.69408
G0 F10500 X21.196 Y17.220
G1 F900 X32.735 Y28.758 E25.37352
G0 F10500 X32.166 Y29.074
G1 F900 X20.718 Y17.625 E26.04767
G0 F10500 X20.505 Y18.296
G1 F900 X31.598 Y29.389 E26.70088
G0 F10500 X30.843 Y29.518
G1 F900 X32.353 Y31.028 E26.78979
G0 F10500 X32.279 Y31.838
G1 F900 X30.397 Y29.956 E26.90062
G0 F10500 X30.076 Y30.518
G1 F900 X32.205 Y32.647 E27.02598
G0 F10500 X32.130 Y33.457
G1 F900 X30.172 Y31.498 E27.14131
G0 F10500 X30.268 Y32.478
G1 F900 X32.056 Y34.267 E27.24662
G0 F10500 X31.982 Y35.076
G1 F900 X30.365 Y33.459 E27.34184
G0 F10500 X30.461 Y34.439
G1 F900 X31.907 Y35.885 E27.42699
G0 F10500 X31.833 Y36.695
G1 F900 X30.557 Y35.419 E27.50213
G0 F10500 X30.653 Y36.399
G1 F900 X31.758 Y37.504 E27.56719
G0 F10500 X31.684 Y38.314
G1 F900 X30.749 Y37.379 E27.62225
G0 F10500 X30.846 Y38.360
G1 F900 X31.276 Y39.232 E27.66720
G1 X31.536 Y39.933 E27.69833
G0 F10500 X30.556 Y29.231
G1 F900 X21.694 Y20.369 E28.22017
G0 F10500 X22.974 Y22.533
G1 F900 X28.534 Y28.093 E28.54757
G0 F10500 X26.513 Y26.956
G1 F900 X24.254 Y24.697 E28.68059
G0 F10500 X26.494 Y20.750
G1 F900 X33.866 Y28.121 E29.11466
G0 F10500 X34.427 Y27.799
G1 F900 X27.319 Y20.690 E29.53325
G0 F10500 X28.353 Y20.841
G1 F900 X34.989 Y27.477 E29.92401
G0 F10500 X35.551 Y27.155
G1 F900 X29.387 Y20.991 E30.28698
G0 F10500 X30.421 Y21.141
G1 F900 X36.112 Y26.832 E30.62209
G0 F10500 X36.674 Y26.510
G1 F900 X31.392 Y21.228 E30.93312
G0 F10500 X32.159 Y21.111
G1 F900 X37.235 Y26.187 E31.23202
G0 F10500 X37.601 Y25.669
G1 F900 X32.925 Y20.994 E31.50734
G0 F10500 X33.692 Y20.876
G1 F900 X37.926 Y25.110 E31.75666
G0 F10500 X38.250 Y24.551
G1 F900 X34.459 Y20.759 E31.97992
G0 F10500 X35.225 Y20.642
G1 F900 X38.576 Y23.992 E32.17721
G0 F10500 X38.901 Y23.434
G1 F900 X36.240 Y20.773 E32.33391
G0 F10500 X36.727 Y20.376
G1 F900 X39.226 Y22.875 E32.48106
G0 F10500 X32.232 Y29.510
G0 X31.039 Y40.320
G1 F900 X31.298 Y41.021 E32.50595
G1 X31.387 Y41.553 E32.52841
G1 F600 E31.02841
G1 Z0.525
G0 F10500 X58.397 Y25.609
;TYPE:WALL-INNER
G1 Z0.425
G1 F600 E32.52841
G1 F900 X58.344 Y25.337 E32.53995
G1 X54.315 Y18.524 E32.86952
G1 X54.118 Y18.132 E32.88779
G1 X53.617 Y17.279 E32.92898
G1 X54.038 Y17.265 E32.94652
G1 X54.189 Y16.352 E32.98505
G1 X55.237 Y16.368 E33.02869
G1 X55.271 Y16.162 E33.03738
G1 X55.897 Y16.678 E33.07116
G1 X56.158 Y16.836 E33.08387
G1 X59.808 Y19.935 E33.28324
G1 X60.643 Y19.790 E33.31852
G1 X64.797 Y20.393 E33.49330
G1 X68.944 Y19.761 E33.66797
G1 X69.784 Y19.904 E33.70345
G1 X73.418 Y16.771 E33.90323
G1 X73.673 Y16.615 E33.91568
G1 X74.295 Y16.095 E33.94943
G1 X74.330 Y16.297 E33.95797
G1 X75.379 Y16.275 E34.00166
G1 X75.535 Y17.186 E34.04014
G1 X75.957 Y17.198 E34.05772
G1 X75.463 Y18.053 E34.09883
G1 X75.263 Y18.459 E34.11768
G1 X71.291 Y25.287 E34.44659
G1 X71.239 Y25.561 E34.45820
G1 X67.029 Y27.978 E34.66033
G1 X65.496 Y28.828 E34.73332
G1 X66.238 Y29.545 E34.77628
G1 X64.937 Y43.727 E35.36927
G1 X64.845 Y43.733 E35.37311
G1 X64.803 Y43.732 E35.37486
G1 X63.412 Y29.569 E35.96741
G1 X64.150 Y28.845 E36.01046
G1 X58.397 Y25.609 E36.28530
G0 F10500 X57.751 Y25.562
;TYPE:WALL-OUTER
G1 F900 X53.765 Y18.821 E36.61138
G1 X53.569 Y18.431 E36.62955
G1 X52.547 Y16.691 E36.71357
G1 X53.505 Y16.658 E36.75349
G1 X53.661 Y15.719 E36.79312
G1 X54.708 Y15.735 E36.83672
G1 X54.831 Y14.990 E36.86816
G1 X56.259 Y16.166 E36.94519
G1 X56.518 Y16.323 E36.95780
G1 X59.989 Y19.269 E37.14736
G1 X60.633 Y19.158 E37.17457
G1 X64.795 Y19.761 E37.34968
G1 X68.949 Y19.128 E37.52464
G1 X69.598 Y19.238 E37.55205
G1 X73.046 Y16.266 E37.74159
G1 X73.307 Y16.106 E37.75434
G1 X74.726 Y14.918 E37.83139
G1 X74.854 Y15.661 E37.86279
G1 X75.903 Y15.639 E37.90647
G1 X76.065 Y16.576 E37.94607
G1 X77.024 Y16.603 E37.98601
G1 X76.015 Y18.348 E38.06994
G1 X75.818 Y18.747 E38.08847
G1 X71.885 Y25.508 E38.41415
G1 X71.800 Y25.960 E38.43330
G1 X67.328 Y28.527 E38.64800
G1 X66.537 Y28.965 E38.68565
G1 X66.887 Y29.304 E38.70594
G1 X65.508 Y44.339 E39.33459
G1 X64.933 Y44.352 E39.35854
G1 X64.862 Y44.359 E39.36151
G1 X64.235 Y44.344 E39.38763
G1 X62.761 Y29.332 E40.01570
G1 X63.118 Y28.982 E40.03652
G1 X57.838 Y26.012 E40.28876
G1 X57.751 Y25.562 E40.30785
G0 F10500 X58.157 Y25.484
G0 X57.484 Y23.456
;TYPE:SKIN
G1 F900 X60.660 Y26.631 E40.49484
G0 F10500 X62.681 Y27.768
G1 F900 X56.205 Y21.293 E40.87614
G0 F10500 X54.926 Y19.130
G1 F900 X65.960 Y30.163 E41.52585
G0 F10500 X65.886 Y30.973
G1 F900 X64.107 Y29.194 E41.63061
G0 F10500 X63.660 Y29.632
G1 F900 X65.811 Y31.783 E41.75727
G0 F10500 X65.737 Y32.592
G1 F900 X63.730 Y30.585 E41.87545
G0 F10500 X63.827 Y31.566
G1 F900 X65.662 Y33.401 E41.98351
G0 F10500 X65.588 Y34.211
G1 F900 X63.923 Y32.546 E42.08155
G0 F10500 X64.020 Y33.526
G1 F900 X65.514 Y35.020 E42.16952
G0 F10500 X65.439 Y35.830
G1 F900 X64.116 Y34.506 E42.24746
G0 F10500 X64.212 Y35.486
G1 F900 X65.365 Y36.640 E42.31538
G0 F10500 X65.291 Y37.449
G1 F900 X64.309 Y36.467 E42.37321
G0 F10500 X64.405 Y37.447
G1 F900 X64.859 Y38.343 E42.42099
G1 X64.869 Y39.237 E42.45869
G1 X65.067 Y39.877 E42.48658
G0 F10500 X65.342 Y28.661
G1 F900 X54.160 Y17.479 E43.14503
G0 F10500 X54.339 Y16.774
G1 F900 X65.910 Y28.346 E43.82642
G0 F10500 X66.479 Y28.031
G1 F900 X55.032 Y16.584 E44.50048
G0 F10500 X58.134 Y18.802
G1 F900 X67.046 Y27.714 E45.02526
G0 F10500 X67.607 Y27.391
G1 F900 X60.289 Y20.073 E45.45618
G0 F10500 X61.191 Y20.091
G1 F900 X68.169 Y27.069 E45.86708
G0 F10500 X68.730 Y26.747
G1 F900 X62.224 Y20.240 E46.25021
G0 F10500 X63.258 Y20.390
G1 F900 X69.292 Y26.424 E46.60553
G0 F10500 X69.853 Y26.102
G1 F900 X64.292 Y20.540 E46.93302
G0 F10500 X65.189 Y20.554
G1 F900 X70.415 Y25.779 E47.24072
G0 F10500 X70.976 Y25.457
G1 F900 X65.956 Y20.437 E47.53632
G0 F10500 X66.724 Y20.320
G1 F900 X71.277 Y24.873 E47.80442
G0 F10500 X71.602 Y24.315
G1 F900 X67.491 Y20.204 E48.04650
G0 F10500 X68.258 Y20.087
G1 F900 X71.927 Y23.756 E48.26255
G0 F10500 X72.252 Y23.197
G1 F900 X69.058 Y20.004 E48.45060
G0 F10500 X69.970 Y20.031
G1 F900 X72.577 Y22.638 E48.60411
G0 F10500 X72.902 Y22.080
G1 F900 X70.445 Y19.622 E48.74882
G0 F10500 X70.919 Y19.213
G1 F900 X73.227 Y21.521 E48.88473
G0 F10500 X73.552 Y20.962
G1 F900 X71.394 Y18.804 E49.01180
G0 F10500 X71.869 Y18.395
G1 F900 X73.877 Y20.403 E49.13004
G0 F10500 X74.203 Y19.844
G1 F900 X72.344 Y17.985 E49.23951
G0 F10500 X72.818 Y17.576
G1 F900 X74.527 Y19.285 E49.34014
G0 F10500 X74.852 Y18.727
G1 F900 X73.293 Y17.167 E49.43198
G0 F10500 X73.802 Y16.792
G1 F900 X75.167 Y18.157 E49.51235
G0 F10500 X75.480 Y17.586
G1 F900 X74.408 Y16.515 E49.57545
G0 F10500 X65.818 Y28.870
G0 X64.693 Y40.387
G1 F900 X64.993 Y40.687 E49.59311
G1 F600 E48.09311
G1 Z0.525
G0 F10500 X92.259 Y25.010
;TYPE:WALL-INNER
G1 Z0.425
G1 F600 E49.59311
G1 F900 X88.231 Y18.197 E49.92266
G1 X88.034 Y17.805 E49.94093
G1 X87.533 Y16.951 E49.98216
G1 X87.953 Y16.937 E49.99965
G1 X88.104 Y16.024 E50.03819
G1 X89.154 Y16.040 E50.08191
G1 X89.188 Y15.836 E50.09052
G1 X89.812 Y16.350 E50.12418
G1 X90.072 Y16.508 E50.13685
G1 X93.723 Y19.607 E50.33625
G1 X94.558 Y19.462 E50.37154
G1 X98.713 Y20.066 E50.54636
G1 X102.859 Y19.433 E50.72100
G1 X103.699 Y19.576 E50.75648
G1 X107.333 Y16.443 E50.95626
G1 X107.588 Y16.287 E50.96870
G1 X108.211 Y15.766 E51.00252
G1 X108.246 Y15.970 E51.01114
G1 X109.295 Y15.948 E51.05483
G1 X109.451 Y16.858 E51.09327
G1 X109.873 Y16.870 E51.11085
G1 X109.379 Y17.725 E51.15196
G1 X109.179 Y18.131 E51.17081
G1 X105.207 Y24.960 E51.49975
G1 X105.155 Y25.234 E51.51137
G1 X100.945 Y27.650 E51.71348
G1 X99.412 Y28.500 E51.78646
G1 X100.154 Y29.217 E51.82943
G1 X98.853 Y43.399 E52.42241
G1 X98.759 Y43.405 E52.42634
G1 X98.719 Y43.404 E52.42800
G1 X97.328 Y29.242 E53.02052
G1 X98.066 Y28.518 E53.06356
G1 X92.312 Y25.282 E53.33844
G1 X92.259 Y25.010 E53.34998
G0 F10500 X91.666 Y25.235
;TYPE:WALL-OUTER
G1 F900 X87.681 Y18.494 E53.67603
G1 X87.485 Y18.104 E53.69421
G1 X86.462 Y16.363 E53.77829
G1 X87.420 Y16.330 E53.81820
G1 X87.576 Y15.391 E53.85784
G1 X88.624 Y15.407 E53.90148
G1 X88.747 Y14.663 E53.93288
G1 X90.174 Y15.839 E54.00987
G1 X90.433 Y15.996 E54.02248
G1 X93.904 Y18.941 E54.21202
G1 X94.548 Y18.830 E54.23923
G1 X98.711 Y19.434 E54.41438
G1 X102.864 Y18.800 E54.58931
G1 X103.513 Y18.910 E54.61672
G1 X106.961 Y15.938 E54.80626
G1 X107.222 Y15.778 E54.81900
G1 X108.642 Y14.590 E54.89609
G1 X108.770 Y15.334 E54.92753
G1 X109.820 Y15.312 E54.97125
G1 X109.981 Y16.248 E55.01080
G1 X110.939 Y16.275 E55.05071
G1 X109.931 Y18.020 E55.13461
G1 X109.734 Y18.419 E55.15314
G1 X105.801 Y25.181 E55.47886
G1 X105.716 Y25.633 E55.49801
G1 X101.244 Y28.199 E55.71269
G1 X100.453 Y28.637 E55.75034
G1 X100.803 Y28.976 E55.77063
G1 X99.424 Y44.011 E56.39928
G1 X98.848 Y44.024 E56.42327
G1 X98.776 Y44.031 E56.42628
G1 X98.151 Y44.017 E56.45231
G1 X96.677 Y29.005 E57.08039
G1 X97.034 Y28.655 E57.10120
G1 X91.753 Y25.685 E57.35348
G1 X91.666 Y25.235 E57.37257
G0 F10500 X92.347 Y24.731
;TYPE:SKIN
G1 F900 X93.078 Y25.462 E57.41561
G0 F10500 X95.098 Y26.598
G1 F900 X91.068 Y22.568 E57.65292
G0 F10500 X89.791 Y20.407
G1 F900 X97.118 Y27.734 E58.08437
G0 F10500 X98.138 Y28.754
G1 F900 X99.821 Y30.437 E58.18347
G0 F10500 X99.747 Y31.247
G1 F900 X97.692 Y29.192 E58.30448
G0 F10500 X97.621 Y30.005
G1 F900 X99.673 Y32.056 E58.42528
G0 F10500 X99.598 Y32.866
G1 F900 X97.717 Y30.985 E58.53605
G0 F10500 X97.814 Y31.966
G1 F900 X99.523 Y33.675 E58.63668
G0 F10500 X99.449 Y34.484
G1 F900 X97.910 Y32.946 E58.72727
G0 F10500 X98.007 Y33.926
G1 F900 X99.375 Y35.294 E58.80783
G0 F10500 X99.301 Y36.104
G1 F900 X98.103 Y34.906 E58.87837
G0 F10500 X98.199 Y35.886
G1 F900 X99.226 Y36.913 E58.93885
G0 F10500 X99.152 Y37.723
G1 F900 X98.344 Y37.357 E58.98920
G1 X98.783 Y38.680 E59.02959
G1 X98.793 Y39.574 E59.05985
G1 X98.804 Y40.469 E59.08013
G1 X98.789 Y40.896 E59.09792
G0 F10500 X99.895 Y29.627
G1 F900 X88.512 Y18.244 E59.76820
G0 F10500 X88.160 Y17.008
G1 F900 X99.404 Y28.252 E60.43031
G0 F10500 X99.972 Y27.937
G1 F900 X88.287 Y16.251 E61.11841
G0 F10500 X89.179 Y16.259
G1 F900 X100.541 Y27.621 E61.78746
G0 F10500 X101.107 Y27.303
G1 F900 X93.564 Y19.760 E62.23163
G0 F10500 X94.399 Y19.712
G1 F900 X101.668 Y26.981 E62.65966
G0 F10500 X102.229 Y26.658
G1 F900 X95.374 Y19.803 E63.06332
G0 F10500 X96.408 Y19.953
G1 F900 X102.791 Y26.336 E63.43918
G0 F10500 X103.352 Y26.013
G1 F900 X97.442 Y20.103 E63.78719
G0 F10500 X98.475 Y20.252
G1 F900 X103.914 Y25.691 E64.10746
G0 F10500 X104.476 Y25.369
G1 F900 X99.303 Y20.197 E64.41205
G0 F10500 X100.070 Y20.079
G1 F900 X104.977 Y24.987 E64.70103
G0 F10500 X105.276 Y24.402
G1 F900 X100.837 Y19.963 E64.96242
G0 F10500 X101.604 Y19.845
G1 F900 X105.602 Y23.843 E65.19784
G0 F10500 X105.927 Y23.285
G1 F900 X102.371 Y19.728 E65.40726
G0 F10500 X103.248 Y19.721
G1 F900 X106.252 Y22.726 E65.58418
G0 F10500 X106.577 Y22.167
G1 F900 X104.008 Y19.598 E65.73546
G0 F10500 X104.483 Y19.189
G1 F900 X106.902 Y21.608 E65.87790
G0 F10500 X107.227 Y21.049
G1 F900 X104.957 Y18.780 E66.01154
G0 F10500 X105.432 Y18.370
G1 F900 X107.553 Y20.491 E66.13643
G0 F10500 X107.877 Y19.931
G1 F900 X105.906 Y17.961 E66.25247
G0 F10500 X106.381 Y17.551
G1 F900 X108.202 Y19.373 E66.35973
G0 F10500 X108.528 Y18.814
G1 F900 X106.856 Y17.143 E66.45815
G0 F10500 X107.331 Y16.733
G1 F900 X108.852 Y18.255 E66.54775
G0 F10500 X109.158 Y17.677
G1 F900 X107.841 Y16.360 E66.62530
G0 F10500 X108.548 Y16.183
G1 F900 X109.230 Y16.865 E66.66546
;LAYER:1
M106 S191
G1 F600 E65.16546
G1 Z0.525
G0 F10500 X42.525 Y17.751 Z0.805
;TYPE:WALL-INNER
G1 Z0.805
G1 F600 E66.66546
G1 F1140 X42.227 Y18.267 E66.68320
G1 X41.705 Y19.320 E66.71821
G1 X38.214 Y25.325 E66.92508
G1 X37.989 Y26.525 E66.96145
G1 X33.953 Y28.840 E67.10002
G1 X33.052 Y29.343 E67.13076
G1 X31.959 Y29.948 E67.16796
G1 X32.805 Y30.762 E67.20293
G1 X31.567 Y44.388 E67.61043
G1 X31.249 Y44.407 E67.61992
G1 X30.954 Y44.399 E67.62871
G1 X29.625 Y30.839 E68.03450
G1 X30.527 Y29.956 E68.07210
G1 X28.523 Y28.856 E68.14018
G1 X24.477 Y26.576 E68.27850
G1 X24.245 Y25.377 E68.31488
G1 X20.703 Y19.389 E68.52208
G1 X20.181 Y18.349 E68.55674
G1 X19.879 Y17.834 E68.57452
G1 X20.450 Y17.815 E68.59154
G1 X20.592 Y16.956 E68.61747
G1 X21.506 Y16.970 E68.64470
G1 X21.573 Y16.563 E68.65698
G1 X22.072 Y16.974 E68.67623
G1 X22.756 Y17.388 E68.70005
G1 X25.948 Y20.097 E68.82474
G1 X27.619 Y19.807 E68.87525
G1 X31.210 Y20.329 E68.98333
G1 X34.794 Y19.781 E69.09131
G1 X36.469 Y20.062 E69.14189
G1 X39.643 Y17.326 E69.26670
G1 X40.322 Y16.908 E69.29045
G1 X40.820 Y16.492 E69.30977
G1 X40.890 Y16.897 E69.32202
G1 X41.805 Y16.879 E69.34927
G1 X41.951 Y17.734 E69.37511
G1 X42.525 Y17.751 E69.39221
G0 F10500 X42.375 Y17.246
;TYPE:WALL-OUTER
G1 F1080 X43.116 Y17.268 E69.41429
G1 X43.274 Y17.454 E69.42156
G1 X42.668 Y18.503 E69.45764
G1 X42.148 Y19.552 E69.49251
G1 X38.689 Y25.502 E69.69749
G1 X38.437 Y26.845 E69.73819
G1 X34.204 Y29.273 E69.88353
G1 X32.794 Y30.058 E69.93159
G1 X33.332 Y30.575 E69.95381
G1 X32.025 Y44.877 E70.38155
G1 X31.451 Y44.891 E70.39865
G1 X31.260 Y44.908 E70.40436
G1 X30.500 Y44.886 E70.42701
G1 X29.115 Y30.764 E70.84963
G1 X29.101 Y30.652 E70.85299
G1 X29.696 Y30.070 E70.87778
G1 X28.285 Y29.295 E70.92572
G1 X24.030 Y26.897 E71.07119
G1 X23.770 Y25.557 E71.11185
G1 X20.263 Y19.628 E71.31701
G1 X19.742 Y18.588 E71.35165
G1 X19.128 Y17.542 E71.38778
G1 X19.282 Y17.354 E71.39502
G1 X20.023 Y17.329 E71.41710
G1 X20.131 Y16.677 E71.43678
G1 X20.333 Y16.452 E71.44579
G1 X21.083 Y16.463 E71.46813
G1 X21.199 Y15.759 E71.48938
G1 X21.280 Y15.673 E71.49290
G1 X22.362 Y16.565 E71.53466
G1 X23.045 Y16.979 E71.55845
G1 X26.093 Y19.564 E71.67748
G1 X27.612 Y19.301 E71.72339
G1 X31.208 Y19.824 E71.83162
G1 X34.799 Y19.275 E71.93982
G1 X36.320 Y19.530 E71.98575
G1 X39.345 Y16.923 E72.10468
G1 X40.029 Y16.501 E72.12862
G1 X41.105 Y15.601 E72.17040
G1 X41.188 Y15.687 E72.17396
G1 X41.309 Y16.388 E72.19515
G1 X42.059 Y16.373 E72.21749
G1 X42.264 Y16.597 E72.22653
G1 X42.375 Y17.246 E72.24614
G0 F10500 X41.705 Y17.338
;TYPE:SKIN
G1 F1380 X29.732 Y29.310 E72.75043
G0 F10500 X29.279 Y29.057
G1 F1380 X41.272 Y17.063 E73.25559
G0 F10500 X40.713 Y16.915
G1 F1380 X28.825 Y28.803 E73.75632
G0 F10500 X28.371 Y28.550
G1 F1380 X37.635 Y19.286 E74.14652
G0 F10500 X36.448 Y19.988
G0 X34.835 Y19.965
G1 F1380 X27.010 Y27.790 E74.47611
G0 F10500 X27.464 Y28.043
G1 F1380 X35.440 Y20.066 E74.81208
G0 F10500 X36.046 Y20.168
G1 F1380 X27.917 Y28.296 E75.15445
G0 F10500 X26.556 Y27.537
G1 F1380 X34.017 Y20.076 E75.46871
G0 F10500 X33.182 Y20.204
G1 F1380 X26.102 Y27.283 E75.76690
G0 F10500 X25.648 Y27.030
G1 F1380 X32.348 Y20.331 E76.04908
G0 F10500 X31.512 Y20.459
G1 F1380 X25.194 Y26.777 E76.31519
G0 F10500 X24.741 Y26.523
G1 F1380 X30.816 Y20.448 E76.57107
G0 F10500 X30.199 Y20.359
G1 F1380 X24.545 Y26.012 E76.80920
G0 F10500 X24.431 Y25.419
G1 F1380 X29.581 Y20.269 E77.02612
G0 F10500 X28.964 Y20.179
G1 F1380 X24.195 Y24.948 E77.22699
G0 F10500 X23.932 Y24.504
G1 F1380 X28.347 Y20.089 E77.41295
G0 F10500 X27.729 Y19.999
G1 F1380 X23.669 Y24.060 E77.58398
G0 F10500 X23.406 Y23.615
G1 F1380 X26.916 Y20.105 E77.73182
G0 F10500 X26.061 Y20.254
G1 F1380 X23.143 Y23.171 E77.85470
G0 F10500 X22.881 Y22.727
G1 F1380 X25.587 Y20.021 E77.96868
G0 F10500 X25.204 Y19.696
G1 F1380 X22.618 Y22.283 E78.07762
G0 F10500 X22.355 Y21.838
G1 F1380 X24.822 Y19.371 E78.18153
G0 F10500 X24.439 Y19.047
G1 F1380 X22.092 Y21.394 E78.28039
G0 F10500 X21.829 Y20.950
G1 F1380 X24.057 Y18.722 E78.37423
G0 F10500 X23.674 Y18.398
G1 F1380 X21.566 Y20.506 E78.46302
G0 F10500 X21.303 Y20.062
G1 F1380 X23.292 Y18.073 E78.54680
G0 F10500 X22.909 Y17.749
G1 F1380 X21.040 Y19.617 E78.62550
G0 F10500 X20.785 Y19.166
G1 F1380 X22.508 Y17.442 E78.69809
G0 F10500 X22.068 Y17.176
G1 F1380 X20.549 Y18.695 E78.76207
G0 F10500 X20.310 Y18.226
G1 F1380 X20.550 Y17.986 E78.77218
G0 F10500 X20.608 Y17.928
G1 F1380 X21.394 Y17.143 E78.80527
G0 F10500 X30.186 Y29.564
G1 F1380 X41.845 Y17.905 E79.29635
G0 F10500 X41.874 Y18.582
G1 F1380 X30.640 Y29.817 E79.76954
G0 F10500 X31.817 Y30.054
G1 F1380 X29.912 Y31.959 E79.84978
G0 F10500 X29.848 Y31.316
G1 F1380 X41.025 Y20.139 E80.32056
G0 F10500 X40.044 Y21.826
G1 F1380 X32.329 Y29.542 E80.64554
G0 F10500 X32.178 Y30.400
G1 F1380 X29.974 Y32.603 E80.73835
G0 F10500 X30.037 Y33.248
G1 F1380 X32.538 Y30.747 E80.84369
G0 F10500 X32.567 Y31.425
G1 F1380 X30.100 Y33.892 E80.94760
G0 F10500 X30.164 Y34.535
G1 F1380 X32.497 Y32.203 E81.04585
G0 F10500 X32.426 Y32.980
G1 F1380 X30.227 Y35.179 E81.13847
G0 F10500 X30.290 Y35.824
G1 F1380 X32.355 Y33.758 E81.22547
G0 F10500 X32.285 Y34.536
G1 F1380 X30.353 Y36.468 E81.30684
G0 F10500 X30.416 Y37.111
G1 F1380 X32.215 Y35.313 E81.38260
G0 F10500 X32.144 Y36.091
G1 F1380 X30.479 Y37.755 E81.45270
G0 F10500 X30.542 Y38.400
G1 F1380 X32.073 Y36.869 E81.51719
G0 F10500 X32.002 Y37.647
G1 F1380 X30.605 Y39.044 E81.57603
G0 F10500 X30.669 Y39.687
G1 F1380 X31.932 Y38.424 E81.62923
G0 F10500 X31.861 Y39.202
G1 F1380 X30.732 Y40.331 E81.67678
G0 F10500 X30.795 Y40.976
G1 F1380 X31.790 Y39.980 E81.71871
G0 F10500 X32.178 Y29.977
G0 X33.923 Y28.655
G1 F1380 X39.063 Y23.515 E81.93521
G0 F10500 X38.081 Y25.204
G1 F1380 X35.581 Y27.704 E82.04051
G0 F10500 X37.240 Y26.752
G1 F1380 X37.888 Y26.104 E82.06780
G0 F10500 X32.178 Y29.977
G0 X31.720 Y40.758
G1 F1380 X30.858 Y41.620 E82.10411
G0 F10500 X30.921 Y42.264
G1 F1380 X31.649 Y41.536 E82.13478
G0 F10500 X31.579 Y42.313
G1 F1380 X31.246 Y42.999 E82.15980
G1 X31.242 Y43.710 E82.17916
G1 X31.110 Y44.196 E82.19416
G1 F600 E80.69416
G1 Z0.905
G0 F10500 X58.063 Y25.935
;TYPE:WALL-INNER
G1 Z0.805
G1 F600 E82.19416
G1 F1140 X57.831 Y24.736 E82.23053
G1 X54.289 Y18.748 E82.43774
G1 X53.767 Y17.708 E82.47240
G1 X53.465 Y17.193 E82.49018
G1 X54.036 Y17.174 E82.50719
G1 X54.178 Y16.315 E82.53312
G1 X55.092 Y16.329 E82.56035
G1 X55.159 Y15.923 E82.57260
G1 X55.658 Y16.334 E82.59186
G1 X56.343 Y16.748 E82.61570
G1 X59.534 Y19.457 E82.74036
G1 X61.205 Y19.167 E82.79088
G1 X64.796 Y19.688 E82.89895
G1 X68.380 Y19.141 E83.00693
G1 X70.055 Y19.422 E83.05751
G1 X73.229 Y16.686 E83.18232
G1 X73.908 Y16.268 E83.20607
G1 X74.406 Y15.852 E83.22539
G1 X74.476 Y16.258 E83.23766
G1 X75.391 Y16.238 E83.26492
G1 X75.537 Y17.095 E83.29081
G1 X76.111 Y17.111 E83.30792
G1 X75.813 Y17.626 E83.32564
G1 X75.291 Y18.680 E83.36067
G1 X71.800 Y24.684 E83.56752
G1 X71.575 Y25.884 E83.60388
G1 X67.539 Y28.200 E83.74247
G1 X66.638 Y28.703 E83.77320
G1 X65.545 Y29.308 E83.81041
G1 X66.391 Y30.122 E83.84538
G1 X65.153 Y43.748 E84.25288
G1 X64.835 Y43.767 E84.26237
G1 X64.541 Y43.758 E84.27113
G1 X63.211 Y30.198 E84.67693
G1 X64.111 Y29.314 E84.71450
G1 X62.109 Y28.215 E84.78252
G1 X58.063 Y25.935 E84.92084
G0 F10500 X57.356 Y24.916
;TYPE:WALL-OUTER
G1 F1080 X53.849 Y18.987 E85.12600
G1 X53.328 Y17.947 E85.16065
G1 X52.714 Y16.901 E85.19677
G1 X52.868 Y16.713 E85.20401
G1 X53.609 Y16.688 E85.22609
G1 X53.717 Y16.037 E85.24575
G1 X53.919 Y15.811 E85.25477
G1 X54.669 Y15.822 E85.27711
G1 X54.785 Y15.118 E85.29836
G1 X54.865 Y15.033 E85.30184
G1 X55.948 Y15.925 E85.34363
G1 X56.632 Y16.338 E85.36743
G1 X59.679 Y18.924 E85.48645
G1 X61.198 Y18.661 E85.53237
G1 X64.794 Y19.183 E85.64059
G1 X68.385 Y18.635 E85.74878
G1 X69.906 Y18.890 E85.79471
G1 X72.931 Y16.283 E85.91365
G1 X73.615 Y15.861 E85.93759
G1 X74.691 Y14.961 E85.97937
G1 X74.774 Y15.047 E85.98293
G1 X74.895 Y15.749 E86.00414
G1 X75.645 Y15.732 E86.02649
G1 X75.850 Y15.956 E86.03553
G1 X75.961 Y16.606 E86.05517
G1 X76.703 Y16.627 E86.07728
G1 X76.860 Y16.813 E86.08453
G1 X76.254 Y17.862 E86.12061
G1 X75.734 Y18.912 E86.15551
G1 X72.275 Y24.861 E86.36046
G1 X72.023 Y26.204 E86.40116
G1 X67.790 Y28.633 E86.54651
G1 X66.380 Y29.418 E86.59458
G1 X66.918 Y29.935 E86.61680
G1 X65.611 Y44.237 E87.04454
G1 X65.037 Y44.251 E87.06164
G1 X64.846 Y44.268 E87.06735
G1 X64.086 Y44.245 E87.08999
G1 X62.701 Y30.123 E87.51261
G1 X62.687 Y30.012 E87.51594
G1 X63.281 Y29.429 E87.54073
G1 X61.871 Y28.654 E87.58865
G1 X57.616 Y26.256 E87.73412
G1 X57.356 Y24.916 E87.77478
G0 F10500 X57.888 Y24.489
;TYPE:SKIN
G1 F1380 X62.802 Y19.575 E87.98175
G0 F10500 X62.185 Y19.485
G1 F1380 X57.625 Y24.045 E88.17382
G0 F10500 X57.362 Y23.601
G1 F1380 X61.567 Y19.395 E88.35096
G0 F10500 X60.851 Y19.405
G1 F1380 X57.099 Y23.157 E88.50899
G0 F10500 X56.836 Y22.712
G1 F1380 X59.995 Y19.553 E88.64205
G0 F10500 X59.329 Y19.512
G1 F1380 X56.574 Y22.268 E88.75811
G0 F10500 X56.311 Y21.824
G1 F1380 X58.947 Y19.188 E88.86914
G0 F10500 X58.564 Y18.863
G1 F1380 X56.048 Y21.380 E88.97513
G0 F10500 X55.785 Y20.936
G1 F1380 X58.182 Y18.538 E89.07612
G0 F10500 X57.799 Y18.214
G1 F1380 X55.522 Y20.491 E89.17202
G0 F10500 X55.259 Y20.047
G1 F1380 X57.417 Y17.889 E89.26292
G0 F10500 X57.034 Y17.565
G1 F1380 X54.996 Y19.603 E89.34876
G0 F10500 X54.734 Y19.158
G1 F1380 X56.651 Y17.240 E89.42952
G0 F10500 X56.269 Y16.916
G1 F1380 X54.471 Y18.714 E89.50526
G0 F10500 X54.231 Y18.246
G1 F1380 X55.833 Y16.644 E89.57273
G0 F10500 X55.412 Y16.358
G1 F1380 X53.996 Y17.775 E89.63240
G0 F10500 X54.277 Y16.786
G1 F1380 X54.568 Y16.495 E89.64465
G0 F10500 X58.064 Y25.020
G1 F1380 X63.420 Y19.664 E89.87025
G0 F10500 X64.037 Y19.754
G1 F1380 X58.178 Y25.613 E90.11703
G0 F10500 X58.513 Y25.986
G1 F1380 X64.655 Y19.844 E90.37573
G0 F10500 X65.439 Y19.767
G1 F1380 X58.966 Y26.240 E90.64837
G0 F10500 X59.420 Y26.493
G1 F1380 X66.274 Y19.639 E90.93707
G0 F10500 X67.108 Y19.511
G1 F1380 X59.874 Y26.746 E91.24178
G0 F10500 X60.328 Y26.999
G1 F1380 X67.943 Y19.383 E91.56255
G0 F10500 X68.668 Y19.366
G1 F1380 X60.781 Y27.253 E91.89475
G0 F10500 X61.235 Y27.506
G1 F1380 X69.273 Y19.468 E92.23331
G0 F10500 X69.879 Y19.569
G1 F1380 X61.689 Y27.759 E92.57827
G0 F10500 X62.143 Y28.012
G1 F1380 X73.310 Y16.846 E93.04861
G0 F10500 X74.428 Y16.434
G1 F1380 X62.596 Y28.266 E93.54697
G0 F10500 X63.050 Y28.519
G1 F1380 X75.151 Y16.419 E94.05665
G0 F10500 X75.333 Y16.944
G1 F1380 X63.504 Y28.772 E94.55486
G0 F10500 X63.957 Y29.026
G1 F1380 X75.709 Y17.274 E95.04986
G0 F10500 X75.176 Y18.515
G1 F1380 X63.397 Y30.294 E95.54599
G0 F10500 X63.460 Y30.938
G1 F1380 X74.210 Y20.187 E95.99880
G0 F10500 X73.228 Y21.877
G1 F1380 X66.564 Y28.541 E96.27949
G0 F10500 X65.550 Y29.555
G1 F1380 X63.522 Y31.582 E96.36489
G0 F10500 X63.586 Y32.226
G1 F1380 X65.910 Y29.902 E96.46278
G0 F10500 X66.195 Y30.324
G1 F1380 X63.649 Y32.870 E96.57001
G0 F10500 X63.712 Y33.514
G1 F1380 X66.124 Y31.102 E96.67161
G0 F10500 X66.053 Y31.880
G1 F1380 X63.775 Y34.158 E96.76756
G0 F10500 X63.839 Y34.802
G1 F1380 X65.982 Y32.658 E96.85784
G0 F10500 X65.912 Y33.435
G1 F1380 X63.901 Y35.446 E96.94254
G0 F10500 X63.964 Y36.090
G1 F1380 X65.842 Y34.213 E97.02162
G0 F10500 X65.771 Y34.991
G1 F1380 X64.027 Y36.734 E97.09506
G0 F10500 X64.091 Y37.378
G1 F1380 X65.700 Y35.768 E97.16285
G0 F10500 X65.630 Y36.546
G1 F1380 X64.154 Y38.022 E97.22502
G0 F10500 X64.217 Y38.666
G1 F1380 X65.559 Y37.324 E97.28155
G0 F10500 X65.488 Y38.102
G1 F1380 X64.280 Y39.310 E97.33243
G0 F10500 X64.343 Y39.954
G1 F1380 X65.417 Y38.880 E97.37766
G0 F10500 X65.347 Y39.657
G1 F1380 X64.406 Y40.598 E97.41730
G0 F10500 X64.469 Y41.242
G1 F1380 X65.277 Y40.435 E97.45131
G0 F10500 X65.206 Y41.213
G1 F1380 X64.834 Y41.938 E97.47966
G1 X64.830 Y42.649 E97.50232
G1 X64.659 Y43.174 E97.51876
G0 F10500 X65.764 Y29.337
G0 X68.186 Y27.626
G1 F1380 X72.247 Y23.565 E97.68981
G0 F10500 X71.571 Y24.948
G1 F1380 X69.845 Y26.674 E97.76251
G1 F600 E96.26251
G1 Z0.905
G0 F10500 X87.683 Y17.381
;TYPE:WALL-INNER
G1 Z0.805
G1 F600 E97.76251
G1 F1140 X87.381 Y16.866 E97.78029
G1 X87.951 Y16.847 E97.79728
G1 X88.093 Y15.988 E97.82321
G1 X89.007 Y16.002 E97.85043
G1 X89.074 Y15.594 E97.86275
G1 X89.574 Y16.006 E97.88204
G1 X90.257 Y16.420 E97.90583
G1 X93.449 Y19.129 E98.03052
G1 X95.120 Y18.839 E98.08103
G1 X98.711 Y19.361 E98.18911
G1 X102.295 Y18.813 E98.29710
G1 X103.970 Y19.094 E98.34768
G1 X107.144 Y16.358 E98.47249
G1 X107.823 Y15.940 E98.49623
G1 X108.322 Y15.523 E98.51560
G1 X108.392 Y15.931 E98.52793
G1 X109.306 Y15.911 E98.55516
G1 X109.452 Y16.766 E98.58099
G1 X110.026 Y16.783 E98.59810
G1 X109.727 Y17.299 E98.61586
G1 X109.210 Y18.346 E98.65064
G1 X105.716 Y24.357 E98.85771
G1 X105.491 Y25.557 E98.89407
G1 X101.455 Y27.872 E99.03265
G1 X100.554 Y28.375 E99.06338
G1 X99.462 Y28.979 E99.10055
G1 X100.306 Y29.794 E99.13549
G1 X99.069 Y43.420 E99.54299
G1 X98.750 Y43.439 E99.55251
G1 X98.455 Y43.431 E99.56130
G1 X97.126 Y29.871 E99.96710
G1 X98.031 Y28.989 E100.00473
G1 X96.024 Y27.887 E100.07293
G1 X91.978 Y25.608 E100.21123
G1 X91.746 Y24.409 E100.24760
G1 X88.205 Y18.421 E100.45480
G1 X87.683 Y17.381 E100.48945
G0 F10500 X87.244 Y17.620
;TYPE:WALL-OUTER
G1 F1080 X86.630 Y16.574 E100.52558
G1 X86.784 Y16.386 E100.53282
G1 X87.524 Y16.361 E100.55487
G1 X87.632 Y15.709 E100.57455
G1 X87.834 Y15.484 E100.58356
G1 X88.584 Y15.495 E100.60590
G1 X88.700 Y14.791 E100.62715
G1 X88.781 Y14.705 E100.63067
G1 X89.864 Y15.597 E100.67245
G1 X90.546 Y16.011 E100.69622
G1 X93.594 Y18.596 E100.81525
G1 X95.113 Y18.333 E100.86116
G1 X98.709 Y18.856 E100.96939
G1 X102.300 Y18.307 E101.07758
G1 X103.821 Y18.562 E101.12352
G1 X106.846 Y15.955 E101.24245
G1 X107.530 Y15.533 E101.26639
G1 X108.607 Y14.633 E101.30819
G1 X108.690 Y14.719 E101.31175
G1 X108.811 Y15.422 E101.33300
G1 X109.561 Y15.405 E101.35534
G1 X109.765 Y15.629 E101.36436
G1 X109.876 Y16.278 E101.38397
G1 X110.617 Y16.300 E101.40605
G1 X110.775 Y16.486 E101.41332
G1 X110.168 Y17.535 E101.44942
G1 X109.650 Y18.584 E101.48426
G1 X106.191 Y24.534 E101.68924
G1 X105.939 Y25.877 E101.72994
G1 X101.706 Y28.305 E101.87528
G1 X100.297 Y29.090 E101.92332
G1 X100.833 Y29.607 E101.94550
G1 X99.527 Y43.909 E102.37323
G1 X98.952 Y43.923 E102.39036
G1 X98.761 Y43.940 E102.39607
G1 X98.001 Y43.918 E102.41872
G1 X96.616 Y29.795 E102.84137
G1 X96.602 Y29.683 E102.84473
G1 X97.198 Y29.102 E102.86952
G1 X95.786 Y28.327 E102.91749
G1 X91.531 Y25.929 E103.06296
G1 X91.271 Y24.589 E103.10361
G1 X87.765 Y18.660 E103.30876
G1 X87.244 Y17.620 E103.34341
G0 F10500 X87.788 Y17.216
;TYPE:SKIN
G1 F1380 X87.985 Y17.020 E103.35168
G0 F10500 X88.121 Y16.883
G1 F1380 X88.831 Y16.173 E103.38159
G0 F10500 X89.529 Y16.182
G1 F1380 X88.029 Y17.682 E103.44477
G0 F10500 X88.265 Y18.154
G1 F1380 X89.968 Y16.450 E103.51652
G0 F10500 X90.375 Y16.751
G1 F1380 X88.518 Y18.608 E103.59474
G0 F10500 X88.781 Y19.052
G1 F1380 X90.757 Y17.075 E103.67799
G0 F10500 X91.140 Y17.400
G1 F1380 X89.043 Y19.497 E103.76631
G0 F10500 X89.306 Y19.941
G1 F1380 X91.522 Y17.725 E103.85965
G0 F10500 X91.905 Y18.049
G1 F1380 X89.569 Y20.385 E103.95804
G0 F10500 X89.832 Y20.829
G1 F1380 X92.288 Y18.374 E104.06147
G0 F10500 X92.671 Y18.698
G1 F1380 X90.095 Y21.274 E104.16997
G0 F10500 X90.357 Y21.718
G1 F1380 X93.053 Y19.022 E104.28353
G0 F10500 X93.483 Y19.300
G1 F1380 X90.620 Y22.162 E104.40409
G0 F10500 X90.883 Y22.606
G1 F1380 X94.338 Y19.151 E104.54962
G0 F10500 X95.174 Y19.023
G1 F1380 X91.146 Y23.051 E104.71928
G0 F10500 X91.409 Y23.495
G1 F1380 X95.791 Y19.113 E104.90385
G0 F10500 X96.409 Y19.202
G1 F1380 X91.672 Y23.939 E105.10337
G0 F10500 X91.921 Y24.397
G1 F1380 X97.026 Y19.292 E105.31839
G0 F10500 X97.643 Y19.382
G1 F1380 X92.036 Y24.989 E105.55456
G0 F10500 X92.199 Y25.533
G1 F1380 X98.260 Y19.472 E105.80985
G0 F10500 X98.936 Y19.503
G1 F1380 X92.653 Y25.786 E106.07449
G0 F10500 X93.107 Y26.039
G1 F1380 X99.772 Y19.375 E106.35520
G0 F10500 X100.607 Y19.247
G1 F1380 X93.561 Y26.293 E106.65198
G0 F10500 X94.015 Y26.546
G1 F1380 X101.441 Y19.120 E106.96476
G0 F10500 X102.276 Y18.992
G1 F1380 X94.469 Y26.799 E107.29359
G0 F10500 X94.922 Y27.053
G1 F1380 X102.886 Y19.089 E107.62904
G0 F10500 X103.492 Y19.190
G1 F1380 X95.376 Y27.306 E107.97088
G0 F10500 X95.830 Y27.559
G1 F1380 X104.673 Y18.717 E108.34333
G0 F10500 X108.619 Y19.013
G1 F1380 X97.343 Y30.289 E108.81828
G0 F10500 X97.406 Y30.933
G1 F1380 X99.286 Y29.053 E108.89746
G0 F10500 X99.646 Y29.400
G1 F1380 X97.469 Y31.577 E108.98916
G0 F10500 X97.532 Y32.221
G1 F1380 X100.006 Y29.747 E109.09336
G0 F10500 X100.074 Y30.386
G1 F1380 X97.595 Y32.865 E109.19778
G0 F10500 X97.659 Y33.509
G1 F1380 X100.003 Y31.164 E109.29653
G0 F10500 X99.682 Y28.656
G1 F1380 X107.637 Y20.701 E109.63159
G0 F10500 X106.656 Y22.390
G1 F1380 X101.276 Y27.770 E109.85820
G0 F10500 X102.930 Y26.823
G1 F1380 X105.674 Y24.079 E109.97378
G0 F10500 X105.405 Y25.055
G1 F1380 X104.588 Y25.872 E110.00819
G0 F10500 X98.099 Y28.825
G1 F1380 X109.438 Y17.487 E110.48577
G0 F10500 X109.299 Y16.918
G1 F1380 X97.645 Y28.572 E110.97664
G0 F10500 X97.192 Y28.318
G1 F1380 X109.196 Y16.315 E111.48222
G0 F10500 X108.704 Y16.099
G1 F1380 X96.738 Y28.065 E111.98623
G0 F10500 X96.284 Y27.812
G1 F1380 X108.174 Y15.922 E112.48704
G0 F10500 X99.681 Y29.008
G0 X99.933 Y31.941
G1 F1380 X97.722 Y34.153 E112.58019
G0 F10500 X97.785 Y34.797
G1 F1380 X99.863 Y32.719 E112.66771
G0 F10500 X99.792 Y33.497
G1 F1380 X97.848 Y35.441 E112.74960
G0 F10500 X97.910 Y36.085
G1 F1380 X99.721 Y34.274 E112.82587
G0 F10500 X99.651 Y35.052
G1 F1380 X97.974 Y36.729 E112.89651
G0 F10500 X98.037 Y37.373
G1 F1380 X99.580 Y35.830 E112.96150
G0 F10500 X99.510 Y36.607
G1 F1380 X98.100 Y38.017 E113.02089
G0 F10500 X98.163 Y38.661
G1 F1380 X99.439 Y37.385 E113.07464
G0 F10500 X99.369 Y38.163
G1 F1380 X98.227 Y39.305 E113.12274
G0 F10500 X98.289 Y39.949
G1 F1380 X99.298 Y38.941 E113.16521
G0 F10500 X99.227 Y39.718
G1 F1380 X98.352 Y40.593 E113.20207
G0 F10500 X98.415 Y41.237
G1 F1380 X99.156 Y40.496 E113.23328
G0 F10500 X99.086 Y41.273
G1 F1380 X98.747 Y41.966 E113.25888
G1 X98.743 Y42.677 E113.27883
G1 X98.605 Y43.169 E113.29404
;LAYER:2
G1 F600 E111.79404
G1 Z0.905
G0 F10500 X42.378 Y17.861 Z1.185
;TYPE:WALL-INNER
G1 Z1.185
G1 F600 E113.29404
G1 F1440 X41.566 Y19.459 E113.34743
G1 X38.544 Y24.654 E113.52643
G1 X38.156 Y26.729 E113.58930
G1 X34.382 Y28.894 E113.71889
G1 X31.703 Y30.388 E113.81024
G1 X32.780 Y31.426 E113.85479
G1 X32.765 Y31.534 E113.85804
G1 X31.612 Y44.226 E114.23761
G1 X31.526 Y44.228 E114.24017
G1 X31.231 Y44.253 E114.24899
G1 X30.862 Y44.240 E114.25998
G1 X29.618 Y31.554 E114.63963
G1 X29.616 Y31.540 E114.64005
G1 X30.790 Y30.392 E114.68895
G1 X28.094 Y28.912 E114.78055
G1 X24.311 Y26.781 E114.90987
G1 X23.910 Y24.709 E114.97273
G1 X20.842 Y19.521 E115.15224
G1 X20.039 Y17.927 E115.20540
G1 X20.607 Y17.906 E115.22233
G1 X20.710 Y17.282 E115.24116
G1 X20.864 Y17.110 E115.24804
G1 X21.521 Y17.121 E115.26761
G1 X21.593 Y16.675 E115.28106
G1 X21.725 Y16.784 E115.28616
G1 X22.835 Y17.454 E115.32478
G1 X25.620 Y19.818 E115.43358
G1 X28.182 Y19.373 E115.51103
G1 X31.208 Y19.812 E115.60209
G1 X34.228 Y19.351 E115.69308
G1 X36.794 Y19.781 E115.77057
G1 X39.565 Y17.392 E115.87954
G1 X40.667 Y16.714 E115.91807
G1 X40.801 Y16.602 E115.92328
G1 X40.878 Y17.050 E115.93681
G1 X41.532 Y17.035 E115.95630
G1 X41.689 Y17.206 E115.96321
G1 X41.794 Y17.827 E115.98197
G1 X42.362 Y17.843 E115.99889
G1 X42.378 Y17.861 E115.99961
G0 F10500 X42.219 Y17.338
;TYPE:WALL-OUTER
G1 F1320 X42.599 Y17.349 E116.01093
G1 X42.974 Y17.793 E116.02824
G1 X42.015 Y19.680 E116.09128
G1 X39.019 Y24.831 E116.26876
G1 X38.604 Y27.049 E116.33597
G1 X34.633 Y29.327 E116.47232
G1 X32.536 Y30.496 E116.54382
G1 X33.309 Y31.241 E116.57580
G1 X33.262 Y31.590 E116.58628
G1 X32.070 Y44.714 E116.97877
G1 X31.553 Y44.727 E116.99417
G1 X31.238 Y44.754 E117.00359
G1 X30.408 Y44.725 E117.02832
G1 X29.121 Y31.609 E117.42084
G1 X29.090 Y31.356 E117.42843
G1 X29.959 Y30.506 E117.46463
G1 X27.856 Y29.352 E117.53608
G1 X23.864 Y27.102 E117.67256
G1 X23.435 Y24.889 E117.73970
G1 X20.402 Y19.761 E117.91714
G1 X19.554 Y18.074 E117.97338
G1 X19.436 Y17.872 E117.98034
G1 X19.800 Y17.431 E117.99737
G1 X20.180 Y17.419 E118.00870
G1 X20.240 Y17.057 E118.01963
G1 X20.644 Y16.606 E118.03766
G1 X21.096 Y16.614 E118.05112
G1 X21.168 Y16.171 E118.06449
G1 X21.430 Y15.893 E118.07587
G1 X22.015 Y16.375 E118.09844
G1 X23.124 Y17.044 E118.13702
G1 X25.765 Y19.285 E118.24018
G1 X28.175 Y18.867 E118.31303
G1 X31.206 Y19.307 E118.40425
G1 X34.233 Y18.845 E118.49545
G1 X36.645 Y19.249 E118.56828
G1 X39.267 Y16.989 E118.67138
G1 X40.374 Y16.307 E118.71011
G1 X40.956 Y15.821 E118.73269
G1 X41.221 Y16.097 E118.74408
G1 X41.297 Y16.540 E118.75747
G1 X41.748 Y16.530 E118.77091
G1 X42.157 Y16.977 E118.78895
G1 X42.219 Y17.338 E118.79986
G0 F10500 X41.636 Y17.948
;TYPE:SKIN
G1 F1920 X40.912 Y17.224 E118.83036
G0 F10500 X40.192 Y17.211
G1 F1920 X41.730 Y18.749 E118.89514
G0 F10500 X41.968 Y18.280
G1 F1920 X41.687 Y17.999 E118.90697
G0 F10500 X41.492 Y19.218
G1 F1920 X39.754 Y17.481 E118.98016
G0 F10500 X39.363 Y17.796
G1 F1920 X41.239 Y19.672 E119.05917
G0 F10500 X40.979 Y20.120
G1 F1920 X38.983 Y18.123 E119.14327
G0 F10500 X38.603 Y18.451
G1 F1920 X40.719 Y20.566 E119.23237
G0 F10500 X40.459 Y21.013
G1 F1920 X38.224 Y18.778 E119.32651
G0 F10500 X37.844 Y19.106
G1 F1920 X40.199 Y21.460 E119.42568
G0 F10500 X39.939 Y21.908
G1 F1920 X37.464 Y19.433 E119.52993
G0 F10500 X37.084 Y19.760
G1 F1920 X39.679 Y22.355 E119.63923
G0 F10500 X39.419 Y22.802
G1 F1920 X36.531 Y19.914 E119.76087
G0 F10500 X35.682 Y19.772
G1 F1920 X39.159 Y23.249 E119.90732
G0 F10500 X38.899 Y23.696
G1 F1920 X34.832 Y19.629 E120.07863
G0 F10500 X34.050 Y19.554
G1 F1920 X38.639 Y24.143 E120.27192
G0 F10500 X38.379 Y24.591
G1 F1920 X33.436 Y19.648 E120.48012
G0 F10500 X32.823 Y19.742
G1 F1920 X38.266 Y25.185 E120.70937
G0 F10500 X38.154 Y25.780
G1 F1920 X32.210 Y19.836 E120.95974
G0 F10500 X31.597 Y19.929
G1 F1920 X38.043 Y26.375 E121.23124
G0 F10500 X37.729 Y26.769
G1 F1920 X30.905 Y19.945 E121.51867
G0 F10500 X30.078 Y19.825
G1 F1920 X37.277 Y27.024 E121.82189
G0 F10500 X36.826 Y27.280
G1 F1920 X29.251 Y19.705 E122.14095
G0 F10500 X28.424 Y19.585
G1 F1920 X36.374 Y27.536 E122.47583
G0 F10500 X35.923 Y27.792
G1 F1920 X27.756 Y19.624 E122.81984
G0 F10500 X27.153 Y19.728
G1 F1920 X35.472 Y28.048 E123.17026
G0 F10500 X35.020 Y28.303
G1 F1920 X26.551 Y19.833 E123.52700
G0 F10500 X25.947 Y19.937
G1 F1920 X34.569 Y28.559 E123.89016
G0 F10500 X34.118 Y28.815
G1 F1920 X23.846 Y18.543 E124.32281
G0 F10500 X21.699 Y17.103
G1 F1920 X33.666 Y29.070 E124.82686
G0 F10500 X33.215 Y29.326
G1 F1920 X21.179 Y17.290 E125.33382
G0 F10500 X20.826 Y17.644
G1 F1920 X32.764 Y29.582 E125.83665
G0 F10500 X32.312 Y29.837
G1 F1920 X20.557 Y18.082 E126.33177
G0 F10500 X20.779 Y19.011
G1 F1920 X31.861 Y30.093 E126.79855
G0 F10500 X31.410 Y30.349
G1 F1920 X21.712 Y20.651 E127.20703
G0 F10500 X22.737 Y22.383
G1 F1920 X30.232 Y29.878 E127.52272
G0 F10500 X30.892 Y30.538
G1 F1920 X32.531 Y32.177 E127.59175
G0 F10500 X32.589 Y31.529
G1 F1920 X31.410 Y30.349 E127.64143
G0 F10500 X30.534 Y30.887
G1 F1920 X32.472 Y32.826 E127.72308
G0 F10500 X32.413 Y33.473
G1 F1920 X30.176 Y31.237 E127.81728
G0 F10500 X29.819 Y31.587
G1 F1920 X32.354 Y34.122 E127.92406
G0 F10500 X32.295 Y34.770
G1 F1920 X29.871 Y32.345 E128.02618
G0 F10500 X29.948 Y33.130
G1 F1920 X32.236 Y35.418 E128.12255
G0 F10500 X32.177 Y36.066
G1 F1920 X30.025 Y33.914 E128.21319
G0 F10500 X30.101 Y34.697
G1 F1920 X32.118 Y36.715 E128.29817
G0 F10500 X32.059 Y37.362
G1 F1920 X30.178 Y35.481 E128.37739
G0 F10500 X30.255 Y36.266
G1 F1920 X32.000 Y38.011 E128.45089
G0 F10500 X31.942 Y38.659
G1 F1920 X30.332 Y37.050 E128.51869
G0 F10500 X30.409 Y37.833
G1 F1920 X31.882 Y39.307 E128.58075
G0 F10500 X31.824 Y39.955
G1 F1920 X30.486 Y38.617 E128.63711
G0 F10500 X30.563 Y39.402
G1 F1920 X31.765 Y40.604 E128.68774
G0 F10500 X31.705 Y41.251
G1 F1920 X30.640 Y40.186 E128.73259
G0 F10500 X30.716 Y40.969
G1 F1920 X31.647 Y41.900 E128.77181
G0 F10500 X31.588 Y42.548
G1 F1920 X30.793 Y41.753 E128.80529
G0 F10500 X30.870 Y42.538
G1 F1920 X31.238 Y43.259 E128.83302
G1 X31.470 Y43.844 E128.85176
G0 F10500 X30.573 Y30.422
G0 X28.635 Y28.989
G1 F1920 X23.761 Y24.115 E129.05705
G0 F10500 X24.192 Y25.253
G1 F1920 X27.039 Y28.100 E129.17697
G0 F10500 X25.443 Y27.210
G1 F1920 X24.362 Y26.130 E129.22248
G1 F600 E127.72248
G1 Z1.285
G0 F10500 X53.625 Y17.286
;TYPE:WALL-INNER
G1 Z1.185
G1 F600 E129.22248
G1 F1440 X54.192 Y17.265 E129.23938
G1 X54.295 Y16.643 E129.25816
G1 X54.450 Y16.470 E129.26508
G1 X55.107 Y16.481 E129.28465
G1 X55.179 Y16.034 E129.29813
G1 X55.311 Y16.143 E129.30323
G1 X56.421 Y16.814 E129.34186
G1 X59.206 Y19.178 E129.45066
G1 X61.768 Y18.733 E129.52811
G1 X64.794 Y19.172 E129.61918
G1 X67.814 Y18.711 E129.71016
G1 X70.380 Y19.141 E129.78765
G1 X73.151 Y16.752 E129.89662
G1 X74.253 Y16.074 E129.93516
G1 X74.387 Y15.962 E129.94036
G1 X74.464 Y16.407 E129.95381
G1 X75.117 Y16.394 E129.97326
G1 X75.275 Y16.566 E129.98022
G1 X75.380 Y17.186 E129.99894
G1 X75.948 Y17.202 E130.01587
G1 X75.964 Y17.220 E130.01659
G1 X75.152 Y18.819 E130.07000
G1 X72.130 Y24.013 E130.24897
G1 X71.742 Y26.089 E130.31187
G1 X67.976 Y28.250 E130.44119
G1 X65.289 Y29.748 E130.53282
G1 X66.366 Y30.786 E130.57736
G1 X66.351 Y30.894 E130.58061
G1 X65.198 Y43.586 E130.96018
G1 X65.112 Y43.588 E130.96274
G1 X64.817 Y43.613 E130.97156
G1 X64.448 Y43.600 E130.98256
G1 X63.204 Y30.913 E131.36223
G1 X63.202 Y30.899 E131.36265
G1 X64.376 Y29.751 E131.41156
G1 X61.680 Y28.271 E131.50316
G1 X57.897 Y26.140 E131.63247
G1 X57.496 Y24.068 E131.69533
G1 X54.428 Y18.880 E131.87484
G1 X53.625 Y17.286 E131.92800
G0 F10500 X53.766 Y16.778
;TYPE:WALL-OUTER
G1 F1320 X53.826 Y16.417 E131.93890
G1 X54.230 Y15.966 E131.95693
G1 X54.682 Y15.974 E131.97040
G1 X54.754 Y15.530 E131.98379
G1 X55.016 Y15.252 E131.99517
G1 X55.601 Y15.734 E132.01775
G1 X56.710 Y16.404 E132.05634
G1 X59.351 Y18.645 E132.15949
G1 X61.761 Y18.227 E132.23234
G1 X64.792 Y18.667 E132.32356
G1 X67.819 Y18.205 E132.41476
G1 X70.231 Y18.609 E132.48760
G1 X72.853 Y16.349 E132.59070
G1 X73.960 Y15.667 E132.62942
G1 X74.542 Y15.181 E132.65201
G1 X74.807 Y15.457 E132.66340
G1 X74.883 Y15.898 E132.67673
G1 X75.333 Y15.889 E132.69013
G1 X75.743 Y16.336 E132.70820
G1 X75.805 Y16.697 E132.71911
G1 X76.185 Y16.708 E132.73043
G1 X76.560 Y17.152 E132.74774
G1 X75.601 Y19.040 E132.81081
G1 X72.605 Y24.190 E132.98826
G1 X72.190 Y26.408 E133.05547
G1 X68.219 Y28.687 E133.19183
G1 X66.122 Y29.856 E133.26334
G1 X66.895 Y30.601 E133.29531
G1 X66.848 Y30.950 E133.30580
G1 X65.656 Y44.074 E133.69828
G1 X65.139 Y44.087 E133.71369
G1 X64.824 Y44.114 E133.72310
G1 X63.994 Y44.085 E133.74784
G1 X62.707 Y30.968 E134.14038
G1 X62.676 Y30.715 E134.14797
G1 X63.545 Y29.865 E134.18418
G1 X61.442 Y28.711 E134.25562
G1 X57.450 Y26.461 E134.39210
G1 X57.021 Y24.248 E134.45924
G1 X53.988 Y19.120 E134.63669
G1 X53.140 Y17.433 E134.69292
G1 X53.022 Y17.231 E134.69989
G1 X53.386 Y16.790 E134.71692
G1 X53.766 Y16.778 E134.72824
G0 F10500 X54.502 Y16.672
;TYPE:SKIN
G1 F1920 X66.619 Y28.789 E135.23861
G0 F10500 X66.168 Y29.045
G1 F1920 X54.370 Y17.247 E135.73554
G0 F10500 X53.939 Y17.523
G1 F1920 X65.717 Y29.301 E136.23163
G0 F10500 X65.265 Y29.556
G1 F1920 X54.688 Y18.979 E136.67714
G0 F10500 X55.195 Y16.658
G1 F1920 X67.071 Y28.533 E137.17733
G0 F10500 X67.522 Y28.277
G1 F1920 X56.022 Y16.778 E137.66169
G0 F10500 X59.292 Y19.340
G1 F1920 X67.973 Y28.021 E138.02734
G0 F10500 X68.425 Y27.766
G1 F1920 X59.894 Y19.236 E138.38664
G0 F10500 X60.497 Y19.131
G1 F1920 X68.876 Y27.510 E138.73957
G0 F10500 X69.327 Y27.254
G1 F1920 X61.099 Y19.026 E139.08613
G0 F10500 X61.702 Y18.922
G1 F1920 X69.779 Y26.999 E139.42633
G0 F10500 X70.230 Y26.743
G1 F1920 X62.503 Y19.016 E139.75180
G0 F10500 X63.330 Y19.136
G1 F1920 X70.681 Y26.487 E140.06142
G0 F10500 X71.133 Y26.232
G1 F1920 X64.157 Y19.256 E140.35525
G0 F10500 X64.935 Y19.327
G1 F1920 X71.583 Y25.975 E140.63526
G0 F10500 X71.695 Y25.380
G1 F1920 X65.549 Y19.234 E140.89413
G0 F10500 X66.162 Y19.139
G1 F1920 X71.807 Y24.784 E141.13190
G0 F10500 X71.919 Y24.189
G1 F1920 X66.776 Y19.046 E141.34853
G0 F10500 X67.390 Y18.953
G1 F1920 X72.119 Y23.683 E141.54773
G0 F10500 X72.380 Y23.236
G1 F1920 X68.076 Y18.932 E141.72902
G0 F10500 X68.926 Y19.075
G1 F1920 X72.639 Y22.788 E141.88541
G0 F10500 X72.899 Y22.341
G1 F1920 X69.775 Y19.217 E142.01699
G0 F10500 X70.517 Y19.252
G1 F1920 X73.160 Y21.894 E142.12829
G0 F10500 X73.420 Y21.447
G1 F1920 X70.897 Y18.925 E142.23454
G0 F10500 X71.277 Y18.597
G1 F1920 X73.680 Y21.001 E142.33578
G0 F10500 X73.940 Y20.553
G1 F1920 X71.656 Y18.270 E142.43196
G0 F10500 X72.037 Y17.943
G1 F1920 X74.200 Y20.106 E142.52307
G0 F10500 X65.508 Y29.777
G0 X66.151 Y31.150
G1 F1920 X55.712 Y20.711 E142.96276
G0 F10500 X56.737 Y22.442
G1 F1920 X63.173 Y28.878 E143.23384
G0 F10500 X64.333 Y30.038
G1 F1920 X66.092 Y31.797 E143.30793
G0 F10500 X66.033 Y32.446
G1 F1920 X63.976 Y30.388 E143.39459
G0 F10500 X63.618 Y30.737
G1 F1920 X65.975 Y33.094 E143.49387
G0 F10500 X65.915 Y33.742
G1 F1920 X63.410 Y31.237 E143.59938
G0 F10500 X63.487 Y32.021
G1 F1920 X65.857 Y34.390 E143.69918
G0 F10500 X65.798 Y35.039
G1 F1920 X63.564 Y32.805 E143.79328
G0 F10500 X63.641 Y33.589
G1 F1920 X65.739 Y35.686 E143.88163
G0 F10500 X65.680 Y36.335
G1 F1920 X63.718 Y34.373 E143.96427
G0 F10500 X63.795 Y35.157
G1 F1920 X65.621 Y36.983 E144.04118
G0 F10500 X65.562 Y37.631
G1 F1920 X63.872 Y35.941 E144.11236
G0 F10500 X63.949 Y36.725
G1 F1920 X65.503 Y38.279 E144.17781
G0 F10500 X65.444 Y38.928
G1 F1920 X64.026 Y37.509 E144.23756
G0 F10500 X64.103 Y38.294
G1 F1920 X65.385 Y39.576 E144.29156
G0 F10500 X65.326 Y40.224
G1 F1920 X64.179 Y39.077 E144.33987
G0 F10500 X64.256 Y39.861
G1 F1920 X65.268 Y40.872 E144.38248
G0 F10500 X65.208 Y41.520
G1 F1920 X64.333 Y40.645 E144.41933
G0 F10500 X64.411 Y41.430
G1 F1920 X65.149 Y42.169 E144.45044
G0 F10500 X65.091 Y42.817
G1 F1920 X64.526 Y42.605 E144.47582
G1 X64.988 Y43.422 E144.50377
G0 F10500 X64.159 Y29.781
G0 X61.578 Y27.990
G1 F1920 X57.677 Y24.090 E144.66806
G0 F10500 X57.846 Y24.966
G1 F1920 X59.982 Y27.101 E144.75801
G0 F10500 X58.386 Y26.213
G1 F1920 X58.015 Y25.842 E144.77363
G0 F10500 X70.359 Y19.067
G0 X72.416 Y17.616
G1 F1920 X74.460 Y19.659 E144.85970
G0 F10500 X74.720 Y19.212
G1 F1920 X72.796 Y17.288 E144.94074
G0 F10500 X73.176 Y16.961
G1 F1920 X74.980 Y18.765 E145.01673
G0 F10500 X75.220 Y18.298
G1 F1920 X73.602 Y16.679 E145.08490
G0 F10500 X74.039 Y16.410
G1 F1920 X75.458 Y17.828 E145.14465
G0 F10500 X75.136 Y16.800
G1 F1920 X74.908 Y16.572 E145.15425
G1 F600 E143.65425
G1 Z1.285
G0 F10500 X87.541 Y16.959
;TYPE:WALL-INNER
G1 Z1.185
G1 F600 E145.15425
G1 F1440 X88.105 Y16.938 E145.17106
G1 X88.211 Y16.315 E145.18988
G1 X88.366 Y16.142 E145.19680
G1 X89.020 Y16.153 E145.21628
G1 X89.093 Y15.706 E145.22977
G1 X89.227 Y15.816 E145.23493
G1 X90.336 Y16.486 E145.27352
G1 X93.121 Y18.850 E145.38232
G1 X95.683 Y18.405 E145.45977
G1 X98.710 Y18.844 E145.55087
G1 X101.729 Y18.383 E145.64183
G1 X104.295 Y18.813 E145.71932
G1 X107.066 Y16.425 E145.82826
G1 X108.169 Y15.746 E145.86684
G1 X108.303 Y15.634 E145.87204
G1 X108.380 Y16.080 E145.88552
G1 X109.033 Y16.067 E145.90497
G1 X109.190 Y16.238 E145.91189
G1 X109.295 Y16.859 E145.93065
G1 X109.863 Y16.875 E145.94757
G1 X109.879 Y16.894 E145.94831
G1 X109.068 Y18.491 E146.00166
G1 X106.046 Y23.686 E146.18065
G1 X105.658 Y25.761 E146.24353
G1 X101.884 Y27.926 E146.37311
G1 X100.419 Y28.743 E146.42307
G1 X99.202 Y29.418 E146.46452
G1 X100.282 Y30.458 E146.50917
G1 X100.267 Y30.566 E146.51242
G1 X99.114 Y43.258 E146.89199
G1 X99.027 Y43.260 E146.89458
G1 X98.732 Y43.285 E146.90340
G1 X98.364 Y43.272 E146.91436
G1 X97.120 Y30.586 E147.29401
G1 X97.118 Y30.572 E147.29443
G1 X98.292 Y29.424 E147.34333
G1 X95.596 Y27.944 E147.43493
G1 X91.812 Y25.813 E147.56428
G1 X91.411 Y23.741 E147.62713
G1 X88.344 Y18.553 E147.80663
G1 X87.541 Y16.959 E147.85979
G0 F10500 X87.680 Y16.451
;TYPE:WALL-OUTER
G1 F1320 X87.742 Y16.089 E147.87073
G1 X88.146 Y15.638 E147.88876
G1 X88.597 Y15.646 E147.90220
G1 X88.670 Y15.203 E147.91557
G1 X88.932 Y14.925 E147.92694
G1 X89.517 Y15.407 E147.94952
G1 X90.625 Y16.076 E147.98807
G1 X93.266 Y18.317 E148.09123
G1 X95.676 Y17.899 E148.16408
G1 X98.708 Y18.339 E148.25533
G1 X101.734 Y17.877 E148.34650
G1 X104.146 Y18.281 E148.41933
G1 X106.768 Y16.021 E148.52243
G1 X107.876 Y15.339 E148.56118
G1 X108.457 Y14.853 E148.58374
G1 X108.723 Y15.130 E148.59518
G1 X108.799 Y15.571 E148.60851
G1 X109.249 Y15.562 E148.62191
G1 X109.658 Y16.009 E148.63996
G1 X109.720 Y16.370 E148.65087
G1 X110.100 Y16.381 E148.66219
G1 X110.475 Y16.825 E148.67950
G1 X109.517 Y18.712 E148.74253
G1 X106.521 Y23.863 E148.92001
G1 X106.106 Y26.081 E148.98721
G1 X102.135 Y28.359 E149.12356
G1 X100.037 Y29.528 E149.19509
G1 X100.811 Y30.273 E149.22709
G1 X100.764 Y30.622 E149.23758
G1 X99.572 Y43.746 E149.63006
G1 X99.054 Y43.759 E149.64549
G1 X98.739 Y43.786 E149.65491
G1 X97.910 Y43.757 E149.67962
G1 X96.623 Y30.641 E150.07213
G1 X96.592 Y30.388 E150.07972
G1 X97.461 Y29.538 E150.11593
G1 X95.358 Y28.384 E150.18737
G1 X91.365 Y26.134 E150.32388
G1 X90.936 Y23.921 E150.39101
G1 X87.904 Y18.793 E150.56844
G1 X87.056 Y17.106 E150.62468
G1 X86.938 Y16.904 E150.63165
G1 X87.302 Y16.463 E150.64868
G1 X87.680 Y16.451 E150.65994
G0 F10500 X88.343 Y16.571
;TYPE:SKIN
G1 F1920 X100.340 Y28.569 E151.16528
G0 F10500 X100.792 Y28.313
G1 F1920 X88.802 Y16.324 E151.67027
G0 F10500 X89.216 Y16.030
G1 F1920 X101.243 Y28.057 E152.17685
G0 F10500 X101.695 Y27.802
G1 F1920 X92.144 Y18.251 E152.57914
G0 F10500 X93.552 Y18.952
G1 F1920 X102.146 Y27.546 E152.94112
G0 F10500 X102.598 Y27.291
G1 F1920 X94.154 Y18.847 E153.29678
G0 F10500 X94.757 Y18.743
G1 F1920 X103.050 Y27.036 E153.64608
G0 F10500 X103.501 Y26.780
G1 F1920 X95.359 Y18.638 E153.98903
G0 F10500 X96.066 Y18.637
G1 F1920 X103.953 Y26.524 E154.32123
G0 F10500 X104.404 Y26.269
G1 F1920 X96.892 Y18.757 E154.63763
G0 F10500 X97.720 Y18.877
G1 F1920 X104.856 Y26.013 E154.93820
G0 F10500 X105.307 Y25.758
G1 F1920 X98.547 Y18.997 E155.22295
G0 F10500 X99.202 Y18.946
G1 F1920 X105.563 Y25.307 E155.49088
G0 F10500 X105.675 Y24.711
G1 F1920 X99.816 Y18.852 E155.73766
G0 F10500 X99.888 Y28.824
G1 F1920 X88.174 Y17.110 E156.23106
G0 F10500 X88.160 Y17.803
G1 F1920 X99.437 Y29.080 E156.70604
G0 F10500 X98.985 Y29.335
G1 F1920 X89.041 Y19.391 E157.12489
G0 F10500 X90.064 Y21.121
G1 F1920 X98.005 Y29.062 E157.45936
G0 F10500 X98.454 Y29.511
G1 F1920 X100.042 Y31.099 E157.52625
G0 F10500 X99.421 Y29.447
G0 X105.787 Y24.116
G1 F1920 X100.429 Y18.758 E157.75193
G0 F10500 X101.042 Y18.664
G1 F1920 X105.924 Y23.546 E157.95756
G0 F10500 X106.184 Y23.099
G1 F1920 X101.656 Y18.571 E158.14828
G0 F10500 X102.478 Y18.686
G1 F1920 X106.445 Y22.652 E158.31535
G0 F10500 X106.705 Y22.205
G1 F1920 X103.328 Y18.828 E158.45759
G0 F10500 X104.178 Y18.971
G1 F1920 X106.965 Y21.759 E158.57499
G0 F10500 X107.224 Y21.311
G1 F1920 X104.650 Y18.736 E158.68343
G0 F10500 X105.030 Y18.409
G1 F1920 X107.485 Y20.864 E158.78684
G0 F10500 X107.745 Y20.417
G1 F1920 X105.410 Y18.082 E158.88519
G0 F10500 X105.790 Y17.755
G1 F1920 X108.005 Y19.970 E158.97848
G0 F10500 X108.265 Y19.523
G1 F1920 X106.169 Y17.428 E159.06675
G0 F10500 X106.549 Y17.100
G1 F1920 X108.525 Y19.076 E159.14998
G0 F10500 X108.785 Y18.629
G1 F1920 X106.929 Y16.773 E159.22815
G0 F10500 X107.331 Y16.467
G1 F1920 X109.035 Y18.171 E159.29992
G0 F10500 X109.272 Y17.702
G1 F1920 X107.768 Y16.197 E159.36329
G0 F10500 X108.529 Y16.252
G1 F1920 X109.212 Y16.934 E159.38779
G1 X109.511 Y17.233 E159.40038
G0 F10500 X98.096 Y29.861
G1 F1920 X99.984 Y31.748 E159.47988
G0 F10500 X99.924 Y32.396
G1 F1920 X97.739 Y30.210 E159.57193
G0 F10500 X97.382 Y30.560
G1 F1920 X99.866 Y33.044 E159.67656
G0 F10500 X99.807 Y33.692
G1 F1920 X97.360 Y31.245 E159.77963
G0 F10500 X97.436 Y32.029
G1 F1920 X99.748 Y34.340 E159.87699
G0 F10500 X99.689 Y34.989
G1 F1920 X97.513 Y32.813 E159.96864
G0 F10500 X97.590 Y33.597
G1 F1920 X99.630 Y35.637 E160.05457
G0 F10500 X99.571 Y36.285
G1 F1920 X97.667 Y34.381 E160.13476
G0 F10500 X97.744 Y35.165
G1 F1920 X99.512 Y36.933 E160.20923
G0 F10500 X99.453 Y37.582
G1 F1920 X97.821 Y35.949 E160.27799
G0 F10500 X97.898 Y36.733
G1 F1920 X99.394 Y38.229 E160.34100
G0 F10500 X99.335 Y38.878
G1 F1920 X97.975 Y37.517 E160.39831
G0 F10500 X98.051 Y38.301
G1 F1920 X99.277 Y39.526 E160.44993
G0 F10500 X99.217 Y40.174
G1 F1920 X98.128 Y39.085 E160.49580
G0 F10500 X98.205 Y39.869
G1 F1920 X99.158 Y40.822 E160.53594
G0 F10500 X99.100 Y41.471
G1 F1920 X98.282 Y40.653 E160.57039
G0 F10500 X98.359 Y41.437
G1 F1920 X98.738 Y42.169 E160.59907
G1 X98.797 Y42.936 E160.62202
G1 X98.513 Y43.005 E160.63073
G0 F10500 X98.075 Y29.454
G0 X96.409 Y28.173
G1 F1920 X91.086 Y22.850 E160.85493
G0 F10500 X91.664 Y24.135
G1 F1920 X94.813 Y27.285 E160.98759
G0 F10500 X93.217 Y26.396
G1 F1920 X91.833 Y25.011 E161.04590
;LAYER:3
G1 F600 E159.54590
G1 Z1.285
G0 F10500 X42.085 Y18.266 Z1.565
;TYPE:WALL-INNER
G1 Z1.565
G1 F600 E161.04590
G1 F1740 X41.433 Y19.584 E161.08970
G1 X38.875 Y23.984 E161.24128
G1 X38.324 Y26.932 E161.33060
G1 X34.819 Y28.943 E161.45096
G1 X32.113 Y30.454 E161.54326
G1 X32.113 Y31.471 E161.57355
G1 X32.758 Y32.095 E161.60028
G1 X31.657 Y44.063 E161.95824
G1 X31.216 Y44.098 E161.97141
G1 X30.800 Y44.068 E161.98383
G1 X30.768 Y44.067 E161.98479
G1 X29.624 Y32.400 E162.33394
G1 X29.605 Y32.245 E162.33859
G1 X31.054 Y30.828 E162.39895
G1 X27.664 Y28.969 E162.51410
G1 X24.145 Y26.986 E162.63440
G1 X23.574 Y24.041 E162.72375
G1 X20.980 Y19.655 E162.87551
G1 X20.320 Y18.344 E162.91923
G1 X20.717 Y17.839 E162.93836
G1 X21.112 Y17.336 E162.95741
G1 X21.174 Y17.267 E162.96017
G1 X21.534 Y17.274 E162.97090
G1 X21.608 Y16.813 E162.98480
G1 X21.657 Y16.760 E162.98695
G1 X22.912 Y17.519 E163.03063
G1 X25.292 Y19.540 E163.12363
G1 X28.747 Y18.939 E163.22807
G1 X31.206 Y19.296 E163.30208
G1 X33.661 Y18.921 E163.37605
G1 X37.120 Y19.500 E163.48050
G1 X39.487 Y17.460 E163.57357
G1 X40.737 Y16.691 E163.61728
G1 X40.783 Y16.739 E163.61926
G1 X40.855 Y17.198 E163.63309
G1 X41.221 Y17.191 E163.64400
G1 X41.285 Y17.260 E163.64680
G1 X42.085 Y18.266 E163.68508
G0 F10500 X41.661 Y16.930
;TYPE:WALL-OUTER
G1 F1500 X42.673 Y18.203 E163.73352
G1 X41.873 Y19.822 E163.78730
G1 X39.350 Y24.161 E163.93679
G1 X38.772 Y27.252 E164.03045
G1 X35.063 Y29.380 E164.15780
G1 X32.613 Y30.747 E164.24136
G1 X32.613 Y31.259 E164.25661
G1 X33.287 Y31.911 E164.28454
G1 X33.216 Y32.436 E164.30032
G1 X32.115 Y44.552 E164.66266
G1 X31.654 Y44.563 E164.67640
G1 X31.215 Y44.599 E164.68951
G1 X30.778 Y44.568 E164.70256
G1 X30.314 Y44.560 E164.71638
G1 X29.127 Y32.455 E165.07864
G1 X29.072 Y32.009 E165.09202
G1 X29.091 Y32.048 E165.09332
G1 X30.222 Y30.942 E165.14043
G1 X27.427 Y29.409 E165.23537
G1 X23.698 Y27.307 E165.36287
G1 X23.099 Y24.221 E165.45649
G1 X20.540 Y19.895 E165.60619
G1 X19.731 Y18.287 E165.65980
G1 X20.729 Y17.014 E165.70798
G1 X20.956 Y16.762 E165.71808
G1 X21.109 Y16.765 E165.72264
G1 X21.138 Y16.583 E165.72813
G1 X21.583 Y16.112 E165.74743
G1 X21.669 Y16.183 E165.75075
G1 X23.201 Y17.110 E165.80408
G1 X25.437 Y19.007 E165.89141
G1 X28.739 Y18.433 E165.99123
G1 X31.204 Y18.791 E166.06542
G1 X33.666 Y18.415 E166.13959
G1 X36.971 Y18.968 E166.23940
G1 X39.189 Y17.056 E166.32661
G1 X40.719 Y16.115 E166.38011
G1 X40.807 Y16.042 E166.38352
G1 X41.253 Y16.506 E166.40268
G1 X41.282 Y16.689 E166.40820
G1 X41.437 Y16.686 E166.41282
G1 X41.661 Y16.930 E166.42268
G0 F10500 X41.379 Y17.663
;TYPE:SKIN
G1 F2400 X40.331 Y18.712 E166.46685
G0 F10500 X40.644 Y19.106
G1 F2400 X41.692 Y18.058 E166.51099
G0 F10500 X41.592 Y18.865
G1 F2400 X40.957 Y19.499 E166.53771
G0 F10500 X40.018 Y18.318
G1 F2400 X40.965 Y17.370 E166.57762
G0 F10500 X40.642 Y16.986
G1 F2400 X39.704 Y17.925 E166.61715
G0 F10500 X37.187 Y19.734
G1 F2400 X36.791 Y20.130 E166.63383
G0 F10500 X36.621 Y19.593
G1 F2400 X35.682 Y20.532 E166.67338
G0 F10500 X34.972 Y20.535
G1 F2400 X36.015 Y19.492 E166.71731
G0 F10500 X35.409 Y19.390
G1 F2400 X34.137 Y20.663 E166.77091
G0 F10500 X33.303 Y20.790
G1 F2400 X34.804 Y19.289 E166.83413
G0 F10500 X34.198 Y19.188
G1 F2400 X32.468 Y20.917 E166.90698
G0 F10500 X31.633 Y21.045
G1 F2400 X33.568 Y19.110 E166.98848
G0 F10500 X32.733 Y19.238
G1 F2400 X30.906 Y21.066 E167.06546
G0 F10500 X30.288 Y20.976
G1 F2400 X31.898 Y19.366 E167.13327
G0 F10500 X31.100 Y19.457
G1 F2400 X29.671 Y20.886 E167.19346
G0 F10500 X29.054 Y20.796
G1 F2400 X30.483 Y19.367 E167.25365
G0 F10500 X29.866 Y19.277
G1 F2400 X28.437 Y20.706 E167.31384
G0 F10500 X27.819 Y20.617
G1 F2400 X29.248 Y19.188 E167.37403
G0 F10500 X28.585 Y19.144
G1 F2400 X27.202 Y20.527 E167.43228
G0 F10500 X26.402 Y20.619
G1 F2400 X27.729 Y19.292 E167.48817
G0 F10500 X26.873 Y19.441
G1 F2400 X25.907 Y20.407 E167.52886
G0 F10500 X25.525 Y20.083
G1 F2400 X26.017 Y19.590 E167.54961
G0 F10500 X25.313 Y19.467
G0 X22.785 Y17.872
G1 F2400 X21.117 Y19.541 E167.61988
G0 F10500 X20.880 Y19.070
G1 F2400 X22.485 Y17.465 E167.68749
G0 F10500 X22.045 Y17.198
G1 F2400 X20.644 Y18.599 E167.74650
G0 F10500 X23.934 Y24.501
G1 F2400 X24.039 Y24.750 E167.74973
G1 X24.227 Y25.269 E167.76022
G1 X24.143 Y26.060 E167.77690
G1 X24.871 Y26.039 E167.79981
G1 X24.586 Y27.031 E167.82661
G1 X25.675 Y26.649 E167.85335
G1 X25.494 Y27.537 E167.88007
G1 X26.580 Y27.158 E167.90673
G1 X26.402 Y28.044 E167.93332
G1 X27.485 Y27.668 E167.95982
G1 X27.311 Y28.549 E167.98624
G1 X28.390 Y28.177 E168.01255
G1 X28.219 Y29.056 E168.03885
G1 X29.295 Y28.686 E168.06508
G1 X29.127 Y29.562 E168.09127
G1 X30.200 Y29.195 E168.11735
G1 X29.808 Y29.942 E168.14247
G0 F10500 X30.836 Y30.858
G0 X30.687 Y31.891
G1 F2400 X29.834 Y32.744 E168.17840
G0 F10500 X29.897 Y33.388
G1 F2400 X30.687 Y32.598 E168.21167
G0 F10500 X30.687 Y33.305
G1 F2400 X29.960 Y34.032 E168.24230
G0 F10500 X30.310 Y34.389
G1 F2400 X30.198 Y34.854 E168.25435
G1 X30.261 Y35.498 E168.26645
G1 X30.325 Y36.142 E168.27852
G1 X30.387 Y36.786 E168.29066
G1 X30.451 Y37.430 E168.30272
G1 X30.515 Y38.073 E168.31485
G1 X30.578 Y38.717 E168.32699
G1 X30.640 Y39.362 E168.33918
G1 X30.528 Y39.828 E168.35346
G0 F10500 X31.666 Y40.104
G1 F2400 X31.799 Y39.617 E168.36170
G1 X31.871 Y38.838 E168.36995
G1 X31.942 Y38.060 E168.37818
G1 X32.014 Y37.281 E168.38643
G1 X32.086 Y36.502 E168.39468
G1 X32.157 Y35.724 E168.40292
G1 X32.229 Y34.945 E168.41126
G1 X32.300 Y34.166 E168.41960
G1 X32.236 Y33.523 E168.42791
G1 X32.272 Y32.780 E168.44768
G1 X32.376 Y31.969 E168.46949
G1 X32.037 Y31.955 E168.47960
G0 F10500 X32.191 Y30.499
G0 X32.596 Y29.982
G1 F2400 X34.863 Y27.715 E168.57509
G0 F10500 X35.868 Y28.124
G1 F2400 X38.393 Y25.599 E168.68144
G0 F10500 X37.980 Y25.305
G1 F2400 X38.556 Y24.729 E168.70570
G0 F10500 X38.230 Y26.469
G1 F2400 X37.504 Y27.196 E168.73630
G0 F10500 X36.522 Y26.763
G1 F2400 X34.233 Y29.052 E168.83271
G0 F10500 X33.212 Y28.659
G1 F2400 X32.107 Y29.764 E168.87926
G0 F10500 X30.880 Y40.183
G1 F2400 X30.767 Y40.649 E168.89140
G1 X30.830 Y41.293 E168.90358
G1 X30.893 Y41.937 E168.91576
G1 X30.957 Y42.581 E168.92794
G1 X31.020 Y43.225 E168.94012
G1 X31.152 Y43.799 E168.95233
G1 X31.442 Y43.510 E168.95672
G1 X31.514 Y42.731 E168.96496
G1 X31.585 Y41.953 E168.97315
G1 X31.656 Y41.174 E168.98140
G1 X31.791 Y40.686 E168.99648
G1 F600 E167.49648
G1 Z1.665
G0 F10500 X57.731 Y26.345
;TYPE:WALL-INNER
G1 Z1.565
G1 F600 E168.99648
G1 F1740 X57.160 Y23.400 E169.08583
G1 X54.566 Y19.014 E169.23759
G1 X53.906 Y17.703 E169.28131
G1 X54.303 Y17.198 E169.30044
G1 X54.698 Y16.695 E169.31949
G1 X54.760 Y16.626 E169.32225
G1 X55.120 Y16.633 E169.33298
G1 X55.194 Y16.172 E169.34688
G1 X55.243 Y16.119 E169.34903
G1 X56.498 Y16.879 E169.39273
G1 X58.878 Y18.900 E169.48572
G1 X62.333 Y18.299 E169.59017
G1 X64.792 Y18.656 E169.66417
G1 X67.247 Y18.281 E169.73814
G1 X70.706 Y18.860 E169.84259
G1 X73.073 Y16.820 E169.93566
G1 X74.322 Y16.051 E169.97935
G1 X74.370 Y16.100 E169.98139
G1 X74.441 Y16.558 E169.99519
G1 X74.807 Y16.551 E170.00609
G1 X74.876 Y16.625 E170.00911
G1 X75.271 Y17.121 E170.02799
G1 X75.671 Y17.625 E170.04716
G1 X75.019 Y18.944 E170.09098
G1 X72.461 Y23.343 E170.24254
G1 X71.910 Y26.292 E170.33189
G1 X68.398 Y28.307 E170.45248
G1 X65.699 Y29.813 E170.54453
G1 X65.699 Y30.831 E170.57485
G1 X66.343 Y31.455 E170.60156
G1 X65.243 Y43.423 E170.95951
G1 X64.804 Y43.458 E170.97263
G1 X64.387 Y43.427 E170.98508
G1 X64.354 Y43.426 E170.98606
G1 X63.210 Y31.759 E171.33521
G1 X63.191 Y31.604 E171.33986
G1 X64.641 Y30.185 E171.40029
G1 X63.293 Y29.450 E171.44602
G1 X61.251 Y28.329 E171.51540
G1 X57.731 Y26.345 E171.63574
G0 F10500 X57.284 Y26.666
;TYPE:WALL-OUTER
G1 F1500 X56.685 Y23.580 E171.72937
G1 X54.126 Y19.254 E171.87906
G1 X53.317 Y17.646 E171.93267
G1 X54.315 Y16.373 E171.98085
G1 X54.542 Y16.121 E171.99095
G1 X54.695 Y16.124 E171.99551
G1 X54.724 Y15.942 E172.00100
G1 X55.169 Y15.471 E172.02030
G1 X55.255 Y15.542 E172.02362
G1 X56.787 Y16.470 E172.07697
G1 X59.023 Y18.367 E172.16430
G1 X62.325 Y17.793 E172.26412
G1 X64.790 Y18.151 E172.33831
G1 X67.252 Y17.775 E172.41248
G1 X70.557 Y18.328 E172.51228
G1 X72.775 Y16.416 E172.59950
G1 X74.305 Y15.474 E172.65301
G1 X74.392 Y15.401 E172.65640
G1 X74.839 Y15.866 E172.67561
G1 X74.868 Y16.049 E172.68113
G1 X75.023 Y16.046 E172.68574
G1 X76.260 Y17.561 E172.74399
G1 X75.459 Y19.182 E172.79785
G1 X72.936 Y23.520 E172.94731
G1 X72.358 Y26.612 E173.04099
G1 X68.649 Y28.740 E173.16835
G1 X66.199 Y30.106 E173.25190
G1 X66.199 Y30.619 E173.26718
G1 X66.873 Y31.271 E173.29510
G1 X66.802 Y31.796 E173.31088
G1 X65.701 Y43.912 E173.67323
G1 X65.240 Y43.923 E173.68696
G1 X64.801 Y43.959 E173.70008
G1 X64.364 Y43.927 E173.71313
G1 X63.900 Y43.919 E173.72695
G1 X62.713 Y31.814 E174.08921
G1 X62.658 Y31.368 E174.10259
G1 X62.677 Y31.407 E174.10388
G1 X63.808 Y30.300 E174.15102
G1 X61.013 Y28.768 E174.24595
G1 X57.284 Y26.666 E174.37344
G0 F10500 X57.833 Y25.958
;TYPE:SKIN
G1 F2400 X58.595 Y25.549 E174.39832
G1 X58.357 Y26.494 E174.42514
G1 X59.446 Y26.113 E174.45187
G1 X59.266 Y27.000 E174.47851
G1 X60.351 Y26.622 E174.50506
G1 X59.947 Y27.380 E174.53064
G0 F10500 X57.719 Y25.366
G1 F2400 X58.044 Y24.686 E174.54990
G1 X57.546 Y24.477 E174.56287
G1 X57.650 Y24.020 E174.57683
G0 F10500 X61.030 Y27.004
G1 F2400 X60.628 Y27.759 E174.60327
G1 X61.708 Y27.385 E174.62968
G1 X61.536 Y28.265 E174.65602
G1 X62.614 Y27.895 E174.68229
G1 X62.445 Y28.771 E174.70844
G1 X63.519 Y28.404 E174.73460
G1 X63.353 Y29.277 E174.76070
G1 X64.198 Y28.786 E174.78980
G0 F10500 X65.480 Y28.918
G1 F2400 X65.857 Y28.541 E174.80568
G0 F10500 X65.839 Y29.266
G1 F2400 X67.467 Y27.638 E174.87425
G0 F10500 X68.484 Y28.035
G1 F2400 X70.785 Y25.734 E174.97117
G0 F10500 X71.209 Y25.310
G1 F2400 X72.076 Y24.443 E175.00769
G0 F10500 X71.913 Y25.313
G1 F2400 X70.119 Y27.107 E175.08325
G0 F10500 X69.126 Y26.686
G1 F2400 X66.849 Y28.963 E175.17916
G0 F10500 X65.777 Y29.858
G0 X65.765 Y30.803
G0 X65.928 Y31.298
G1 F2400 X65.878 Y31.701 E175.19203
G1 X65.842 Y32.444 E175.21356
G1 X65.829 Y33.165 E175.23014
G1 X65.857 Y33.844 E175.23840
G1 X65.785 Y34.623 E175.24670
G1 X65.713 Y35.402 E175.25495
G1 X65.642 Y36.180 E175.26318
G1 X65.570 Y36.959 E175.27143
G1 X65.499 Y37.737 E175.27967
G1 X65.427 Y38.516 E175.28792
G1 X65.356 Y39.295 E175.29616
G1 X64.857 Y39.793 E175.30439
G1 X64.378 Y40.272 E175.31658
G1 X64.441 Y40.916 E175.32876
G1 X64.505 Y41.560 E175.34094
G1 X64.568 Y42.204 E175.35312
G1 X64.691 Y42.787 E175.36533
G1 X64.752 Y43.080 E175.38052
G1 X65.070 Y42.409 E175.38870
G1 X65.141 Y41.630 E175.39695
G1 X65.213 Y40.852 E175.40519
G1 X65.347 Y40.365 E175.42023
G0 F10500 X64.428 Y39.162
G1 F2400 X64.107 Y39.129 E175.43240
G1 X64.188 Y38.340 E175.44454
G1 X64.126 Y37.696 E175.45672
G1 X64.062 Y37.053 E175.46884
G1 X63.999 Y36.409 E175.48095
G1 X63.936 Y35.765 E175.49301
G1 X63.873 Y35.121 E175.50511
G1 X63.809 Y34.477 E175.51718
G1 X63.746 Y33.833 E175.52928
G1 X63.858 Y33.368 E175.54353
G0 F10500 X63.508 Y33.011
G1 F2400 X64.273 Y32.246 E175.57575
G0 F10500 X64.273 Y31.539
G1 F2400 X63.445 Y32.367 E175.61062
G0 F10500 X63.382 Y31.723
G1 F2400 X64.213 Y30.892 E175.64563
G0 F10500 X64.744 Y20.462
G1 F2400 X66.658 Y18.547 E175.72627
G0 F10500 X67.425 Y18.488
G1 F2400 X65.560 Y20.353 E175.80482
G0 F10500 X66.394 Y20.226
G1 F2400 X68.030 Y18.589 E175.87375
G0 F10500 X68.636 Y18.690
G1 F2400 X67.228 Y20.098 E175.93305
G0 F10500 X65.823 Y18.675
G1 F2400 X64.126 Y20.372 E176.00453
G0 F10500 X63.509 Y20.282
G1 F2400 X64.989 Y18.802 E176.06687
G0 F10500 X64.320 Y18.764
G1 F2400 X62.892 Y20.192 E176.12702
G0 F10500 X62.274 Y20.103
G1 F2400 X63.703 Y18.674 E176.18721
G0 F10500 X63.085 Y18.584
G1 F2400 X61.657 Y20.013 E176.24737
G0 F10500 X61.040 Y19.923
G1 F2400 X62.468 Y18.495 E176.30752
G0 F10500 X61.663 Y18.592
G1 F2400 X60.337 Y19.919 E176.36339
G0 F10500 X59.649 Y19.900
G1 F2400 X60.808 Y18.741 E176.41221
G0 F10500 X68.063 Y19.971
G1 F2400 X69.242 Y18.792 E176.46187
G0 F10500 X69.848 Y18.893
G1 F2400 X68.897 Y19.844 E176.50193
G0 F10500 X69.514 Y19.934
G1 F2400 X70.453 Y18.995 E176.54148
G0 F10500 X73.104 Y17.051
G1 F2400 X73.225 Y16.930 E176.54657
G0 F10500 X73.417 Y17.445
G1 F2400 X74.268 Y16.595 E176.58240
G0 F10500 X74.781 Y16.788
G1 F2400 X73.730 Y17.839 E176.62667
G0 F10500 X74.043 Y18.233
G1 F2400 X75.094 Y17.182 E176.67093
G0 F10500 X75.407 Y17.577
G1 F2400 X74.357 Y18.627 E176.71516
G0 F10500 X74.670 Y19.021
G1 F2400 X74.896 Y18.795 E176.72468
G0 F10500 X59.952 Y18.889
G1 F2400 X59.075 Y19.412 E176.75357
G1 X59.096 Y19.038 E176.76473
G0 F10500 X56.251 Y16.934
G1 F2400 X54.563 Y18.622 E176.83583
G0 F10500 X54.810 Y19.081
G1 F2400 X55.334 Y18.558 E176.85788
G0 F10500 X54.327 Y18.151
G1 F2400 X55.811 Y16.667 E176.92038
G0 F10500 X54.966 Y16.804
G1 F2400 X54.353 Y17.417 E176.94620
G1 F600 E175.44620
G1 Z1.665
G0 F10500 X87.822 Y17.376
;TYPE:WALL-INNER
G1 Z1.565
G1 F600 E176.94620
G1 F1740 X88.219 Y16.871 E176.96533
G1 X88.614 Y16.368 E176.98438
G1 X88.676 Y16.299 E176.98714
G1 X89.036 Y16.306 E176.99787
G1 X89.110 Y15.845 E177.01177
G1 X89.159 Y15.792 E177.01392
G1 X90.414 Y16.551 E177.05761
G1 X92.794 Y18.572 E177.15060
G1 X96.248 Y17.971 E177.25502
G1 X98.708 Y18.328 E177.32905
G1 X101.162 Y17.953 E177.40299
G1 X104.621 Y18.532 E177.50744
G1 X106.989 Y16.492 E177.60053
G1 X108.238 Y15.724 E177.64420
G1 X108.286 Y15.773 E177.64624
G1 X108.357 Y16.231 E177.66005
G1 X108.723 Y16.224 E177.67095
G1 X109.186 Y16.794 E177.69282
G1 X109.586 Y17.298 E177.71199
G1 X108.935 Y18.616 E177.75577
G1 X106.377 Y23.016 E177.90735
G1 X105.826 Y25.964 E177.99667
G1 X102.314 Y27.979 E178.11727
G1 X99.614 Y29.486 E178.20936
G1 X99.614 Y30.503 E178.23965
G1 X100.260 Y31.127 E178.26640
G1 X99.159 Y43.095 E178.62435
G1 X98.717 Y43.130 E178.63756
G1 X98.301 Y43.100 E178.64998
G1 X98.270 Y43.099 E178.65090
G1 X97.126 Y31.432 E179.00005
G1 X97.107 Y31.277 E179.00470
G1 X98.553 Y29.860 E179.06500
G1 X95.167 Y28.002 E179.18003
G1 X91.646 Y26.018 E179.30040
G1 X91.075 Y23.073 E179.38975
G1 X88.482 Y18.687 E179.54150
G1 X87.822 Y17.376 E179.58521
G0 F10500 X88.231 Y16.046
;TYPE:WALL-OUTER
G1 F1500 X88.458 Y15.794 E179.59531
G1 X88.611 Y15.797 E179.59987
G1 X88.640 Y15.615 E179.60536
G1 X89.085 Y15.144 E179.62466
G1 X89.171 Y15.215 E179.62798
G1 X90.703 Y16.142 E179.68131
G1 X92.939 Y18.039 E179.76865
G1 X96.240 Y17.465 E179.86844
G1 X98.706 Y17.823 E179.94265
G1 X101.167 Y17.447 E180.01680
G1 X104.472 Y18.000 E180.11660
G1 X106.690 Y16.088 E180.20382
G1 X108.221 Y15.147 E180.25734
G1 X108.308 Y15.074 E180.26072
G1 X108.755 Y15.539 E180.27993
G1 X108.784 Y15.722 E180.28545
G1 X108.939 Y15.719 E180.29007
G1 X109.169 Y15.970 E180.30021
G1 X110.175 Y17.234 E180.34832
G1 X109.375 Y18.854 E180.40213
G1 X106.852 Y23.193 E180.55162
G1 X106.274 Y26.284 E180.64528
G1 X102.565 Y28.412 E180.77264
G1 X100.114 Y29.779 E180.85622
G1 X100.114 Y30.291 E180.87147
G1 X100.789 Y30.943 E180.89942
G1 X100.718 Y31.468 E180.91520
G1 X99.617 Y43.584 E181.27754
G1 X99.155 Y43.595 E181.29131
G1 X98.716 Y43.631 E181.30442
G1 X98.279 Y43.600 E181.31747
G1 X97.816 Y43.592 E181.33126
G1 X96.629 Y31.487 E181.69352
G1 X96.574 Y31.042 E181.70688
G1 X96.593 Y31.081 E181.70817
G1 X97.722 Y29.974 E181.75526
G1 X94.929 Y28.441 E181.85015
G1 X91.199 Y26.339 E181.97767
G1 X90.600 Y23.253 E182.07130
G1 X88.042 Y18.927 E182.22098
G1 X87.233 Y17.319 E182.27459
G1 X88.231 Y16.046 E182.32277
G0 F10500 X89.506 Y16.206
;TYPE:SKIN
G1 F2400 X88.124 Y17.587 E182.38096
G0 F10500 X88.360 Y18.058
G1 F2400 X89.946 Y16.472 E182.44776
G0 F10500 X90.376 Y16.750
G1 F2400 X88.597 Y18.529 E182.52269
G0 F10500 X92.991 Y19.084
G1 F2400 X93.440 Y18.635 E182.54160
G0 F10500 X93.373 Y19.410
G1 F2400 X94.296 Y18.487 E182.58048
G0 F10500 X95.151 Y18.338
G1 F2400 X93.824 Y19.666 E182.63639
G0 F10500 X94.646 Y19.551
G1 F2400 X96.008 Y18.189 E182.69376
G0 F10500 X96.693 Y18.211
G1 F2400 X95.264 Y19.640 E182.75395
G0 F10500 X95.881 Y19.730
G1 F2400 X97.310 Y18.301 E182.81414
G0 F10500 X97.927 Y18.391
G1 F2400 X96.498 Y19.820 E182.87433
G0 F10500 X97.116 Y19.910
G1 F2400 X98.545 Y18.480 E182.93454
G0 F10500 X99.323 Y18.410
G1 F2400 X97.733 Y19.999 E183.00149
G0 F10500 X99.892 Y19.962
G1 F2400 X101.644 Y18.210 E183.07528
G0 F10500 X102.249 Y18.311
G1 F2400 X100.727 Y19.834 E183.13941
G0 F10500 X101.561 Y19.707
G1 F2400 X102.855 Y18.413 E183.19392
G0 F10500 X103.461 Y18.514
G1 F2400 X102.396 Y19.579 E183.23877
G0 F10500 X103.127 Y19.555
G1 F2400 X104.066 Y18.616 E183.27832
G0 F10500 X104.671 Y18.718
G1 F2400 X103.821 Y19.568 E183.31413
G0 F10500 X100.992 Y18.154
G1 F2400 X99.057 Y20.089 E183.39563
G0 F10500 X98.350 Y20.089
G1 F2400 X100.157 Y18.282 E183.47174
G0 F10500 X104.600 Y18.458
G0 X107.177 Y16.919
G1 F2400 X108.057 Y16.040 E183.50878
G0 F10500 X108.399 Y16.404
G1 F2400 X107.490 Y17.313 E183.54707
G0 F10500 X107.804 Y17.707
G1 F2400 X108.849 Y16.661 E183.59111
G0 F10500 X109.165 Y17.053
G1 F2400 X108.117 Y18.101 E183.63525
G0 F10500 X108.430 Y18.495
G1 F2400 X109.158 Y17.767 E183.66591
G0 F10500 X106.073 Y23.680
G1 F2400 X105.572 Y24.181 E183.68701
G0 F10500 X105.911 Y24.550
G1 F2400 X103.217 Y27.243 E183.80047
G0 F10500 X102.209 Y26.837
G1 F2400 X99.948 Y29.098 E183.89570
G0 F10500 X99.575 Y28.764
G1 F2400 X100.566 Y27.773 E183.93744
G0 F10500 X101.582 Y28.171
G1 F2400 X103.868 Y25.885 E184.03373
G0 F10500 X104.852 Y26.315
G1 F2400 X105.747 Y25.420 E184.07142
G0 F10500 X99.692 Y29.531
G0 X99.680 Y30.475
G0 X100.024 Y31.143
G1 F2400 X99.777 Y31.744 E184.09190
G1 X99.741 Y32.486 E184.11199
G1 X99.808 Y33.126 E184.12034
G1 X99.737 Y33.905 E184.12869
G1 X99.666 Y34.683 E184.13701
G1 X99.594 Y35.462 E184.14536
G1 X99.523 Y36.240 E184.15359
G1 X99.450 Y37.020 E184.16190
G1 X99.379 Y37.798 E184.17014
G1 X99.308 Y38.577 E184.17838
G1 X99.236 Y39.355 E184.18662
G1 X98.771 Y39.821 E184.19486
G1 X98.325 Y40.266 E184.20705
G1 X98.389 Y40.910 E184.21924
G1 X98.452 Y41.554 E184.23141
G1 X98.515 Y42.197 E184.24361
G1 X98.614 Y42.806 E184.25589
G1 X98.950 Y42.470 E184.26362
G1 X99.022 Y41.691 E184.27182
G1 X99.093 Y40.912 E184.28007
G1 X99.227 Y40.426 E184.29508
G0 F10500 X98.086 Y39.445
G1 F2400 X98.199 Y38.978 E184.30727
G1 X98.136 Y38.334 E184.31945
G1 X98.073 Y37.690 E184.33159
G1 X98.009 Y37.046 E184.34374
G1 X97.946 Y36.402 E184.35592
G1 X97.884 Y35.758 E184.36810
G1 X97.820 Y35.115 E184.38022
G1 X97.757 Y34.470 E184.39234
G1 X97.693 Y33.827 E184.40443
G1 X97.807 Y33.361 E184.41872
G0 F10500 X97.455 Y33.005
G1 F2400 X98.188 Y32.273 E184.44957
G0 F10500 X98.188 Y31.565
G1 F2400 X97.392 Y32.361 E184.48310
G0 F10500 X97.329 Y31.717
G1 F2400 X98.188 Y30.858 E184.51928
G0 F10500 X99.538 Y30.922
G1 F2400 X99.664 Y30.796 E184.52459
G0 F10500 X97.266 Y28.952
G1 F2400 X97.660 Y28.204 E184.55067
G1 X96.585 Y28.572 E184.57680
G1 X96.755 Y27.694 E184.60301
G1 X95.677 Y28.066 E184.62929
G1 X95.850 Y27.185 E184.65566
G1 X94.769 Y27.559 E184.68210
G1 X94.945 Y26.676 E184.70854
G1 X93.861 Y27.053 E184.73506
G1 X94.039 Y26.167 E184.76166
G1 X92.953 Y26.547 E184.78832
G1 X93.134 Y25.658 E184.81507
G1 X92.045 Y26.040 E184.84181
G1 X92.339 Y25.039 E184.86865
G1 X91.633 Y25.038 E184.89098
G1 X91.827 Y24.137 E184.90707
G1 X91.461 Y24.150 E184.91798
;LAYER:4
G1 F600 E183.41798
G1 Z1.665
G0 F10500 X41.784 Y18.731 Z1.945
;TYPE:WALL-INNER
G1 Z1.945
G1 F600 E184.91798
G1 F2100 X41.295 Y19.719 E184.95081
G1 X39.206 Y23.313 E185.07462
G1 X38.491 Y27.136 E185.19046
G1 X35.241 Y29.001 E185.30206
G1 X32.649 Y30.448 E185.39047
G1 X32.113 Y30.746 E185.40874
G1 X32.113 Y32.160 E185.45085
G1 X32.735 Y32.763 E185.47665
G1 X32.673 Y33.225 E185.49054
G1 X31.702 Y43.902 E185.80984
G1 X31.194 Y43.944 E185.82503
G1 X30.676 Y43.907 E185.84049
G1 X29.630 Y33.246 E186.15954
G1 X29.593 Y32.948 E186.16848
G1 X30.613 Y31.954 E186.21090
G1 X30.613 Y30.877 E186.24298
G1 X27.235 Y29.026 E186.35770
G1 X23.979 Y27.191 E186.46901
G1 X23.238 Y23.373 E186.58485
G1 X21.118 Y19.788 E186.70889
G1 X20.625 Y18.808 E186.74157
G1 X22.036 Y17.008 E186.80969
G1 X22.991 Y17.586 E186.84293
G1 X24.964 Y19.261 E186.92002
G1 X29.310 Y18.505 E187.05140
G1 X31.204 Y18.780 E187.10840
G1 X33.095 Y18.491 E187.16537
G1 X37.445 Y19.218 E187.29673
G1 X39.409 Y17.526 E187.37394
G1 X40.359 Y16.942 E187.40715
G1 X41.784 Y18.731 E187.47527
G0 F10500 X41.735 Y19.957
;TYPE:WALL-OUTER
G1 F1800 X39.681 Y23.490 E187.59698
G1 X38.939 Y27.456 E187.71715
G1 X35.492 Y29.434 E187.83552
G1 X32.613 Y31.040 E187.93371
G1 X32.613 Y31.948 E187.96075
G1 X33.265 Y32.579 E187.98777
G1 X33.170 Y33.281 E188.00887
G1 X32.160 Y44.390 E188.34110
G1 X31.193 Y44.446 E188.36995
G1 X30.629 Y44.405 E188.38679
G1 X30.222 Y44.398 E188.39891
G1 X29.133 Y33.301 E188.73101
G1 X29.012 Y32.316 E188.76056
G1 X29.176 Y32.657 E188.77183
G1 X30.113 Y31.743 E188.81082
G1 X30.113 Y31.173 E188.82780
G1 X26.998 Y29.466 E188.93359
G1 X23.532 Y27.512 E189.05209
G1 X22.763 Y23.553 E189.17221
G1 X20.678 Y20.028 E189.29418
G1 X20.035 Y18.750 E189.33679
G1 X21.915 Y16.351 E189.42757
G1 X23.280 Y17.177 E189.47509
G1 X25.109 Y18.728 E189.54651
G1 X29.302 Y17.999 E189.67327
G1 X31.202 Y18.275 E189.73045
G1 X33.100 Y17.985 E189.78763
G1 X37.296 Y18.686 E189.91434
G1 X39.110 Y17.122 E189.98567
G1 X40.474 Y16.284 E190.03335
G1 X42.372 Y18.668 E190.12411
G1 X41.735 Y19.957 E190.16693
G0 F10500 X41.161 Y19.594
;TYPE:SKIN
G1 F3000 X39.362 Y17.795 E190.24271
G0 F10500 X39.778 Y17.504
G1 F3000 X41.395 Y19.121 E190.31081
G0 F10500 X40.904 Y20.044
G1 F3000 X40.001 Y19.141 E190.34885
G0 F10500 X40.958 Y17.977
G1 F3000 X40.215 Y17.235 E190.38012
G0 F10500 X37.014 Y19.690
G1 F3000 X36.575 Y19.250 E190.39863
G0 F10500 X36.634 Y20.017
G1 F3000 X35.725 Y19.108 E190.43692
G0 F10500 X34.876 Y18.966
G1 F3000 X35.962 Y20.052 E190.48266
G0 F10500 X33.797 Y20.009
G1 F3000 X32.541 Y18.752 E190.53559
G0 F10500 X31.927 Y18.846
G1 F3000 X33.183 Y20.102 E190.58849
G0 F10500 X32.570 Y20.196
G1 F3000 X31.314 Y18.940 E190.64139
G0 F10500 X30.525 Y18.858
G1 F3000 X31.957 Y20.290 E190.70171
G0 F10500 X31.343 Y20.383
G1 F3000 X29.698 Y18.738 E190.77100
G0 F10500 X28.991 Y18.738
G1 F3000 X30.563 Y20.310 E190.83721
G0 F10500 X29.736 Y20.190
G1 F3000 X28.388 Y18.842 E190.89399
G0 F10500 X27.785 Y18.946
G1 F3000 X28.909 Y20.070 E190.94133
G0 F10500 X26.750 Y20.033
G1 F3000 X25.978 Y19.260 E190.97387
G0 F10500 X26.580 Y19.156
G1 F3000 X27.353 Y19.929 E191.00643
G0 F10500 X28.081 Y19.949
G1 F3000 X27.183 Y19.051 E191.04425
G0 F10500 X26.148 Y20.137
G1 F3000 X25.375 Y19.365 E191.07679
G0 F10500 X23.021 Y18.425
G1 F3000 X21.969 Y17.373 E191.12110
G0 F10500 X21.659 Y17.770
G1 F3000 X22.710 Y18.821 E191.16537
G0 F10500 X22.400 Y19.218
G1 F3000 X21.348 Y18.166 E191.20968
G0 F10500 X21.037 Y18.562
G1 F3000 X22.089 Y19.614 E191.25399
G0 F10500 X21.778 Y20.011
G1 F3000 X21.065 Y19.297 E191.28404
G0 F10500 X33.178 Y18.682
G1 F3000 X34.410 Y19.914 E191.33593
G0 F10500 X35.113 Y19.910
G1 F3000 X34.027 Y18.824 E191.38168
G0 F10500 X38.488 Y24.699
G1 F3000 X38.476 Y25.040 E191.39155
G1 X38.339 Y25.611 E191.40764
G1 X38.227 Y26.207 E191.42588
G1 X38.249 Y26.936 E191.44413
G1 X37.388 Y26.782 E191.46502
G1 X37.433 Y27.534 E191.48585
G1 X36.490 Y27.298 E191.50658
G1 X36.530 Y28.045 E191.52716
G1 X35.591 Y27.813 E191.54767
G1 X35.627 Y28.556 E191.56814
G1 X34.692 Y28.329 E191.58855
G1 X34.724 Y29.067 E191.60883
G1 X33.791 Y28.842 E191.62907
G1 X33.821 Y29.579 E191.64937
G1 X32.884 Y29.348 E191.66972
G1 X32.918 Y30.090 E191.69020
G1 X32.202 Y29.727 E191.71411
G0 F10500 X30.469 Y30.115
G1 F3000 X29.842 Y29.489 E191.74050
G0 F10500 X29.965 Y30.319
G1 F3000 X28.239 Y28.592 E191.81322
G0 F10500 X28.373 Y29.434
G1 F3000 X26.635 Y27.695 E191.88645
G0 F10500 X26.780 Y28.548
G1 F3000 X25.032 Y26.800 E191.96007
G0 F10500 X24.492 Y26.260
G1 F3000 X24.087 Y25.501 E191.98703
G1 X23.681 Y24.742 E192.01266
G0 F10500 X24.021 Y26.496
G1 F3000 X25.188 Y27.663 E192.06182
G0 F10500 X30.535 Y30.924
G0 X30.547 Y31.926
G0 X30.162 Y32.637
G1 F3000 X30.688 Y33.163 E192.08397
G0 F10500 X30.688 Y33.870
G1 F3000 X29.803 Y32.985 E192.12125
G0 F10500 X29.854 Y33.743
G1 F3000 X30.249 Y34.491 E192.14539
G1 X29.931 Y34.527 E192.15492
G0 F10500 X30.688 Y32.456
G1 F3000 X30.520 Y32.288 E192.16199
G1 F600 E190.66199
G1 Z2.045
G0 F10500 X54.704 Y19.149
;TYPE:WALL-INNER
G1 Z1.945
G1 F600 E192.16199
G1 F2100 X54.211 Y18.167 E192.19472
G1 X55.622 Y16.367 E192.26284
G1 X56.574 Y16.943 E192.29598
G1 X58.550 Y18.621 E192.37319
G1 X62.896 Y17.865 E192.50457
G1 X64.790 Y18.139 E192.56157
G1 X66.681 Y17.851 E192.61854
G1 X71.031 Y18.578 E192.74989
G1 X72.995 Y16.886 E192.82710
G1 X73.945 Y16.301 E192.86033
G1 X75.370 Y18.090 E192.92845
G1 X74.881 Y19.079 E192.96131
G1 X72.792 Y22.673 E193.08512
G1 X72.077 Y26.496 E193.20095
G1 X68.835 Y28.357 E193.31229
G1 X66.233 Y29.808 E193.40102
G1 X65.699 Y30.109 E193.41928
G1 X65.699 Y31.520 E193.46130
G1 X66.322 Y32.122 E193.48710
G1 X66.259 Y32.585 E193.50102
G1 X65.288 Y43.262 E193.82033
G1 X64.779 Y43.304 E193.83554
G1 X64.262 Y43.268 E193.85097
G1 X63.216 Y32.605 E194.17008
G1 X63.179 Y32.307 E194.17902
G1 X64.199 Y31.313 E194.22144
G1 X64.199 Y30.237 E194.25349
G1 X60.822 Y28.385 E194.36820
G1 X57.565 Y26.550 E194.47954
G1 X56.824 Y22.733 E194.59535
G1 X54.704 Y19.149 E194.71937
G0 F10500 X54.264 Y19.388
;TYPE:WALL-OUTER
G1 F1800 X53.621 Y18.109 E194.76200
G1 X55.501 Y15.710 E194.85278
G1 X56.866 Y16.536 E194.90030
G1 X58.695 Y18.088 E194.97174
G1 X62.888 Y17.359 E195.09849
G1 X64.788 Y17.634 E195.15567
G1 X66.686 Y17.345 E195.21285
G1 X70.882 Y18.046 E195.33956
G1 X72.697 Y16.482 E195.41091
G1 X74.060 Y15.643 E195.45858
G1 X75.958 Y18.027 E195.54934
G1 X75.321 Y19.317 E195.59219
G1 X73.267 Y22.850 E195.71390
G1 X72.525 Y26.815 E195.83405
G1 X69.078 Y28.794 E195.95243
G1 X66.199 Y30.400 E196.05061
G1 X66.199 Y31.308 E196.07765
G1 X66.851 Y31.938 E196.10466
G1 X66.756 Y32.641 E196.12579
G1 X65.746 Y43.750 E196.45801
G1 X64.779 Y43.806 E196.48686
G1 X64.215 Y43.765 E196.50370
G1 X63.808 Y43.757 E196.51583
G1 X62.719 Y32.660 E196.84792
G1 X62.598 Y31.675 E196.87748
G1 X62.762 Y32.016 E196.88875
G1 X63.699 Y31.102 E196.92773
G1 X63.699 Y30.533 E196.94468
G1 X60.584 Y28.825 E197.05049
G1 X57.118 Y26.871 E197.16899
G1 X56.349 Y22.913 E197.28908
G1 X54.264 Y19.388 E197.41106
G0 F10500 X54.974 Y19.265
;TYPE:SKIN
G1 F3000 X55.239 Y19.530 E197.42222
G0 F10500 X55.551 Y19.135
G1 F3000 X54.498 Y18.082 E197.46657
G0 F10500 X54.809 Y17.686
G1 F3000 X55.861 Y18.738 E197.51088
G0 F10500 X56.171 Y18.341
G1 F3000 X55.119 Y17.289 E197.55519
G0 F10500 X55.430 Y16.892
G1 F3000 X56.482 Y17.944 E197.59950
G0 F10500 X56.792 Y17.548
G1 F3000 X56.114 Y16.870 E197.62806
G0 F10500 X58.731 Y18.780
G1 F3000 X59.360 Y19.408 E197.65453
G0 F10500 X60.094 Y19.435
G1 F3000 X59.322 Y18.664 E197.68703
G0 F10500 X59.924 Y18.558
G1 F3000 X60.696 Y19.330 E197.71954
G0 F10500 X61.333 Y19.260
G1 F3000 X60.526 Y18.454 E197.75351
G0 F10500 X61.129 Y18.349
G1 F3000 X62.161 Y19.381 E197.79698
G0 F10500 X62.987 Y19.500
G1 F3000 X61.731 Y18.244 E197.84988
G0 F10500 X62.334 Y18.140
G1 F3000 X63.814 Y19.620 E197.91222
G0 F10500 X64.642 Y19.741
G1 F3000 X62.950 Y18.049 E197.98349
G0 F10500 X63.778 Y18.169
G1 F3000 X65.294 Y19.686 E198.04736
G0 F10500 X65.908 Y19.593
G1 F3000 X64.605 Y18.290 E198.10225
G0 F10500 X65.266 Y18.244
G1 F3000 X66.522 Y19.499 E198.15513
G0 F10500 X67.135 Y19.405
G1 F3000 X65.879 Y18.150 E198.20801
G0 F10500 X66.493 Y18.056
G1 F3000 X67.749 Y19.312 E198.26091
G0 F10500 X68.363 Y19.219
G1 F3000 X67.271 Y18.127 E198.30691
G0 F10500 X68.120 Y18.269
G1 F3000 X69.206 Y19.355 E198.35265
G0 F10500 X70.056 Y19.498
G1 F3000 X68.969 Y18.411 E198.39843
G0 F10500 X69.818 Y18.553
G1 F3000 X70.636 Y19.017 E198.42487
G1 X70.667 Y18.695 E198.43451
G0 F10500 X72.795 Y17.288
G1 F3000 X74.645 Y19.137 E198.51241
G0 F10500 X74.886 Y18.671
G1 F3000 X73.187 Y16.972 E198.58397
G0 F10500 X73.625 Y16.703
G1 F3000 X75.120 Y18.198 E198.64694
G0 F10500 X72.230 Y23.793
G1 F3000 X72.173 Y24.089 E198.65308
G1 X71.992 Y24.616 E198.66546
G1 X71.880 Y25.211 E198.68368
G1 X71.754 Y25.792 E198.70195
G1 X71.722 Y26.467 E198.72143
G1 X70.793 Y26.245 E198.74231
G1 X70.837 Y26.996 E198.76310
G1 X69.894 Y26.761 E198.78377
G1 X69.934 Y27.508 E198.80436
G1 X68.996 Y27.277 E198.82490
G1 X69.031 Y28.019 E198.84534
G1 X68.097 Y27.792 E198.86567
G1 X68.129 Y28.531 E198.88594
G1 X67.195 Y28.304 E198.90615
G1 X67.226 Y29.042 E198.92652
G1 X66.286 Y28.809 E198.94700
G1 X66.323 Y29.554 E198.96761
G1 X65.605 Y29.189 E198.99160
G0 F10500 X63.910 Y29.615
G1 F3000 X62.779 Y28.485 E199.03922
G0 F10500 X62.912 Y29.325
G1 F3000 X61.177 Y27.589 E199.11232
G0 F10500 X61.318 Y28.438
G1 F3000 X59.575 Y26.694 E199.18576
G0 F10500 X59.725 Y27.551
G1 F3000 X57.506 Y25.332 E199.27922
G0 F10500 X57.975 Y25.095
G1 F3000 X57.335 Y24.455 E199.30618
G0 F10500 X57.675 Y26.209
G1 F3000 X58.131 Y26.664 E199.32536
G0 F10500 X64.121 Y30.284
G0 X64.133 Y31.285
G0 X63.603 Y32.137
G1 F3000 X64.273 Y32.806 E199.35356
G0 F10500 X64.227 Y33.468
G1 F3000 X63.392 Y32.633 E199.38873
G0 F10500 X63.469 Y33.417
G1 F3000 X63.870 Y33.818 E199.40562
G0 F10500 X64.273 Y32.099
G1 F3000 X63.961 Y31.787 E199.41876
G0 F10500 X65.623 Y32.035
G1 F3000 X65.857 Y32.623 E199.43852
G1 X65.827 Y33.300 E199.45571
G1 X65.972 Y33.798 E199.47116
G1 F600 E197.97116
G1 Z2.045
G0 F10500 X91.480 Y26.223
;TYPE:WALL-INNER
G1 Z1.945
G1 F600 E199.47116
G1 F2100 X90.740 Y22.405 E199.58699
G1 X88.620 Y18.820 E199.71104
G1 X88.127 Y17.840 E199.74371
G1 X89.538 Y16.040 E199.81183
G1 X90.493 Y16.618 E199.84507
G1 X92.466 Y18.293 E199.92216
G1 X96.811 Y17.537 E200.05351
G1 X98.706 Y17.812 E200.11054
G1 X100.596 Y17.523 E200.16749
G1 X104.947 Y18.250 E200.29887
G1 X106.911 Y16.558 E200.37608
G1 X107.861 Y15.974 E200.40929
G1 X109.285 Y17.763 E200.47739
G1 X108.797 Y18.751 E200.51021
G1 X106.708 Y22.345 E200.63402
G1 X105.993 Y26.168 E200.74986
G1 X102.743 Y28.033 E200.86146
G1 X99.614 Y29.779 E200.96818
G1 X99.614 Y31.192 E201.01026
G1 X100.237 Y31.795 E201.03608
G1 X100.174 Y32.257 E201.04997
G1 X99.204 Y42.934 E201.36928
G1 X98.695 Y42.976 E201.38449
G1 X98.177 Y42.939 E201.39996
G1 X97.132 Y32.278 E201.71900
G1 X97.096 Y31.981 E201.72791
G1 X98.114 Y30.986 E201.77031
G1 X98.114 Y29.909 E201.80238
G1 X94.737 Y28.058 E201.91708
G1 X91.480 Y26.223 E202.02842
G0 F10500 X91.033 Y26.544
;TYPE:WALL-OUTER
G1 F1800 X90.265 Y22.585 E202.14853
G1 X88.180 Y19.060 E202.27051
G1 X87.537 Y17.782 E202.31312
G1 X89.417 Y15.383 E202.40389
G1 X90.782 Y16.209 E202.45141
G1 X92.611 Y17.760 E202.52283
G1 X96.803 Y17.031 E202.64956
G1 X98.704 Y17.307 E202.70677
G1 X100.601 Y17.017 E202.76393
G1 X104.798 Y17.718 E202.89066
G1 X106.612 Y16.154 E202.96200
G1 X107.976 Y15.316 E203.00967
G1 X109.873 Y17.700 E203.10041
G1 X109.237 Y18.989 E203.14322
G1 X107.183 Y22.522 E203.26494
G1 X106.441 Y26.488 E203.38511
G1 X102.994 Y28.466 E203.50347
G1 X100.114 Y30.072 E203.60169
G1 X100.114 Y30.980 E203.62873
G1 X100.766 Y31.611 E203.65575
G1 X100.671 Y32.313 E203.67685
G1 X99.662 Y43.422 E204.00908
G1 X98.694 Y43.478 E204.03796
G1 X98.130 Y43.437 E204.05480
G1 X97.723 Y43.430 E204.06692
G1 X96.635 Y32.333 E204.39901
G1 X96.514 Y31.345 E204.42866
G1 X96.679 Y31.689 E204.44002
G1 X97.614 Y30.775 E204.47896
G1 X97.614 Y30.205 E204.49594
G1 X94.500 Y28.498 E204.60171
G1 X91.033 Y26.544 E204.72024
G0 F10500 X91.493 Y25.378
;TYPE:SKIN
G1 F3000 X92.962 Y26.848 E204.78213
G0 F10500 X92.809 Y25.988
G1 F3000 X94.555 Y27.734 E204.85567
G0 F10500 X94.411 Y26.882
G1 F3000 X96.148 Y28.619 E204.92884
G0 F10500 X96.012 Y27.776
G1 F3000 X97.674 Y29.438 E204.99884
G0 F10500 X98.033 Y29.090
G1 F3000 X97.613 Y28.671 E205.01651
G0 F10500 X99.780 Y28.716
G1 F3000 X100.497 Y29.079 E205.03719
G1 X100.462 Y28.337 E205.05772
G1 X101.399 Y28.567 E205.07812
G1 X101.369 Y27.830 E205.09838
G1 X102.302 Y28.056 E205.11862
G1 X102.270 Y27.317 E205.13889
G1 X103.205 Y27.545 E205.15930
G1 X103.169 Y26.801 E205.17979
G1 X104.108 Y27.033 E205.20031
G1 X104.068 Y26.286 E205.22094
G1 X105.011 Y26.522 E205.24161
G1 X104.967 Y25.770 E205.26243
G1 X105.798 Y25.895 E205.28330
G1 X105.748 Y25.138 E205.30156
G1 X105.681 Y24.364 E205.31979
G1 X106.188 Y24.164 E205.33486
G1 X106.034 Y23.656 E205.35067
G0 F10500 X104.199 Y18.993
G1 F3000 X103.371 Y18.164 E205.38556
G0 F10500 X104.220 Y18.306
G1 F3000 X104.579 Y18.666 E205.40070
G0 F10500 X103.608 Y19.109
G1 F3000 X102.521 Y18.022 E205.44649
G0 F10500 X101.673 Y17.881
G1 F3000 X102.758 Y18.966 E205.49219
G0 F10500 X102.015 Y18.930
G1 F3000 X100.824 Y17.739 E205.54235
G0 F10500 X100.146 Y17.768
G1 F3000 X101.402 Y19.024 E205.59526
G0 F10500 X100.789 Y19.118
G1 F3000 X99.533 Y17.862 E205.64816
G0 F10500 X98.919 Y17.956
G1 F3000 X100.175 Y19.212 E205.70106
G0 F10500 X107.040 Y17.591
G1 F3000 X108.448 Y18.999 E205.76037
G0 F10500 X108.702 Y18.545
G1 F3000 X106.928 Y16.772 E205.83507
G0 F10500 X107.354 Y16.491
G1 F3000 X108.936 Y18.072 E205.90168
G0 F10500 X107.995 Y16.425
G1 F3000 X107.792 Y16.221 E205.91025
G0 F10500 X104.927 Y18.176
G0 X99.562 Y19.306
G1 F3000 X98.167 Y17.911 E205.96901
G0 F10500 X97.340 Y17.790
G1 F3000 X98.949 Y19.400 E206.03680
G0 F10500 X98.205 Y19.363
G1 F3000 X96.594 Y17.751 E206.10468
G0 F10500 X95.992 Y17.857
G1 F3000 X97.378 Y19.243 E206.16306
G0 F10500 X96.550 Y19.122
G1 F3000 X95.390 Y17.961 E206.21194
G0 F10500 X94.787 Y18.066
G1 F3000 X95.723 Y19.002 E206.25136
G0 F10500 X94.957 Y18.943
G1 F3000 X94.185 Y18.171 E206.28388
G0 F10500 X93.582 Y18.275
G1 F3000 X94.354 Y19.047 E206.31639
G0 F10500 X93.751 Y19.151
G1 F3000 X92.981 Y18.381 E206.34883
G0 F10500 X90.575 Y17.389
G1 F3000 X89.524 Y16.339 E206.39307
G0 F10500 X89.214 Y16.735
G1 F3000 X90.265 Y17.786 E206.43734
G0 F10500 X89.954 Y18.183
G1 F3000 X88.903 Y17.131 E206.48163
G0 F10500 X88.592 Y17.528
G1 F3000 X89.644 Y18.579 E206.52592
G0 F10500 X89.333 Y18.976
G1 F3000 X88.447 Y18.090 E206.56324
G0 F10500 X91.153 Y23.625
G1 F3000 X91.501 Y24.326 E206.58538
G1 X91.963 Y25.141 E206.61329
G0 F10500 X98.036 Y29.956
G0 X98.082 Y31.261
G1 F3000 X97.956 Y31.488 E206.61772
G1 X98.188 Y32.073 E206.63647
G0 F10500 X98.188 Y32.780
G1 F3000 X97.367 Y31.960 E206.67103
G0 F10500 X97.342 Y32.642
G1 F3000 X97.811 Y33.464 E206.69826
G1 X97.419 Y33.426 E206.70999
;LAYER:5
G1 F600 E205.20999
G1 Z2.045
G0 F10500 X41.483 Y19.196 Z2.325
;TYPE:WALL-INNER
G1 Z2.325
G1 F600 E206.70999
G1 F2100 X41.158 Y19.853 E206.73182
G1 X39.537 Y22.643 E206.82792
G1 X38.658 Y27.341 E206.97027
G1 X35.678 Y29.051 E207.07260
G1 X32.507 Y30.820 E207.18074
G1 X32.113 Y31.052 E207.19436
G1 X32.113 Y32.847 E207.24782
G1 X32.713 Y33.429 E207.27272
G1 X32.626 Y34.071 E207.29201
G1 X31.748 Y43.744 E207.58129
G1 X31.172 Y43.791 E207.59850
G1 X30.583 Y43.748 E207.61609
G1 X29.637 Y34.091 E207.90509
G1 X29.583 Y33.652 E207.91826
G1 X30.613 Y32.647 E207.96112
G1 X30.613 Y31.170 E208.00511
G1 X26.807 Y29.082 E208.13441
G1 X23.813 Y27.396 E208.23674
G1 X22.903 Y22.705 E208.37906
G1 X21.257 Y19.922 E208.47536
G1 X20.929 Y19.271 E208.49707
G1 X21.548 Y18.484 E208.52689
G1 X22.479 Y17.294 E208.57189
G1 X23.068 Y17.651 E208.59241
G1 X24.637 Y18.982 E208.65369
G1 X29.874 Y18.071 E208.81200
G1 X31.203 Y18.263 E208.85200
G1 X32.529 Y18.060 E208.89195
G1 X37.771 Y18.937 E209.05024
G1 X39.332 Y17.592 E209.11161
G1 X39.919 Y17.231 E209.13214
G1 X40.858 Y18.412 E209.17708
G1 X41.483 Y19.196 E209.20694
G0 F10500 X41.598 Y20.091
;TYPE:WALL-OUTER
G1 F1800 X40.012 Y22.820 E209.30095
G1 X39.106 Y27.660 E209.44760
G1 X35.921 Y29.488 E209.55697
G1 X32.756 Y31.254 E209.66492
G1 X32.613 Y31.338 E209.66986
G1 X32.613 Y32.636 E209.70852
G1 X33.242 Y33.246 E209.73462
G1 X33.123 Y34.127 E209.76109
G1 X32.206 Y44.227 E210.06314
G1 X31.855 Y44.236 E210.07360
G1 X31.170 Y44.293 E210.09407
G1 X30.481 Y44.242 E210.11465
G1 X30.129 Y44.236 E210.12513
G1 X29.140 Y34.146 E210.42709
G1 X28.952 Y32.620 E210.47288
G1 X29.263 Y33.266 E210.49423
G1 X30.113 Y32.436 E210.52962
G1 X30.113 Y31.466 E210.55851
G1 X26.569 Y29.522 E210.67890
G1 X23.366 Y27.717 E210.78840
G1 X22.428 Y22.885 E210.93500
G1 X20.817 Y20.162 E211.02923
G1 X20.339 Y19.213 E211.06088
G1 X22.358 Y16.637 E211.15836
G1 X23.361 Y17.245 E211.19329
G1 X24.782 Y18.449 E211.24876
G1 X29.865 Y17.565 E211.40242
G1 X31.201 Y17.758 E211.44262
G1 X32.534 Y17.554 E211.48279
G1 X37.622 Y18.405 E211.63643
G1 X39.033 Y17.188 E211.69193
G1 X40.034 Y16.573 E211.72692
G1 X42.071 Y19.133 E211.82435
G1 X41.598 Y20.091 E211.85618
G0 F10500 X41.258 Y19.199
;TYPE:SKIN
G1 F3000 X40.211 Y20.246 E211.90028
G0 F10500 X39.897 Y19.852
G1 F3000 X40.945 Y18.804 E211.94442
G0 F10500 X40.632 Y18.410
G1 F3000 X39.583 Y19.459 E211.98860
G0 F10500 X39.270 Y19.065
G1 F3000 X40.319 Y18.017 E212.03276
G0 F10500 X40.005 Y17.623
G1 F3000 X38.957 Y18.671 E212.07691
G0 F10500 X37.196 Y19.018
G1 F3000 X36.419 Y19.795 E212.10963
G0 F10500 X35.814 Y19.693
G1 F3000 X36.590 Y18.917 E212.14232
G0 F10500 X35.984 Y18.816
G1 F3000 X35.208 Y19.592 E212.17500
G0 F10500 X34.602 Y19.490
G1 F3000 X35.379 Y18.714 E212.20771
G0 F10500 X34.773 Y18.613
G1 F3000 X33.910 Y19.475 E212.24404
G0 F10500 X33.076 Y19.603
G1 F3000 X34.168 Y18.511 E212.29003
G0 F10500 X33.562 Y18.410
G1 F3000 X32.241 Y19.730 E212.34565
G0 F10500 X31.407 Y19.857
G1 F3000 X32.956 Y18.308 E212.41090
G0 F10500 X32.284 Y18.273
G1 F3000 X30.737 Y19.820 E212.47606
G0 F10500 X30.120 Y19.730
G1 F3000 X31.449 Y18.401 E212.53203
G0 F10500 X30.767 Y18.376
G1 F3000 X29.502 Y19.641 E212.58532
G0 F10500 X28.885 Y19.551
G1 F3000 X30.149 Y18.287 E212.63856
G0 F10500 X29.398 Y18.331
G1 F3000 X28.268 Y19.461 E212.68615
G0 F10500 X27.444 Y19.577
G1 F3000 X28.542 Y18.480 E212.73238
G0 F10500 X27.686 Y18.628
G1 F3000 X26.589 Y19.726 E212.77860
G0 F10500 X25.733 Y19.874
G1 F3000 X26.830 Y18.777 E212.82481
G0 F10500 X25.974 Y18.926
G1 F3000 X25.083 Y19.463 E212.85425
G1 X25.118 Y19.075 E212.86585
G0 F10500 X23.676 Y18.396
G1 F3000 X21.716 Y20.356 E212.94840
G0 F10500 X23.634 Y24.095
G1 F3000 X23.646 Y24.436 E212.95838
G1 X23.785 Y25.004 E212.97455
G1 X23.899 Y25.597 E212.99271
G1 X24.014 Y26.189 E213.01085
G1 X23.916 Y26.994 E213.02897
G1 X24.704 Y26.913 E213.05001
G1 X24.658 Y27.666 E213.07104
G1 X25.612 Y27.419 E213.09200
G1 X25.568 Y28.171 E213.11295
G1 X26.520 Y27.926 E213.13391
G1 X26.477 Y28.676 E213.15481
G1 X27.428 Y28.432 E213.17569
G1 X27.386 Y29.181 E213.19656
G1 X28.336 Y28.938 E213.21741
G1 X28.296 Y29.685 E213.23818
G1 X29.244 Y29.444 E213.25892
G1 X29.205 Y30.190 E213.27965
G1 X30.152 Y29.951 E213.30037
G1 X30.114 Y30.695 E213.32109
G1 X30.833 Y30.331 E213.34509
G0 F10500 X31.897 Y30.681
G1 F3000 X33.031 Y29.547 E213.39286
G0 F10500 X32.862 Y30.423
G1 F3000 X34.665 Y28.620 E213.46880
G0 F10500 X34.493 Y29.499
G1 F3000 X36.300 Y27.693 E213.54489
G0 F10500 X36.124 Y28.575
G1 F3000 X37.933 Y26.766 E213.62108
G0 F10500 X38.102 Y26.597
G1 F3000 X38.500 Y25.845 E213.64779
G1 X38.664 Y24.974 E213.67445
G1 X39.061 Y24.224 E213.69973
G0 F10500 X38.573 Y26.833
G1 F3000 X37.755 Y27.651 E213.73418
G0 F10500 X32.190 Y31.096
G0 X30.688 Y33.304
G1 F3000 X29.821 Y34.171 E213.77070
G0 F10500 X29.884 Y34.815
G1 F3000 X30.688 Y34.011 E213.80456
G0 F10500 X30.688 Y34.718
G1 F3000 X30.011 Y35.396 E213.83310
G0 F10500 X30.535 Y31.217
G0 X21.453 Y19.912
G1 F3000 X23.293 Y18.072 E213.91060
G0 F10500 X22.902 Y17.756
G1 F3000 X21.212 Y19.446 E213.98178
G1 F600 E212.48178
G1 Z2.425
G0 F10500 X54.515 Y18.630
;TYPE:WALL-INNER
G1 Z2.325
G1 F600 E213.98178
G1 F2100 X56.064 Y16.654 E214.05656
G1 X56.655 Y17.011 E214.07713
G1 X58.222 Y18.342 E214.13836
G1 X63.460 Y17.431 E214.29671
G1 X64.789 Y17.623 E214.33670
G1 X66.115 Y17.420 E214.37665
G1 X71.357 Y18.297 E214.53495
G1 X72.918 Y16.952 E214.59632
G1 X73.505 Y16.590 E214.61686
G1 X74.444 Y17.772 E214.66182
G1 X75.069 Y18.556 E214.69168
G1 X74.744 Y19.213 E214.71351
G1 X73.123 Y22.003 E214.80961
G1 X72.244 Y26.701 E214.95197
G1 X69.264 Y28.411 E215.05429
G1 X66.093 Y30.179 E215.16242
G1 X65.699 Y30.411 E215.17604
G1 X65.699 Y32.208 E215.22956
G1 X66.299 Y32.789 E215.25444
G1 X66.212 Y33.431 E215.27373
G1 X65.334 Y43.103 E215.56298
G1 X64.751 Y43.150 E215.58040
G1 X64.169 Y43.109 E215.59778
G1 X63.223 Y33.450 E215.88683
G1 X63.169 Y33.012 E215.89998
G1 X64.199 Y32.007 E215.94284
G1 X64.199 Y30.529 E215.98686
G1 X60.393 Y28.441 E216.11615
G1 X57.399 Y26.755 E216.21849
G1 X56.489 Y22.065 E216.36078
G1 X54.846 Y19.287 E216.45690
G1 X54.515 Y18.630 E216.47882
G0 F10500 X54.409 Y19.532
;TYPE:WALL-OUTER
G1 F1800 X53.926 Y18.572 E216.51082
G1 X55.944 Y15.996 E216.60828
G1 X56.944 Y16.602 E216.64311
G1 X58.367 Y17.809 E216.69868
G1 X63.451 Y16.925 E216.85237
G1 X64.787 Y17.118 E216.89258
G1 X66.120 Y16.914 E216.93274
G1 X71.208 Y17.765 E217.08638
G1 X72.620 Y16.548 E217.14190
G1 X73.620 Y15.932 E217.17688
G1 X75.657 Y18.493 E217.27434
G1 X75.184 Y19.451 E217.30616
G1 X73.598 Y22.180 E217.40017
G1 X72.692 Y27.019 E217.54680
G1 X69.507 Y28.848 E217.65619
G1 X66.342 Y30.613 E217.76412
G1 X66.199 Y30.697 E217.76906
G1 X66.199 Y31.996 E217.80775
G1 X66.828 Y32.605 E217.83382
G1 X66.709 Y33.487 E217.86033
G1 X65.792 Y43.587 E218.16238
G1 X65.441 Y43.596 E218.17284
G1 X64.756 Y43.652 E218.19331
G1 X64.067 Y43.602 E218.21388
G1 X63.715 Y43.595 E218.22437
G1 X62.726 Y33.505 E218.52632
G1 X62.539 Y31.982 E218.57202
G1 X62.848 Y32.626 E218.59330
G1 X63.699 Y31.796 E218.62870
G1 X63.699 Y30.825 E218.65762
G1 X60.155 Y28.881 E218.77801
G1 X56.952 Y27.076 E218.88751
G1 X56.014 Y22.245 E219.03408
G1 X54.409 Y19.532 E219.12796
G0 F10500 X54.894 Y18.997
;TYPE:SKIN
G1 F3000 X56.653 Y17.239 E219.20203
G0 F10500 X57.035 Y17.563
G1 F3000 X55.146 Y19.453 E219.28162
G0 F10500 X55.408 Y19.897
G1 F3000 X56.371 Y18.934 E219.32218
G0 F10500 X55.392 Y17.792
G1 F3000 X56.228 Y16.957 E219.35737
G0 F10500 X58.635 Y18.792
G1 F3000 X59.054 Y18.373 E219.37502
G0 F10500 X59.017 Y19.118
G1 F3000 X59.911 Y18.224 E219.41267
G0 F10500 X60.766 Y18.075
G1 F3000 X59.668 Y19.173 E219.45892
G0 F10500 X60.524 Y19.025
G1 F3000 X61.622 Y17.927 E219.50517
G0 F10500 X62.478 Y17.778
G1 F3000 X61.380 Y18.876 E219.55142
G0 F10500 X62.105 Y18.857
G1 F3000 X63.334 Y17.629 E219.60316
G0 F10500 X63.987 Y17.683
G1 F3000 X62.723 Y18.947 E219.65640
G0 F10500 X63.340 Y19.037
G1 F3000 X64.604 Y17.773 E219.70964
G0 F10500 X65.375 Y17.709
G1 F3000 X63.957 Y19.127 E219.76937
G0 F10500 X64.575 Y19.217
G1 F3000 X66.183 Y17.608 E219.83712
G0 F10500 X66.789 Y17.710
G1 F3000 X65.333 Y19.166 E219.89845
G0 F10500 X66.167 Y19.038
G1 F3000 X67.395 Y17.811 E219.95015
G0 F10500 X68.000 Y17.913
G1 F3000 X67.002 Y18.910 E219.99216
G0 F10500 X67.829 Y18.790
G1 F3000 X68.606 Y18.014 E220.02487
G0 F10500 X69.211 Y18.116
G1 F3000 X68.435 Y18.891 E220.05753
G0 F10500 X69.041 Y18.993
G1 F3000 X69.817 Y18.217 E220.09022
G0 F10500 X70.423 Y18.318
G1 F3000 X69.646 Y19.095 E220.12295
G0 F10500 X70.252 Y19.196
G1 F3000 X71.028 Y18.420 E220.15563
G0 F10500 X72.358 Y17.797
G1 F3000 X73.128 Y17.027 E220.18806
G0 F10500 X73.719 Y17.143
G1 F3000 X72.671 Y18.191 E220.23220
G0 F10500 X72.984 Y18.585
G1 F3000 X74.032 Y17.537 E220.27635
G0 F10500 X74.345 Y17.931
G1 F3000 X73.297 Y18.979 E220.32049
G0 F10500 X73.611 Y19.373
G1 F3000 X74.659 Y18.325 E220.36463
G0 F10500 X74.616 Y19.074
G1 F3000 X73.924 Y19.767 E220.39380
G0 F10500 X72.744 Y23.068
G1 F3000 X72.480 Y23.685 E220.40911
G1 X72.183 Y24.689 E220.43568
G1 X71.786 Y25.440 E220.46098
G0 F10500 X72.255 Y25.678
G1 F3000 X70.376 Y27.558 E220.54014
G0 F10500 X70.550 Y26.677
G1 F3000 X68.744 Y28.482 E220.61619
G0 F10500 X68.916 Y27.603
G1 F3000 X67.114 Y29.405 E220.69209
G0 F10500 X67.284 Y28.528
