;This Gcode has been generated specifically for the LulzBot Mini
;Basic settings: Layer height: 0.38 Walls: 1 Fill: 0
;Filament Diameter: 2.85
;Nozzle Size: 0.5
G21                          ; metric values
G90                          ; absolute positioning
M82                          ; set extruder to absolute mode
M107                         ; start with the fan off
G92 E0                       ; set extruder position to 0
M140 S60; get bed heating up
G28                          ; home all
M109 S140                    ; set to cleaning temp and wait
G1 Z150 E-30 F75             ; suck up XXmm of filament
M109 S140                    ; heat up rest of way
G1 X45 Y174 F11520           ; move behind scraper
G1 Z0  F1200                 ; CRITICAL: set Z to height of top of scraper
G1 X45 Y174 Z-.5 F4000       ; wiping ; plunge into wipe pad
G1 X55 Y172 Z-.5 F4000       ; wiping
G1 X45 Y174 Z0 F4000         ; wiping
G1 X55 Y172 F4000            ; wiping
G1 X45 Y174 F4000            ; wiping
G1 X55 Y172 F4000            ; wiping
G1 X45 Y174 F4000            ; wiping
G1 X55 Y172 F4000            ; wiping
G1 X60 Y174 F4000            ; wiping
G1 X80 Y172 F4000            ; wiping
G1 X60 Y174 F4000            ; wiping
G1 X80 Y172 F4000            ; wiping
G1 X60 Y174 F4000            ; wiping
G1 X90 Y172 F4000            ; wiping
G1 X80 Y174 F4000            ; wiping
G1 X100 Y172 F4000           ; wiping
G1 X80 Y174 F4000            ; wiping
G1 X100 Y172 F4000           ; wiping
G1 X80 Y174 F4000            ; wiping
G1 X100 Y172 F4000           ; wiping
G1 X110 Y174 F4000           ; wiping
G1 X100 Y172 F4000           ; wiping
G1 X110 Y174 F4000           ; wiping
G1 X100 Y172 F4000           ; wiping
G1 X110 Y174 F4000           ; wiping
G1 X115 Y172 Z-0.5 F1000     ; wipe slower and bury noz in cleanish area
G1 Z10                       ; raise z
G28 X0 Y0                    ; home x and y
M109 S140                    ; set to probing temp
M204 S300                    ; Set probing acceleration
G29                          ; Probe
M204 S2000                   ; Restore standard acceleration
G1 X5 Y15 Z10 F5000          ; get out the way
G4 S1                        ; pause
M400                         ; clear buffer
M109 S205    ; set extruder temp and wait
G4 S15                       ; wait for bed to temp up
G1 Z2 E0 F75                 ; extrude filament back into nozzle
M140 S60; get bed temping up during first layer

;Layer count: 155
;LAYER:0
M107
G0 F10500 X45.702 Y13.371 Z0.425
;TYPE:SKIRT
G1 F900 X48.284 Y10.296 E0.16719
G1 X48.746 Y10.279 E0.18644
G1 X49.692 Y9.236 E0.24507
G1 X50.044 Y9.241 E0.25973
G1 X52.062 Y7.115 E0.38178
G1 X56.008 Y10.367 E0.59469
G1 X56.289 Y10.537 E0.60836
G1 X58.891 Y12.746 E0.75048
G1 X62.427 Y13.261 E0.89927
G1 X65.959 Y12.722 E1.04803
G1 X68.546 Y10.492 E1.19025
G1 X68.827 Y10.319 E1.20399
G1 X72.765 Y7.025 E1.41776
G1 X74.781 Y9.148 E1.53966
G1 X75.153 Y9.140 E1.55515
G1 X76.087 Y10.178 E1.61330
G1 X76.578 Y10.192 E1.63375
G1 X79.133 Y13.281 E1.80066
G1 X76.855 Y17.221 E1.99016
G1 X76.656 Y17.626 E2.00895
G1 X72.978 Y23.950 E2.31357
G1 X72.703 Y25.436 E2.37649
G1 X68.070 Y28.085 E2.59871
G1 X66.507 Y45.311 E3.31891
G1 X62.418 Y45.387 E3.48920
G1 X58.581 Y45.327 E3.64898
G1 X56.892 Y28.131 E4.36843
G1 X52.248 Y25.510 E4.59047
G1 X51.958 Y24.033 E4.65314
G1 X48.231 Y17.730 E4.95803
G1 X48.031 Y17.331 E4.97662
G1 X45.702 Y13.371 E5.16791
G0 F10500 X45.352 Y14.249
G1 F900 X43.077 Y18.189 E5.35734
G1 X42.877 Y18.596 E5.37623
G1 X39.198 Y24.920 E5.68086
G1 X38.923 Y26.405 E5.74375
G1 X34.290 Y29.055 E5.96598
G1 X32.728 Y46.281 E6.68618
G1 X28.637 Y46.358 E6.85655
G1 X24.800 Y46.292 E7.01634
G1 X23.112 Y29.100 E7.73562
G1 X18.469 Y26.479 E7.95762
G1 X18.179 Y25.002 E8.02030
G1 X14.452 Y18.699 E8.32519
G1 X14.249 Y18.296 E8.34398
G1 X11.923 Y14.340 E8.53506
G1 X14.507 Y11.263 E8.70236
G1 X14.970 Y11.247 E8.72165
G1 X15.921 Y10.206 E8.78036
G1 X16.265 Y10.211 E8.79469
G1 X18.282 Y8.086 E8.91668
G1 X22.224 Y11.333 E9.12933
G1 X22.510 Y11.506 E9.14325
G1 X25.112 Y13.715 E9.28537
G1 X28.648 Y14.230 E9.43415
G1 X32.180 Y13.692 E9.58291
G1 X34.767 Y11.462 E9.72513
G1 X35.048 Y11.289 E9.73887
G1 X38.986 Y7.994 E9.95266
G1 X41.003 Y10.117 E10.07460
G1 X41.373 Y10.109 E10.09000
G1 X42.307 Y11.146 E10.14812
G1 X42.797 Y11.159 E10.16852
G1 X45.352 Y14.249 E10.33547
G0 F10500 X81.414 Y14.572
G1 F900 X83.998 Y11.495 E10.50278
G1 X84.461 Y11.479 E10.52207
G1 X85.410 Y10.439 E10.58069
G1 X85.756 Y10.443 E10.59510
G1 X87.773 Y8.318 E10.71709
G1 X91.715 Y11.565 E10.92974
G1 X92.001 Y11.738 E10.94366
G1 X94.603 Y13.947 E11.08578
G1 X98.139 Y14.462 E11.23456
G1 X101.671 Y13.924 E11.38332
G1 X104.258 Y11.694 E11.52554
G1 X104.539 Y11.521 E11.53928
G1 X108.477 Y8.226 E11.75307
G1 X110.494 Y10.349 E11.87500
G1 X110.864 Y10.341 E11.89041
G1 X111.798 Y11.378 E11.94852
G1 X112.288 Y11.391 E11.96893
G1 X114.843 Y14.481 E12.13588
G1 X112.568 Y18.421 E12.32532
G1 X112.368 Y18.828 E12.34420
G1 X108.689 Y25.152 E12.64884
G1 X108.414 Y26.637 E12.71172
G1 X103.781 Y29.287 E12.93396
G1 X102.219 Y46.513 E13.65415
G1 X98.128 Y46.590 E13.82453
G1 X94.291 Y46.524 E13.98431
G1 X92.603 Y29.332 E14.70360
G1 X87.960 Y26.711 E14.92560
G1 X87.670 Y25.234 E14.98827
G1 X83.943 Y18.931 E15.29316
G1 X83.740 Y18.528 E15.31195
G1 X81.414 Y14.572 E15.50303
G1 F600 E14.00303
G1 Z0.525
G0 F10500 X39.821 Y15.330
;TYPE:WALL-INNER
G1 Z0.425
G1 F600 E15.50303
G1 F900 X39.327 Y16.186 E15.54418
G1 X39.127 Y16.592 E15.56303
G1 X35.154 Y23.421 E15.89200
G1 X35.104 Y23.695 E15.90359
G1 X29.375 Y26.971 E16.17838
G1 X30.146 Y27.719 E16.22311
G1 X28.841 Y42.104 E16.82453
G1 X28.659 Y42.107 E16.83211
G1 X27.248 Y27.729 E17.43366
G1 X28.026 Y26.963 E17.47912
G1 X26.501 Y26.133 E17.55141
G1 X22.261 Y23.740 E17.75413
G1 X22.207 Y23.466 E17.76576
G1 X18.179 Y16.655 E18.09524
G1 X17.482 Y15.411 E18.15461
G1 X17.904 Y15.397 E18.17220
G1 X18.054 Y14.485 E18.21068
G1 X19.101 Y14.499 E18.25428
G1 X19.135 Y14.294 E18.26293
G1 X19.763 Y14.811 E18.29680
G1 X20.024 Y14.969 E18.30950
G1 X23.675 Y18.068 E18.50890
G1 X24.512 Y17.921 E18.54429
G1 X28.662 Y18.525 E18.71891
G1 X32.813 Y17.893 E18.89374
G1 X33.651 Y18.033 E18.92911
G1 X37.285 Y14.901 E19.12887
G1 X37.539 Y14.745 E19.14128
G1 X38.159 Y14.226 E19.17495
G1 X38.194 Y14.430 E19.18357
G1 X39.244 Y14.407 E19.22730
G1 X39.402 Y15.319 E19.26584
G1 X39.821 Y15.330 E19.28329
G0 F10500 X39.930 Y14.708
;TYPE:WALL-OUTER
G1 F900 X40.888 Y14.734 E19.32319
G1 X39.879 Y16.481 E19.40719
G1 X39.682 Y16.880 E19.42572
G1 X35.749 Y23.642 E19.75144
G1 X35.665 Y24.093 E19.77054
G1 X30.407 Y27.101 E20.02277
G1 X30.795 Y27.478 E20.04529
G1 X29.412 Y42.718 E20.68246
G1 X28.633 Y42.733 E20.71490
G1 X28.092 Y42.724 E20.73743
G1 X26.596 Y27.493 E21.37467
G1 X26.987 Y27.109 E21.39749
G1 X26.189 Y26.675 E21.43532
G1 X21.703 Y24.143 E21.64980
G1 X21.615 Y23.692 E21.66894
G1 X17.629 Y16.952 E21.99498
G1 X17.433 Y16.562 E22.01315
G1 X16.411 Y14.823 E22.09714
G1 X17.370 Y14.790 E22.13709
G1 X17.524 Y13.852 E22.17667
G1 X18.573 Y13.867 E22.22036
G1 X18.697 Y13.123 E22.25176
G1 X20.125 Y14.299 E22.32879
G1 X20.384 Y14.456 E22.34140
G1 X23.856 Y17.402 E22.53100
G1 X24.500 Y17.288 E22.55823
G1 X28.660 Y17.893 E22.73326
G1 X32.816 Y17.261 E22.90830
G1 X33.465 Y17.369 E22.93569
G1 X36.913 Y14.397 E23.12523
G1 X37.173 Y14.237 E23.13795
G1 X38.591 Y13.049 E23.21497
G1 X38.719 Y13.793 E23.24640
G1 X39.768 Y13.770 E23.29009
G1 X39.930 Y14.708 E23.32973
G0 F10500 X39.086 Y14.780
;TYPE:SKIN
G1 F900 X38.938 Y14.632 E23.33844
G0 F10500 X38.074 Y14.652
G1 F900 X39.269 Y15.847 E23.40881
G0 F10500 X38.964 Y16.426
G1 F900 X37.540 Y15.001 E23.49269
G0 F10500 X37.048 Y15.394
G1 F900 X38.642 Y16.988 E23.58655
G0 F10500 X38.317 Y17.546
G1 F900 X36.573 Y15.803 E23.68922
G0 F10500 X36.099 Y16.212
G1 F900 X37.992 Y18.105 E23.80069
G0 F10500 X37.667 Y18.664
G1 F900 X35.624 Y16.621 E23.92099
G0 F10500 X35.149 Y17.030
G1 F900 X37.342 Y19.223 E24.05013
G0 F10500 X37.017 Y19.782
G1 F900 X34.675 Y17.440 E24.18803
G0 F10500 X34.200 Y17.849
G1 F900 X36.691 Y20.340 E24.33472
G0 F10500 X36.367 Y20.899
G1 F900 X33.725 Y18.258 E24.49026
G0 F10500 X32.713 Y18.130
G1 F900 X36.041 Y21.458 E24.68623
G0 F10500 X35.716 Y22.017
G1 F900 X31.946 Y18.246 E24.90826
G0 F10500 X31.179 Y18.363
G1 F900 X35.391 Y22.575 E25.15628
G0 F10500 X35.066 Y23.135
G1 F900 X30.411 Y18.480 E25.43039
G0 F10500 X29.644 Y18.596
G1 F900 X34.712 Y23.664 E25.72882
G0 F10500 X34.150 Y23.986
G1 F900 X28.877 Y18.713 E26.03932
G0 F10500 X27.918 Y18.638
G1 F900 X33.587 Y24.307 E26.37314
G0 F10500 X33.025 Y24.629
G1 F900 X26.884 Y18.488 E26.73475
G0 F10500 X25.850 Y18.338
G1 F900 X32.463 Y24.950 E27.12413
G0 F10500 X31.901 Y25.272
G1 F900 X24.816 Y18.188 E27.54130
G0 F10500 X23.981 Y18.236
G1 F900 X31.338 Y25.594 E27.97454
G0 F10500 X30.776 Y25.915
G1 F900 X20.637 Y15.776 E28.57158
G0 F10500 X20.370 Y19.929
G1 F900 X26.090 Y25.649 E28.90840
G0 F10500 X28.054 Y26.729
G1 F900 X19.089 Y17.763 E29.43633
G0 F10500 X17.872 Y15.663
G1 F900 X29.089 Y26.880 E30.09685
G0 F10500 X29.651 Y26.558
G1 F900 X18.176 Y15.083 E30.77255
G0 F10500 X18.690 Y14.713
G1 F900 X30.213 Y26.237 E31.45111
G0 F10500 X28.313 Y26.988
G1 F900 X29.852 Y28.527 E31.54174
G0 F10500 X29.779 Y29.337
G1 F900 X27.867 Y27.426 E31.65429
G0 F10500 X27.487 Y27.930
G1 F900 X29.705 Y30.148 E31.78490
G0 F10500 X29.632 Y30.958
G1 F900 X27.583 Y28.910 E31.90553
G0 F10500 X27.679 Y29.890
G1 F900 X29.558 Y31.768 E32.01614
G0 F10500 X29.484 Y32.579
G1 F900 X27.775 Y30.870 E32.11678
G0 F10500 X27.872 Y31.850
G1 F900 X29.411 Y33.389 E32.20740
G0 F10500 X29.337 Y34.199
G1 F900 X27.968 Y32.830 E32.28801
G0 F10500 X28.065 Y33.811
G1 F900 X29.264 Y35.010 E32.35862
G0 F10500 X29.190 Y35.820
G1 F900 X28.161 Y34.791 E32.41921
G0 F10500 X28.257 Y35.771
G1 F900 X28.735 Y36.690 E32.46979
G1 X28.746 Y37.586 E32.51039
G1 X28.757 Y38.481 E32.54098
G1 X28.769 Y39.376 E32.56155
G1 X28.789 Y39.839 E32.58085
G0 F10500 X27.705 Y27.009
G0 X24.062 Y24.504
G1 F900 X21.650 Y22.093 E32.72285
G1 F600 E31.22285
G1 Z0.525
G0 F10500 X51.261 Y14.441
;TYPE:WALL-INNER
G1 Z0.425
G1 F600 E32.72285
G1 F900 X51.683 Y14.426 E32.74043
G1 X51.833 Y13.515 E32.77887
G1 X52.880 Y13.529 E32.82247
G1 X52.914 Y13.324 E32.83112
G1 X53.542 Y13.841 E32.86499
G1 X53.802 Y13.999 E32.87766
G1 X57.454 Y17.099 E33.07712
G1 X58.291 Y16.952 E33.11251
G1 X62.442 Y17.556 E33.28717
G1 X66.592 Y16.924 E33.46195
G1 X67.430 Y17.063 E33.49732
G1 X71.063 Y13.932 E33.69702
G1 X71.318 Y13.776 E33.70947
G1 X71.940 Y13.256 E33.74322
G1 X71.975 Y13.461 E33.75188
G1 X73.024 Y13.438 E33.79557
G1 X73.182 Y14.348 E33.83403
G1 X73.601 Y14.360 E33.85148
G1 X73.106 Y15.216 E33.89266
G1 X72.906 Y15.622 E33.91150
G1 X68.934 Y22.453 E34.24052
G1 X68.884 Y22.726 E34.25207
G1 X63.155 Y26.001 E34.52684
G1 X63.926 Y26.749 E34.57157
G1 X62.620 Y41.134 E35.17300
G1 X62.439 Y41.137 E35.18054
G1 X61.028 Y26.760 E35.78204
G1 X61.806 Y25.994 E35.82750
G1 X60.281 Y25.164 E35.89979
G1 X56.040 Y22.770 E36.10257
G1 X55.986 Y22.497 E36.11416
G1 X51.959 Y15.686 E36.44362
G1 X51.762 Y15.294 E36.46188
G1 X51.261 Y14.441 E36.50307
G0 F10500 X51.149 Y13.820
;TYPE:WALL-OUTER
G1 F900 X51.304 Y12.882 E36.54266
G1 X52.352 Y12.897 E36.58630
G1 X52.476 Y12.153 E36.61771
G1 X53.904 Y13.330 E36.69476
G1 X54.163 Y13.487 E36.70737
G1 X57.635 Y16.433 E36.89697
G1 X58.279 Y16.319 E36.92420
G1 X62.440 Y16.924 E37.09928
G1 X66.595 Y16.291 E37.27428
G1 X67.244 Y16.399 E37.30167
G1 X70.692 Y13.427 E37.49121
G1 X70.952 Y13.267 E37.50392
G1 X72.371 Y12.080 E37.58095
G1 X72.499 Y12.824 E37.61239
G1 X73.548 Y12.801 E37.65608
G1 X73.710 Y13.738 E37.69567
G1 X74.668 Y13.764 E37.73557
G1 X73.658 Y15.511 E37.81960
G1 X69.529 Y22.673 E38.16382
G1 X69.445 Y23.124 E38.18292
G1 X64.187 Y26.131 E38.43512
G1 X64.575 Y26.508 E38.45765
G1 X63.191 Y41.748 E39.09482
G1 X62.412 Y41.763 E39.12727
G1 X61.872 Y41.754 E39.14975
G1 X60.376 Y26.524 E39.78695
G1 X60.767 Y26.140 E39.80977
G1 X59.969 Y25.706 E39.84759
G1 X55.482 Y23.174 E40.06212
G1 X55.394 Y22.723 E40.08125
G1 X51.409 Y15.983 E40.40727
G1 X51.213 Y15.593 E40.42545
G1 X50.190 Y13.854 E40.50945
G1 X51.149 Y13.820 E40.54941
G0 F10500 X51.915 Y14.350
;TYPE:SKIN
G1 F900 X63.254 Y25.690 E41.21714
G0 F10500 X63.817 Y25.369
G1 F900 X52.188 Y13.739 E41.90194
G0 F10500 X53.083 Y13.751
G1 F900 X64.379 Y25.047 E42.56710
G0 F10500 X64.942 Y24.726
G1 F900 X57.525 Y17.309 E43.00385
G0 F10500 X58.276 Y17.177
G1 F900 X65.504 Y24.404 E43.42944
G0 F10500 X66.067 Y24.083
G1 F900 X59.305 Y17.321 E43.82762
G0 F10500 X54.546 Y19.634
G1 F900 X59.234 Y24.321 E44.10365
G0 F10500 X57.204 Y23.176
G1 F900 X55.826 Y21.797 E44.18482
G0 F10500 X53.267 Y17.471
G1 F900 X61.224 Y25.427 E44.65334
G0 F10500 X61.953 Y26.157
G1 F900 X63.609 Y27.813 E44.75085
G0 F10500 X63.535 Y28.622
G1 F900 X61.507 Y26.594 E44.87027
G0 F10500 X61.296 Y27.268
G1 F900 X63.462 Y29.433 E44.99779
G0 F10500 X63.388 Y30.243
G1 F900 X61.393 Y28.248 E45.11526
G0 F10500 X61.489 Y29.228
G1 F900 X63.315 Y31.054 E45.22278
G0 F10500 X63.241 Y31.864
G1 F900 X61.585 Y30.208 E45.32030
G0 F10500 X61.681 Y31.188
G1 F900 X63.167 Y32.674 E45.40780
G0 F10500 X63.094 Y33.485
G1 F900 X61.777 Y32.168 E45.48535
G0 F10500 X61.874 Y33.149
G1 F900 X63.020 Y34.295 E45.55284
G0 F10500 X62.947 Y35.105
G1 F900 X61.970 Y34.129 E45.61034
G0 F10500 X62.067 Y35.109
G1 F900 X62.518 Y36.002 E45.65772
G1 X62.529 Y36.897 E45.69511
G1 X62.540 Y37.792 E45.72254
G1 X62.652 Y38.346 E45.74608
G0 F10500 X63.683 Y27.002
G1 F900 X52.037 Y15.356 E46.43185
G0 F10500 X57.492 Y16.959
G0 X60.339 Y17.471
G1 F900 X66.629 Y23.761 E46.80224
G0 F10500 X67.191 Y23.439
G1 F900 X61.374 Y17.622 E47.14477
G0 F10500 X62.408 Y17.773
G1 F900 X67.753 Y23.118 E47.45951
G0 F10500 X68.316 Y22.797
G1 F900 X63.184 Y17.664 E47.76174
G0 F10500 X63.950 Y17.547
G1 F900 X68.744 Y22.341 E48.04403
G0 F10500 X69.070 Y21.783
G1 F900 X64.717 Y17.430 E48.30036
G0 F10500 X65.485 Y17.314
G1 F900 X69.394 Y21.223 E48.53054
G0 F10500 X69.720 Y20.665
G1 F900 X66.252 Y17.197 E48.73475
G0 F10500 X67.183 Y17.244
G1 F900 X70.045 Y20.106 E48.90328
G0 F10500 X70.369 Y19.547
G1 F900 X67.829 Y17.007 E49.05285
G0 F10500 X68.305 Y16.598
G1 F900 X70.695 Y18.988 E49.19358
G0 F10500 X71.020 Y18.430
G1 F900 X68.779 Y16.189 E49.32554
G0 F10500 X69.254 Y15.779
G1 F900 X71.344 Y17.870 E49.44864
G0 F10500 X71.670 Y17.312
G1 F900 X69.729 Y15.371 E49.56294
G0 F10500 X70.203 Y14.961
G1 F900 X71.994 Y16.752 E49.66840
G0 F10500 X72.320 Y16.194
G1 F900 X70.678 Y14.552 E49.76509
G0 F10500 X71.153 Y14.143
G1 F900 X72.645 Y15.635 E49.85295
G0 F10500 X72.947 Y15.054
G1 F900 X71.664 Y13.770 E49.92853
G0 F10500 X72.448 Y13.670
G1 F900 X72.924 Y14.147 E49.95659
G1 F600 E48.45659
G1 Z0.525
G0 F10500 X86.973 Y15.643
;TYPE:WALL-INNER
G1 Z0.425
G1 F600 E49.95659
G1 F900 X87.395 Y15.629 E49.97417
G1 X87.545 Y14.716 E50.01269
G1 X88.592 Y14.729 E50.05629
G1 X88.626 Y14.526 E50.06486
G1 X89.254 Y15.043 E50.09873
G1 X89.515 Y15.201 E50.11143
G1 X93.166 Y18.300 E50.31083
G1 X94.003 Y18.153 E50.34622
G1 X98.153 Y18.757 E50.52084
G1 X102.304 Y18.125 E50.69567
G1 X103.142 Y18.265 E50.73104
G1 X106.776 Y15.133 E50.93080
G1 X107.030 Y14.977 E50.94321
G1 X107.650 Y14.458 E50.97688
G1 X107.685 Y14.662 E50.98549
G1 X108.735 Y14.639 E51.02922
G1 X108.893 Y15.551 E51.06776
G1 X109.312 Y15.562 E51.08522
G1 X108.818 Y16.418 E51.12637
G1 X108.618 Y16.824 E51.14521
G1 X104.645 Y23.653 E51.47418
G1 X104.595 Y23.927 E51.48578
G1 X98.866 Y27.203 E51.76057
G1 X99.637 Y27.951 E51.80529
G1 X98.332 Y42.336 E52.40672
G1 X98.150 Y42.339 E52.41430
G1 X96.739 Y27.961 E53.01584
G1 X97.517 Y27.195 E53.06130
G1 X95.992 Y26.365 E53.13360
G1 X91.752 Y23.972 E53.33632
G1 X91.698 Y23.698 E53.34795
G1 X87.670 Y16.887 E53.67742
G1 X86.973 Y15.643 E53.73680
G0 F10500 X86.861 Y15.022
;TYPE:WALL-OUTER
G1 F900 X87.015 Y14.084 E53.77638
G1 X88.064 Y14.097 E53.82006
G1 X88.188 Y13.355 E53.85138
G1 X89.616 Y14.531 E53.92841
G1 X89.875 Y14.688 E53.94102
G1 X93.347 Y17.634 E54.13062
G1 X93.991 Y17.520 E54.15785
G1 X98.151 Y18.125 E54.33288
G1 X102.307 Y17.493 E54.50792
G1 X102.956 Y17.601 E54.53531
G1 X106.404 Y14.629 E54.72485
G1 X106.664 Y14.469 E54.73757
G1 X108.082 Y13.281 E54.81459
G1 X108.210 Y14.025 E54.84602
G1 X109.259 Y14.002 E54.88971
G1 X109.421 Y14.940 E54.92935
G1 X110.379 Y14.966 E54.96925
G1 X109.370 Y16.713 E55.05325
G1 X109.173 Y17.112 E55.07178
G1 X105.240 Y23.874 E55.39750
G1 X105.156 Y24.325 E55.41660
G1 X99.898 Y27.333 E55.66883
G1 X100.286 Y27.710 E55.69135
G1 X98.903 Y42.950 E56.32852
G1 X98.124 Y42.965 E56.36097
G1 X97.583 Y42.956 E56.38349
G1 X96.087 Y27.725 E57.02073
G1 X96.478 Y27.341 E57.04355
G1 X95.680 Y26.907 E57.08138
G1 X91.194 Y24.375 E57.29586
G1 X91.106 Y23.924 E57.31500
G1 X87.120 Y17.184 E57.64104
G1 X86.924 Y16.794 E57.65921
G1 X85.902 Y15.055 E57.74320
G1 X86.861 Y15.022 E57.78316
G0 F10500 X87.622 Y15.586
;TYPE:SKIN
G1 F900 X98.941 Y26.906 E58.44970
G0 F10500 X99.504 Y26.584
G1 F900 X87.858 Y14.939 E59.13545
G0 F10500 X88.753 Y14.950
G1 F900 X100.066 Y26.263 E59.80161
G0 F10500 X100.629 Y25.941
G1 F900 X93.203 Y18.516 E60.23886
G0 F10500 X93.955 Y18.384
G1 F900 X101.191 Y25.619 E60.66493
G0 F10500 X101.753 Y25.298
G1 F900 X94.970 Y18.515 E61.06434
G0 F10500 X96.005 Y18.666
G1 F900 X102.316 Y24.977 E61.43597
G0 F10500 X102.878 Y24.655
G1 F900 X97.039 Y18.816 E61.77979
G0 F10500 X98.073 Y18.966
G1 F900 X103.440 Y24.333 E62.09583
G0 F10500 X104.002 Y24.011
G1 F900 X98.861 Y18.870 E62.39856
G0 F10500 X99.628 Y18.753
G1 F900 X104.441 Y23.567 E62.68200
G0 F10500 X104.766 Y23.007
G1 F900 X100.395 Y18.637 E62.93936
G0 F10500 X101.162 Y18.520
G1 F900 X105.091 Y22.449 E63.17072
G0 F10500 X105.416 Y21.890
G1 F900 X101.930 Y18.403 E63.37602
G0 F10500 X102.848 Y18.438
G1 F900 X105.742 Y21.331 E63.54640
G0 F10500 X106.066 Y20.772
G1 F900 X103.521 Y18.227 E63.69626
G0 F10500 X103.996 Y17.818
G1 F900 X106.391 Y20.214 E63.83732
G0 F10500 X106.717 Y19.655
G1 F900 X104.471 Y17.409 E63.96958
G0 F10500 X104.945 Y17.000
G1 F900 X107.042 Y19.096 E64.09303
G0 F10500 X107.367 Y18.537
G1 F900 X105.420 Y16.590 E64.20768
G0 F10500 X105.894 Y16.181
G1 F900 X107.692 Y17.978 E64.31353
G0 F10500 X108.017 Y17.420
G1 F900 X106.369 Y15.772 E64.41057
G0 F10500 X106.844 Y15.363
G1 F900 X108.342 Y16.861 E64.49878
G0 F10500 X108.644 Y16.279
G1 F900 X107.355 Y14.990 E64.57468
G0 F10500 X108.120 Y14.871
G1 F900 X108.643 Y15.394 E64.60548
G0 F10500 X99.183 Y27.243
G0 X99.390 Y28.239
G1 F900 X87.768 Y16.616 E65.28987
G0 F10500 X89.035 Y18.767
G1 F900 X96.851 Y26.583 E65.75011
G0 F10500 X97.645 Y27.377
G1 F900 X99.317 Y29.049 E65.84857
G0 F10500 X99.243 Y29.859
G1 F900 X97.198 Y27.814 E65.96899
G0 F10500 X97.012 Y28.511
G1 F900 X99.170 Y30.670 E66.09609
G0 F10500 X99.096 Y31.480
G1 F900 X97.108 Y29.492 E66.21315
G0 F10500 X97.204 Y30.472
G1 F900 X99.023 Y32.290 E66.32024
G0 F10500 X98.949 Y33.101
G1 F900 X97.300 Y31.452 E66.41734
G0 F10500 X97.396 Y32.432
G1 F900 X98.876 Y33.911 E66.50446
G0 F10500 X98.802 Y34.721
G1 F900 X97.493 Y33.412 E66.58154
G0 F10500 X97.589 Y34.392
G1 F900 X98.729 Y35.532 E66.64867
G0 F10500 X98.655 Y36.342
G1 F900 X97.685 Y35.372 E66.70579
G0 F10500 X97.781 Y36.352
G1 F900 X98.229 Y37.242 E66.75285
G1 X98.240 Y38.137 E66.78988
G1 X98.252 Y39.032 E66.81695
G1 X98.360 Y39.583 E66.84033
G0 F10500 X97.196 Y27.241
G0 X94.857 Y25.473
G1 F900 X90.315 Y20.931 E67.10779
G0 F10500 X91.595 Y23.094
G1 F900 X92.828 Y24.328 E67.18042
;LAYER:1
M106 S191
G1 F600 E65.68042
G1 Z0.525
G0 F10500 X39.975 Y15.243 Z0.805
;TYPE:WALL-INNER
G1 Z0.805
G1 F600 E67.18042
G1 F1140 X39.677 Y15.759 E67.19817
G1 X39.155 Y16.813 E67.23320
G1 X35.663 Y22.817 E67.44006
G1 X35.440 Y24.017 E67.47642
G1 X31.410 Y26.327 E67.61476
G1 X29.415 Y27.441 E67.68282
G1 X30.403 Y28.396 E67.72374
G1 X29.120 Y42.526 E68.14631
G1 X28.743 Y42.534 E68.15754
G1 X28.383 Y42.531 E68.16827
G1 X26.996 Y28.409 E68.59089
G1 X27.978 Y27.444 E68.63190
G1 X25.971 Y26.347 E68.70002
G1 X21.929 Y24.066 E68.83825
G1 X21.694 Y22.866 E68.87467
G1 X18.153 Y16.879 E69.08183
G1 X17.631 Y15.839 E69.11649
G1 X17.329 Y15.325 E69.13425
G1 X17.902 Y15.305 E69.15132
G1 X18.042 Y14.447 E69.17722
G1 X18.956 Y14.460 E69.20444
G1 X19.023 Y14.054 E69.21670
G1 X19.524 Y14.467 E69.23603
G1 X20.209 Y14.881 E69.25987
G1 X23.401 Y17.589 E69.38454
G1 X25.072 Y17.297 E69.43507
G1 X28.660 Y17.820 E69.54306
G1 X32.247 Y17.274 E69.65112
G1 X33.922 Y17.552 E69.70169
G1 X37.095 Y14.818 E69.82644
G1 X37.775 Y14.399 E69.85022
G1 X38.270 Y13.984 E69.86946
G1 X38.340 Y14.391 E69.88176
G1 X39.255 Y14.370 E69.90902
G1 X39.404 Y15.228 E69.93496
G1 X39.975 Y15.243 E69.95197
G0 F10500 X39.827 Y14.739
;TYPE:WALL-OUTER
G1 F1080 X40.568 Y14.758 E69.97405
G1 X40.724 Y14.946 E69.98132
G1 X40.118 Y15.995 E70.01740
G1 X39.598 Y17.045 E70.05230
G1 X36.139 Y22.994 E70.25726
G1 X35.889 Y24.337 E70.29794
G1 X31.654 Y26.764 E70.44332
G1 X30.246 Y27.550 E70.49135
G1 X30.922 Y28.204 E70.51936
G1 X29.577 Y43.017 E70.96236
G1 X28.751 Y43.034 E70.98696
G1 X27.929 Y43.024 E71.01145
G1 X26.476 Y28.219 E71.45451
G1 X27.147 Y27.560 E71.48252
G1 X25.734 Y26.787 E71.53049
G1 X21.482 Y24.387 E71.67591
G1 X21.220 Y23.047 E71.71657
G1 X17.713 Y17.118 E71.92174
G1 X17.192 Y16.078 E71.95638
G1 X16.578 Y15.032 E71.99251
G1 X16.733 Y14.846 E71.99972
G1 X17.475 Y14.820 E72.02183
G1 X17.581 Y14.168 E72.04150
G1 X17.784 Y13.944 E72.05051
G1 X18.533 Y13.954 E72.07282
G1 X18.651 Y13.250 E72.09408
G1 X18.731 Y13.165 E72.09755
G1 X19.814 Y14.058 E72.13936
G1 X20.498 Y14.471 E72.16316
G1 X23.546 Y17.056 E72.28219
G1 X25.064 Y16.791 E72.32808
G1 X28.659 Y17.315 E72.43629
G1 X32.251 Y16.768 E72.54450
G1 X33.773 Y17.021 E72.59045
G1 X36.797 Y14.414 E72.70937
G1 X37.482 Y13.992 E72.73333
G1 X38.557 Y13.092 E72.77509
G1 X38.640 Y13.179 E72.77867
G1 X38.760 Y13.881 E72.79988
G1 X39.510 Y13.864 E72.82222
G1 X39.714 Y14.089 E72.83127
G1 X39.827 Y14.739 E72.85092
G0 F10500 X39.172 Y14.921
;TYPE:SKIN
G1 F1380 X27.248 Y26.845 E73.35316
G0 F10500 X27.705 Y27.095
G1 F1380 X39.397 Y15.402 E73.84565
G0 F10500 X39.218 Y16.289
G1 F1380 X28.162 Y27.345 E74.31132
G0 F10500 X29.324 Y27.597
G1 F1380 X27.292 Y29.629 E74.39691
G0 F10500 X27.355 Y30.273
G1 F1380 X29.684 Y27.944 E74.49501
G0 F10500 X30.043 Y28.292
G1 F1380 X27.419 Y30.916 E74.60553
G0 F10500 X27.482 Y31.561
G1 F1380 X30.184 Y28.859 E74.71934
G0 F10500 X30.113 Y29.636
G1 F1380 X27.546 Y32.204 E74.82749
G0 F10500 X27.608 Y32.848
G1 F1380 X30.042 Y30.414 E74.93001
G0 F10500 X29.972 Y31.191
G1 F1380 X27.671 Y33.492 E75.02692
G0 F10500 X27.735 Y34.136
G1 F1380 X29.902 Y31.969 E75.11820
G0 F10500 X29.831 Y32.747
G1 F1380 X27.798 Y34.780 E75.20383
G0 F10500 X27.862 Y35.423
G1 F1380 X29.760 Y33.525 E75.28377
G0 F10500 X29.689 Y34.303
G1 F1380 X27.925 Y36.068 E75.35809
G0 F10500 X27.988 Y36.711
G1 F1380 X29.619 Y35.080 E75.42679
G0 F10500 X29.549 Y35.858
G1 F1380 X28.051 Y37.355 E75.48987
G0 F10500 X28.114 Y37.999
G1 F1380 X29.478 Y36.635 E75.54732
G0 F10500 X29.407 Y37.413
G1 F1380 X28.178 Y38.643 E75.59910
G0 F10500 X28.241 Y39.287
G1 F1380 X29.337 Y38.190 E75.64529
G0 F10500 X29.267 Y38.968
G1 F1380 X28.304 Y39.931 E75.68585
G0 F10500 X28.367 Y40.575
G1 F1380 X29.196 Y39.746 E75.72077
G0 F10500 X27.229 Y28.985
G1 F1380 X38.325 Y17.889 E76.18813
G0 F10500 X37.344 Y19.577
G1 F1380 X30.040 Y26.881 E76.49578
G0 F10500 X31.676 Y25.952
G1 F1380 X36.362 Y21.266 E76.69315
G0 F10500 X35.476 Y22.859
G1 F1380 X33.312 Y25.023 E76.78430
G0 F10500 X34.948 Y24.095
G1 F1380 X35.314 Y23.729 E76.79971
G0 F10500 X33.591 Y17.674
G1 F1380 X25.426 Y25.838 E77.14360
G0 F10500 X24.975 Y25.583
G1 F1380 X32.984 Y17.573 E77.48096
G0 F10500 X32.377 Y17.473
G1 F1380 X24.523 Y25.327 E77.81178
G0 F10500 X24.070 Y25.073
G1 F1380 X31.593 Y17.550 E78.12865
G0 F10500 X30.759 Y17.676
G1 F1380 X23.618 Y24.818 E78.42945
G0 F10500 X23.166 Y24.562
G1 F1380 X29.925 Y17.804 E78.71411
G0 F10500 X29.091 Y17.931
G1 F1380 X22.715 Y24.307 E78.98267
G0 F10500 X22.262 Y24.052
G1 F1380 X28.362 Y17.953 E79.23958
G0 F10500 X27.744 Y17.863
G1 F1380 X22.015 Y23.593 E79.48091
G0 F10500 X21.899 Y23.001
G1 F1380 X27.128 Y17.773 E79.70113
G0 F10500 X26.510 Y17.683
G1 F1380 X21.686 Y22.507 E79.90432
G0 F10500 X21.423 Y22.063
G1 F1380 X25.893 Y17.593 E80.09260
G0 F10500 X25.276 Y17.503
G1 F1380 X21.160 Y21.619 E80.26596
G0 F10500 X20.897 Y21.175
G1 F1380 X24.498 Y17.574 E80.41764
G0 F10500 X23.641 Y17.724
G1 F1380 X20.634 Y20.730 E80.54427
G0 F10500 X20.372 Y20.286
G1 F1380 X23.097 Y17.560 E80.65907
G0 F10500 X22.715 Y17.236
G1 F1380 X20.109 Y19.842 E80.76884
G0 F10500 X19.846 Y19.398
G1 F1380 X22.332 Y16.911 E80.87357
G0 F10500 X21.950 Y16.587
G1 F1380 X19.583 Y18.953 E80.97324
G0 F10500 X19.320 Y18.509
G1 F1380 X21.567 Y16.262 E81.06789
G0 F10500 X21.184 Y15.938
G1 F1380 X19.057 Y18.065 E81.15748
G0 F10500 X18.794 Y17.621
G1 F1380 X20.802 Y15.613 E81.24205
G0 F10500 X20.419 Y15.289
G1 F1380 X18.531 Y17.177 E81.32158
G0 F10500 X18.272 Y16.729
G1 F1380 X20.026 Y14.975 E81.39546
G0 F10500 X25.878 Y26.093
G1 F1380 X35.860 Y16.111 E81.81590
G0 F10500 X38.179 Y14.499
G1 F1380 X26.334 Y26.345 E82.31483
G0 F10500 X26.790 Y26.595
G1 F1380 X38.831 Y14.555 E82.82198
G0 F10500 X33.900 Y17.479
G0 X28.660 Y17.768
G0 X23.421 Y17.516
G0 X19.585 Y14.709
G1 F1380 X18.036 Y16.257 E82.88720
G0 F10500 X17.800 Y15.786
G1 F1380 X18.952 Y14.634 E82.93572
G0 F10500 X18.255 Y14.625
G1 F1380 X18.176 Y14.703 E82.93903
G0 F10500 X27.760 Y27.475
G0 X29.125 Y40.524
G1 F1380 X28.743 Y41.259 E82.96824
G1 X28.739 Y41.970 E82.99183
G1 X28.705 Y42.358 E83.00343
G1 F600 E81.50343
G1 Z0.905
G0 F10500 X55.708 Y23.097
;TYPE:WALL-INNER
G1 Z0.805
G1 F600 E83.00343
G1 F1140 X55.473 Y21.897 E83.03985
G1 X51.933 Y15.910 E83.24700
G1 X51.411 Y14.870 E83.28166
G1 X51.109 Y14.356 E83.29941
G1 X51.681 Y14.336 E83.31646
G1 X51.821 Y13.478 E83.34235
G1 X52.735 Y13.491 E83.36958
G1 X52.803 Y13.084 E83.38187
G1 X53.304 Y13.497 E83.40121
G1 X53.987 Y13.911 E83.42499
G1 X57.180 Y16.620 E83.54971
G1 X58.851 Y16.328 E83.60023
G1 X62.440 Y16.851 E83.70825
G1 X66.026 Y16.304 E83.81629
G1 X67.701 Y16.582 E83.86686
G1 X70.874 Y13.847 E83.99162
G1 X71.553 Y13.429 E84.01537
G1 X72.050 Y13.013 E84.03467
G1 X72.121 Y13.422 E84.04704
G1 X73.034 Y13.401 E84.07424
G1 X73.183 Y14.257 E84.10011
G1 X73.755 Y14.273 E84.11716
G1 X73.456 Y14.790 E84.13494
G1 X72.934 Y15.843 E84.16995
G1 X69.443 Y21.848 E84.37682
G1 X69.220 Y23.048 E84.41318
G1 X65.190 Y25.357 E84.55151
G1 X63.195 Y26.471 E84.61956
G1 X64.183 Y27.426 E84.66049
G1 X62.899 Y41.556 E85.08306
G1 X62.522 Y41.564 E85.09429
G1 X62.163 Y41.561 E85.10498
G1 X60.776 Y27.440 E85.52758
G1 X61.758 Y26.475 E85.56858
G1 X59.751 Y25.378 E85.63671
G1 X55.708 Y23.097 E85.77496
G0 F10500 X54.999 Y22.078
;TYPE:WALL-OUTER
G1 F1080 X51.493 Y16.149 E85.98011
G1 X50.972 Y15.109 E86.01476
G1 X50.357 Y14.064 E86.05087
G1 X50.512 Y13.877 E86.05810
G1 X51.254 Y13.851 E86.08022
G1 X51.360 Y13.199 E86.09989
G1 X51.563 Y12.975 E86.10889
G1 X52.312 Y12.985 E86.13120
G1 X52.430 Y12.281 E86.15246
G1 X52.511 Y12.195 E86.15598
G1 X53.594 Y13.088 E86.19779
G1 X54.276 Y13.502 E86.22155
G1 X57.325 Y16.087 E86.34060
G1 X58.843 Y15.822 E86.38650
G1 X62.438 Y16.346 E86.49470
G1 X66.030 Y15.798 E86.60292
G1 X67.552 Y16.051 E86.64887
G1 X70.576 Y13.444 E86.76779
G1 X71.260 Y13.022 E86.79172
G1 X72.336 Y12.123 E86.83348
G1 X72.419 Y12.210 E86.83707
G1 X72.540 Y12.912 E86.85828
G1 X73.290 Y12.895 E86.88063
G1 X73.493 Y13.119 E86.88963
G1 X73.606 Y13.768 E86.90925
G1 X74.347 Y13.789 E86.93133
G1 X74.503 Y13.977 E86.93860
G1 X73.897 Y15.026 E86.97469
G1 X73.377 Y16.075 E87.00956
G1 X69.919 Y22.025 E87.21452
G1 X69.669 Y23.368 E87.25521
G1 X65.434 Y25.794 E87.40057
G1 X64.026 Y26.580 E87.44860
G1 X64.702 Y27.234 E87.47661
G1 X63.356 Y42.047 E87.91961
G1 X62.530 Y42.064 E87.94422
G1 X61.709 Y42.054 E87.96867
G1 X60.256 Y27.250 E88.41170
G1 X60.927 Y26.591 E88.43971
G1 X59.514 Y25.818 E88.48768
G1 X55.261 Y23.418 E88.63313
G1 X54.999 Y22.078 E88.67379
G0 F10500 X55.621 Y21.806
;TYPE:SKIN
G1 F1380 X60.659 Y16.768 E88.88599
G0 F10500 X60.043 Y16.677
G1 F1380 X55.359 Y21.361 E89.08328
G0 F10500 X55.096 Y20.917
G1 F1380 X59.425 Y16.588 E89.26562
G0 F10500 X58.791 Y16.515
G1 F1380 X54.834 Y20.472 E89.43229
G0 F10500 X54.570 Y20.028
G1 F1380 X57.935 Y16.664 E89.57400
G0 F10500 X57.106 Y16.786
G1 F1380 X54.307 Y19.584 E89.69188
G0 F10500 X54.045 Y19.139
G1 F1380 X56.724 Y16.461 E89.80470
G0 F10500 X56.341 Y16.136
G1 F1380 X53.782 Y18.695 E89.91248
G0 F10500 X53.520 Y18.251
G1 F1380 X55.959 Y15.812 E90.01521
G0 F10500 X55.575 Y15.488
G1 F1380 X53.257 Y17.807 E90.11287
G0 F10500 X52.994 Y17.363
G1 F1380 X55.193 Y15.163 E90.20551
G0 F10500 X54.810 Y14.839
G1 F1380 X52.731 Y16.918 E90.29308
G0 F10500 X52.468 Y16.474
G1 F1380 X54.428 Y14.514 E90.37563
G0 F10500 X54.045 Y14.190
G1 F1380 X52.206 Y16.029 E90.45309
G0 F10500 X51.957 Y15.571
G1 F1380 X53.629 Y13.898 E90.52354
G0 F10500 X53.190 Y13.630
G1 F1380 X51.722 Y15.099 E90.58539
G0 F10500 X51.478 Y14.636
G1 F1380 X51.737 Y14.376 E90.59055
G1 X52.453 Y13.661 E90.62069
G0 F10500 X55.746 Y22.388
G1 F1380 X61.277 Y16.858 E90.85363
G0 F10500 X61.893 Y16.948
G1 F1380 X55.863 Y22.978 E91.10762
G0 F10500 X56.312 Y23.236
G1 F1380 X62.535 Y17.013 E91.36973
G0 F10500 X63.370 Y16.886
G1 F1380 X56.764 Y23.492 E91.64797
G0 F10500 X57.216 Y23.747
G1 F1380 X64.205 Y16.758 E91.94235
G0 F10500 X65.039 Y16.631
G1 F1380 X57.668 Y24.002 E92.25282
G0 F10500 X58.120 Y24.257
G1 F1380 X65.874 Y16.503 E92.57942
G0 F10500 X66.521 Y16.563
G1 F1380 X58.572 Y24.512 E92.91423
G0 F10500 X59.024 Y24.767
G1 F1380 X67.127 Y16.664 E93.25553
G0 F10500 X67.734 Y16.764
G1 F1380 X59.476 Y25.023 E93.60338
G0 F10500 X59.929 Y25.276
G1 F1380 X71.605 Y13.601 E94.09515
G0 F10500 X72.320 Y13.592
G1 F1380 X60.386 Y25.526 E94.59781
G0 F10500 X60.843 Y25.776
G1 F1380 X72.910 Y13.710 E95.10605
G0 F10500 X73.015 Y14.312
G1 F1380 X61.301 Y26.026 E95.59945
G0 F10500 X61.758 Y26.276
G1 F1380 X73.276 Y14.758 E96.08459
G0 F10500 X72.498 Y16.243
G1 F1380 X60.983 Y27.758 E96.56960
G0 F10500 X61.046 Y28.402
G1 F1380 X62.960 Y26.488 E96.65022
G0 F10500 X63.164 Y26.284
G1 F1380 X71.516 Y17.932 E97.00200
G0 F10500 X70.534 Y19.621
G1 F1380 X64.799 Y25.356 E97.24356
G0 F10500 X66.434 Y24.428
G1 F1380 X69.552 Y21.310 E97.37489
G0 F10500 X69.159 Y22.411
G1 F1380 X68.070 Y23.499 E97.42074
G0 F10500 X63.413 Y26.501
G0 X63.679 Y27.183
G1 F1380 X61.173 Y29.689 E97.52629
G0 F10500 X61.109 Y29.046
G1 F1380 X63.319 Y26.836 E97.61938
G0 F10500 X63.992 Y27.577
G1 F1380 X61.236 Y30.334 E97.73548
G0 F10500 X61.299 Y30.977
G1 F1380 X63.921 Y28.355 E97.84592
G0 F10500 X63.851 Y29.133
G1 F1380 X61.362 Y31.621 E97.95074
G0 F10500 X61.426 Y32.265
G1 F1380 X63.780 Y29.911 E98.04989
G0 F10500 X63.709 Y30.689
G1 F1380 X61.489 Y32.909 E98.14339
G0 F10500 X61.552 Y33.553
G1 F1380 X63.638 Y31.466 E98.23128
G0 F10500 X63.568 Y32.244
G1 F1380 X61.615 Y34.197 E98.31354
G0 F10500 X61.678 Y34.841
G1 F1380 X63.497 Y33.022 E98.39015
G0 F10500 X63.426 Y33.800
G1 F1380 X61.742 Y35.484 E98.46108
G0 F10500 X61.805 Y36.128
G1 F1380 X63.356 Y34.578 E98.52639
G0 F10500 X63.285 Y35.356
G1 F1380 X61.869 Y36.772 E98.58603
G0 F10500 X61.931 Y37.416
G1 F1380 X63.214 Y36.133 E98.64007
G0 F10500 X63.143 Y36.911
G1 F1380 X61.994 Y38.060 E98.68847
G0 F10500 X62.058 Y38.704
G1 F1380 X63.073 Y37.689 E98.73122
G0 F10500 X63.002 Y38.467
G1 F1380 X62.121 Y39.348 E98.76833
G0 F10500 X62.185 Y39.991
G1 F1380 X62.932 Y39.244 E98.79979
G0 F10500 X62.861 Y40.022
G1 F1380 X62.519 Y40.718 E98.82561
G1 X62.311 Y41.279 E98.84343
G1 F600 E97.34343
G1 Z0.905
G0 F10500 X91.420 Y24.298
;TYPE:WALL-INNER
G1 Z0.805
G1 F600 E98.84343
G1 F1140 X91.185 Y23.098 E98.87985
G1 X87.644 Y17.111 E99.08702
G1 X87.122 Y16.071 E99.12168
G1 X86.820 Y15.557 E99.13943
G1 X87.393 Y15.537 E99.15651
G1 X87.533 Y14.679 E99.18240
G1 X88.447 Y14.692 E99.20963
G1 X88.514 Y14.286 E99.22188
G1 X89.015 Y14.699 E99.24122
G1 X89.700 Y15.113 E99.26506
G1 X92.892 Y17.821 E99.38973
G1 X94.563 Y17.529 E99.44025
G1 X98.151 Y18.052 E99.54824
G1 X101.738 Y17.506 E99.65631
G1 X103.413 Y17.784 E99.70688
G1 X106.586 Y15.050 E99.83162
G1 X107.266 Y14.631 E99.85541
G1 X107.761 Y14.216 E99.87465
G1 X107.831 Y14.623 E99.88695
G1 X108.745 Y14.602 E99.91418
G1 X108.894 Y15.460 E99.94011
G1 X109.465 Y15.475 E99.95713
G1 X109.166 Y15.991 E99.97489
G1 X108.649 Y17.039 E100.00969
G1 X105.154 Y23.049 E100.21676
G1 X104.931 Y24.249 E100.25311
G1 X100.901 Y26.559 E100.39146
G1 X98.906 Y27.673 E100.45951
G1 X99.894 Y28.628 E100.50043
G1 X98.611 Y42.758 E100.92300
G1 X98.234 Y42.766 E100.93424
G1 X97.874 Y42.763 E100.94496
G1 X96.487 Y28.641 E101.36758
G1 X97.469 Y27.676 E101.40859
G1 X95.462 Y26.579 E101.47671
G1 X91.420 Y24.298 E101.61494
G0 F10500 X90.711 Y23.279
;TYPE:WALL-OUTER
G1 F1080 X87.204 Y17.350 E101.82010
G1 X86.683 Y16.310 E101.85475
G1 X86.069 Y15.264 E101.89087
G1 X86.224 Y15.078 E101.89808
G1 X86.966 Y15.052 E101.92020
G1 X87.072 Y14.400 E101.93987
G1 X87.275 Y14.176 E101.94887
G1 X88.024 Y14.186 E101.97118
G1 X88.142 Y13.482 E101.99244
G1 X88.222 Y13.397 E101.99592
G1 X89.305 Y14.290 E102.03773
G1 X89.989 Y14.703 E102.06152
G1 X93.037 Y17.288 E102.18056
G1 X94.555 Y17.023 E102.22645
G1 X98.150 Y17.547 E102.33465
G1 X101.742 Y17.000 E102.44287
G1 X103.264 Y17.253 E102.48882
G1 X106.288 Y14.646 E102.60773
G1 X106.973 Y14.224 E102.63170
G1 X108.048 Y13.324 E102.67345
G1 X108.131 Y13.411 E102.67703
G1 X108.251 Y14.113 E102.69825
G1 X109.001 Y14.096 E102.72059
G1 X109.204 Y14.320 E102.72959
G1 X109.317 Y14.971 E102.74927
G1 X110.058 Y14.990 E102.77135
G1 X110.214 Y15.177 E102.77860
G1 X109.607 Y16.227 E102.81472
G1 X109.089 Y17.277 E102.84959
G1 X105.630 Y23.226 E103.05455
G1 X105.380 Y24.569 E103.09524
G1 X101.145 Y26.996 E103.24061
G1 X99.737 Y27.782 E103.28864
G1 X100.413 Y28.436 E103.31665
G1 X99.068 Y43.249 E103.75965
G1 X98.242 Y43.266 E103.78426
G1 X97.420 Y43.256 E103.80874
G1 X95.967 Y28.451 E104.25180
G1 X96.638 Y27.792 E104.27981
G1 X95.225 Y27.019 E104.32778
G1 X90.973 Y24.619 E104.47320
G1 X90.711 Y23.279 E104.51387
G0 F10500 X91.281 Y22.916
;TYPE:SKIN
G1 F1380 X96.247 Y17.950 E104.72303
G0 F10500 X96.864 Y18.040
G1 F1380 X91.435 Y23.468 E104.95168
G0 F10500 X91.551 Y24.060
G1 F1380 X97.481 Y18.130 E105.20145
G0 F10500 X98.098 Y18.220
G1 F1380 X91.933 Y24.385 E105.46112
G0 F10500 X92.384 Y24.641
G1 F1380 X98.914 Y18.111 E105.73617
G0 F10500 X99.748 Y17.985
G1 F1380 X92.836 Y24.896 E106.02728
G0 F10500 X93.288 Y25.151
G1 F1380 X100.582 Y17.857 E106.33451
G0 F10500 X101.416 Y17.730
G1 F1380 X93.740 Y25.407 E106.65784
G0 F10500 X94.192 Y25.662
G1 F1380 X102.110 Y17.744 E106.99135
G0 F10500 X102.716 Y17.845
G1 F1380 X94.644 Y25.917 E107.33134
G0 F10500 X95.095 Y26.172
G1 F1380 X103.323 Y17.945 E107.67788
G0 F10500 X107.425 Y18.792
G1 F1380 X96.744 Y29.473 E108.12777
G0 F10500 X96.682 Y28.829
G1 F1380 X108.407 Y17.104 E108.62162
G0 F10500 X109.163 Y15.641
G1 F1380 X97.377 Y27.427 E109.11805
G0 F10500 X96.920 Y27.176
G1 F1380 X108.704 Y15.393 E109.61437
G0 F10500 X108.599 Y14.790
G1 F1380 X96.462 Y26.927 E110.12558
G0 F10500 X96.005 Y26.677
G1 F1380 X107.886 Y14.796 E110.62601
G0 F10500 X106.937 Y15.038
G1 F1380 X95.548 Y26.427 E111.10572
G0 F10500 X98.958 Y27.967
G1 F1380 X96.807 Y30.117 E111.19630
G0 F10500 X96.871 Y30.761
G1 F1380 X99.317 Y28.315 E111.29932
G0 F10500 X99.677 Y28.662
G1 F1380 X96.934 Y31.405 E111.41486
G0 F10500 X96.998 Y32.048
G1 F1380 X99.646 Y29.400 E111.52639
G0 F10500 X99.576 Y30.177
G1 F1380 X97.061 Y32.693 E111.63235
G0 F10500 X97.123 Y33.337
G1 F1380 X99.505 Y30.955 E111.73268
G0 F10500 X99.435 Y31.732
G1 F1380 X97.187 Y33.980 E111.82736
G0 F10500 X97.250 Y34.624
G1 F1380 X99.364 Y32.510 E111.91640
G0 F10500 X99.294 Y33.288
G1 F1380 X97.313 Y35.269 E111.99984
G0 F10500 X97.377 Y35.912
G1 F1380 X99.223 Y34.066 E112.07760
G0 F10500 X99.152 Y34.844
G1 F1380 X97.440 Y36.556 E112.14971
G0 F10500 X97.503 Y37.200
G1 F1380 X99.081 Y35.621 E112.21619
G0 F10500 X99.011 Y36.399
G1 F1380 X97.566 Y37.844 E112.27706
G0 F10500 X97.629 Y38.488
G1 F1380 X98.940 Y37.177 E112.33228
G0 F10500 X98.869 Y37.955
G1 F1380 X97.693 Y39.131 E112.38181
G0 F10500 X97.756 Y39.776
G1 F1380 X98.799 Y38.732 E112.42576
G0 F10500 X98.729 Y39.510
G1 F1380 X97.819 Y40.420 E112.46409
G0 F10500 X97.882 Y41.063
G1 F1380 X98.658 Y40.288 E112.49675
G0 F10500 X98.587 Y41.065
G1 F1380 X98.230 Y41.775 E112.52378
G1 X98.009 Y42.351 E112.54216
G0 F10500 X99.124 Y27.703
G0 X100.180 Y26.745
G1 F1380 X106.443 Y20.482 E112.80596
G0 F10500 X105.462 Y22.170
G1 F1380 X101.816 Y25.816 E112.95953
G0 F10500 X103.452 Y24.887
G1 F1380 X104.902 Y23.437 E113.02060
G0 F10500 X95.629 Y17.860
G1 F1380 X91.018 Y22.472 E113.21484
G0 F10500 X90.755 Y22.028
G1 F1380 X95.012 Y17.771 E113.39414
G0 F10500 X94.329 Y17.746
G1 F1380 X90.492 Y21.583 E113.55576
G0 F10500 X90.229 Y21.139
G1 F1380 X93.472 Y17.896 E113.69235
G0 F10500 X92.741 Y17.920
G1 F1380 X89.966 Y20.695 E113.80924
G0 F10500 X89.704 Y20.250
G1 F1380 X92.358 Y17.596 E113.92102
G0 F10500 X91.975 Y17.272
G1 F1380 X89.441 Y19.806 E114.02775
G0 F10500 X89.178 Y19.361
G1 F1380 X91.592 Y16.947 E114.12943
G0 F10500 X91.210 Y16.623
G1 F1380 X88.915 Y18.917 E114.22608
G0 F10500 X88.652 Y18.473
G1 F1380 X90.827 Y16.298 E114.31769
G0 F10500 X90.445 Y15.974
G1 F1380 X88.390 Y18.029 E114.40425
G0 F10500 X88.127 Y17.585
G1 F1380 X90.062 Y15.649 E114.48577
G0 F10500 X89.680 Y15.325
G1 F1380 X87.864 Y17.140 E114.56224
G0 F10500 X87.621 Y16.677
G1 F1380 X89.251 Y15.046 E114.63091
G0 F10500 X88.823 Y14.767
G1 F1380 X87.384 Y16.206 E114.69152
G0 F10500 X87.613 Y15.270
G1 F1380 X88.023 Y14.860 E114.70879
;LAYER:2
G1 F600 E113.20879
G1 Z0.905
G0 F10500 X39.812 Y15.334 Z1.185
;TYPE:WALL-INNER
G1 Z1.185
G1 F600 E114.70879
G1 F1440 X39.021 Y16.942 E114.76217
G1 X35.993 Y22.146 E114.94149
G1 X35.607 Y24.221 E115.00435
G1 X31.832 Y26.385 E115.13394
G1 X29.156 Y27.878 E115.22521
G1 X30.465 Y29.146 E115.27949
G1 X29.228 Y42.765 E115.68678
G1 X28.747 Y42.773 E115.70111
G1 X28.277 Y42.770 E115.71510
G1 X26.939 Y29.158 E116.12247
G1 X28.241 Y27.881 E116.17679
G1 X25.543 Y26.404 E116.26839
G1 X21.763 Y24.271 E116.39766
G1 X21.359 Y22.199 E116.46054
G1 X18.292 Y17.011 E116.64003
G1 X17.490 Y15.419 E116.69312
G1 X18.061 Y15.395 E116.71015
G1 X18.161 Y14.773 E116.72891
G1 X18.315 Y14.602 E116.73576
G1 X18.971 Y14.611 E116.75530
G1 X19.044 Y14.166 E116.76873
G1 X19.177 Y14.276 E116.77387
G1 X20.287 Y14.947 E116.81250
G1 X23.073 Y17.311 E116.92133
G1 X25.635 Y16.863 E116.99879
G1 X28.658 Y17.304 E117.08978
G1 X31.681 Y16.844 E117.18085
G1 X34.246 Y17.272 E117.25830
G1 X37.017 Y14.884 E117.36725
G1 X38.120 Y14.205 E117.40582
G1 X38.252 Y14.095 E117.41094
G1 X38.328 Y14.541 E117.42442
G1 X38.983 Y14.526 E117.44393
G1 X39.140 Y14.698 E117.45087
G1 X39.249 Y15.320 E117.46967
G1 X39.812 Y15.334 E117.48645
G0 F10500 X39.671 Y14.830
;TYPE:WALL-OUTER
G1 F1320 X40.049 Y14.839 E117.49771
G1 X40.418 Y15.278 E117.51479
G1 X39.461 Y17.180 E117.57820
G1 X36.469 Y22.323 E117.75541
G1 X36.056 Y24.541 E117.82261
G1 X32.083 Y26.818 E117.95899
G1 X29.987 Y27.987 E118.03047
G1 X30.985 Y28.953 E118.07184
G1 X29.685 Y43.255 E118.49956
G1 X28.752 Y43.273 E118.52735
G1 X27.823 Y43.262 E118.55502
G1 X26.419 Y28.968 E118.98279
G1 X27.410 Y27.996 E119.02414
G1 X25.306 Y26.844 E119.09558
G1 X21.316 Y24.592 E119.23204
G1 X20.885 Y22.379 E119.29919
G1 X17.852 Y17.251 E119.47663
G1 X17.004 Y15.564 E119.53287
G1 X16.886 Y15.362 E119.53983
G1 X17.251 Y14.923 E119.55684
G1 X17.632 Y14.910 E119.56819
G1 X17.690 Y14.548 E119.57911
G1 X18.096 Y14.099 E119.59714
G1 X18.547 Y14.105 E119.61057
G1 X18.619 Y13.663 E119.62391
G1 X18.882 Y13.385 E119.63531
G1 X19.467 Y13.867 E119.65788
G1 X20.576 Y14.537 E119.69647
G1 X23.218 Y16.778 E119.79966
G1 X25.627 Y16.357 E119.87249
G1 X28.657 Y16.799 E119.96369
G1 X31.685 Y16.338 E120.05491
G1 X34.097 Y16.740 E120.12774
G1 X36.719 Y14.480 E120.23084
G1 X37.827 Y13.798 E120.26959
G1 X38.407 Y13.313 E120.29211
G1 X38.673 Y13.591 E120.30357
G1 X38.748 Y14.031 E120.31686
G1 X39.199 Y14.021 E120.33030
G1 X39.608 Y14.470 E120.34838
G1 X39.671 Y14.830 E120.35927
G0 F10500 X39.083 Y15.395
;TYPE:SKIN
G1 F1920 X38.402 Y14.714 E120.38795
G0 F10500 X37.668 Y14.688
G1 F1920 X39.187 Y16.206 E120.45191
G0 F10500 X39.421 Y15.733
G1 F1920 X39.181 Y15.493 E120.46202
G0 F10500 X38.954 Y16.680
G1 F1920 X37.231 Y14.957 E120.53459
G0 F10500 X36.836 Y15.269
G1 F1920 X38.704 Y17.137 E120.61327
G0 F10500 X38.443 Y17.584
G1 F1920 X36.457 Y15.597 E120.69695
G0 F10500 X36.077 Y15.924
G1 F1920 X38.184 Y18.031 E120.78569
G0 F10500 X37.924 Y18.478
G1 F1920 X35.696 Y16.251 E120.87952
G0 F10500 X35.317 Y16.578
G1 F1920 X37.664 Y18.925 E120.97837
G0 F10500 X37.403 Y19.372
G1 F1920 X34.937 Y16.906 E121.08224
G0 F10500 X34.557 Y17.233
G1 F1920 X37.144 Y19.820 E121.19120
G0 F10500 X36.884 Y20.267
G1 F1920 X34.031 Y17.414 E121.31137
G0 F10500 X33.183 Y17.273
G1 F1920 X36.623 Y20.713 E121.45627
G0 F10500 X36.363 Y21.160
G1 F1920 X32.333 Y17.131 E121.62599
G0 F10500 X31.539 Y17.043
G1 F1920 X36.104 Y21.608 E121.81827
G0 F10500 X35.843 Y22.055
G1 F1920 X30.924 Y17.136 E122.02546
G0 F10500 X30.310 Y17.229
G1 F1920 X35.723 Y22.641 E122.25343
G0 F10500 X35.611 Y23.236
G1 F1920 X29.697 Y17.322 E122.50253
G0 F10500 X29.083 Y17.416
G1 F1920 X35.500 Y23.833 E122.77281
G0 F10500 X35.206 Y24.246
G1 F1920 X28.403 Y17.443 E123.05936
G0 F10500 X27.575 Y17.322
G1 F1920 X34.755 Y24.501 E123.36176
G0 F10500 X34.303 Y24.757
G1 F1920 X26.748 Y17.202 E123.67997
G0 F10500 X25.920 Y17.081
G1 F1920 X33.852 Y25.013 E124.01407
G0 F10500 X33.400 Y25.269
G1 F1920 X25.240 Y17.109 E124.35777
G0 F10500 X24.639 Y17.214
G1 F1920 X32.949 Y25.524 E124.70779
G0 F10500 X32.497 Y25.780
G1 F1920 X24.037 Y17.319 E125.06414
G0 F10500 X23.434 Y17.424
G1 F1920 X32.046 Y26.036 E125.42688
G0 F10500 X31.594 Y26.291
G1 F1920 X21.560 Y16.257 E125.84951
G0 F10500 X20.128 Y19.774
G1 F1920 X27.769 Y27.415 E126.17135
G0 F10500 X28.362 Y28.008
G1 F1920 X30.222 Y29.868 E126.24970
G0 F10500 X30.281 Y29.221
G1 F1920 X30.053 Y28.992 E126.25932
G0 F10500 X30.163 Y30.517
G1 F1920 X28.004 Y28.358 E126.35026
G0 F10500 X27.647 Y28.708
G1 F1920 X30.105 Y31.165 E126.45377
G0 F10500 X30.046 Y31.814
G1 F1920 X27.290 Y29.058 E126.56985
G0 F10500 X27.162 Y29.636
G1 F1920 X29.987 Y32.462 E126.68886
G0 F10500 X29.928 Y33.110
G1 F1920 X27.239 Y30.421 E126.80212
G0 F10500 X27.316 Y31.205
G1 F1920 X29.869 Y33.758 E126.90966
G0 F10500 X29.810 Y34.407
G1 F1920 X27.393 Y31.989 E127.01148
G0 F10500 X27.470 Y32.773
G1 F1920 X29.752 Y35.055 E127.10760
G0 F10500 X29.693 Y35.703
G1 F1920 X27.547 Y33.557 E127.19799
G0 F10500 X27.624 Y34.342
G1 F1920 X29.634 Y36.351 E127.28263
G0 F10500 X29.575 Y37.000
G1 F1920 X27.701 Y35.126 E127.36156
G0 F10500 X27.778 Y35.910
G1 F1920 X29.516 Y37.648 E127.43477
G0 F10500 X29.458 Y38.296
G1 F1920 X27.855 Y36.694 E127.50226
G0 F10500 X27.932 Y37.478
G1 F1920 X29.399 Y38.945 E127.56405
G0 F10500 X29.339 Y39.593
G1 F1920 X28.009 Y38.262 E127.62009
G0 F10500 X28.086 Y39.047
G1 F1920 X29.281 Y40.241 E127.67041
G0 F10500 X29.222 Y40.889
G1 F1920 X28.164 Y39.831 E127.71497
G0 F10500 X28.886 Y27.826
G1 F1920 X19.105 Y18.044 E128.12697
G0 F10500 X18.189 Y16.421
G1 F1920 X29.337 Y27.570 E128.59654
G0 F10500 X29.789 Y27.314
G1 F1920 X18.046 Y15.571 E129.09116
G0 F10500 X18.284 Y15.102
G1 F1920 X30.240 Y27.058 E129.59475
G0 F10500 X30.691 Y26.802
G1 F1920 X18.671 Y14.782 E130.10103
G0 F10500 X19.156 Y14.560
G1 F1920 X31.143 Y26.547 E130.60592
G0 F10500 X26.173 Y26.527
G1 F1920 X21.151 Y21.505 E130.81745
G0 F10500 X21.633 Y22.693
G1 F1920 X24.577 Y25.638 E130.94147
G0 F10500 X22.981 Y24.749
G1 F1920 X21.804 Y23.572 E130.99105
G0 F10500 X28.023 Y27.912
G0 X28.241 Y40.616
G1 F1920 X29.163 Y41.538 E131.02988
G0 F10500 X29.105 Y42.186
G1 F1920 X28.318 Y41.400 E131.06301
G0 F10500 X28.395 Y42.184
G1 F1920 X28.807 Y42.596 E131.08036
G1 F600 E129.58036
G1 Z1.285
G0 F10500 X55.542 Y23.302
;TYPE:WALL-INNER
G1 Z1.185
G1 F600 E131.08036
G1 F1440 X55.138 Y21.230 E131.14324
G1 X52.071 Y16.043 E131.32271
G1 X51.270 Y14.449 E131.37584
G1 X51.840 Y14.426 E131.39283
G1 X51.940 Y13.803 E131.41162
G1 X52.094 Y13.632 E131.41848
G1 X52.750 Y13.641 E131.43802
G1 X52.823 Y13.196 E131.45145
G1 X52.957 Y13.307 E131.45663
G1 X54.066 Y13.977 E131.49522
G1 X56.852 Y16.341 E131.60404
G1 X59.414 Y15.894 E131.68150
G1 X62.439 Y16.334 E131.77254
G1 X65.460 Y15.874 E131.86355
G1 X68.025 Y16.302 E131.94101
G1 X70.796 Y13.914 E132.04995
G1 X71.899 Y13.235 E132.08853
G1 X72.032 Y13.124 E132.09369
G1 X72.108 Y13.572 E132.10722
G1 X72.762 Y13.557 E132.12671
G1 X72.920 Y13.730 E132.13368
G1 X73.028 Y14.351 E132.15246
G1 X73.592 Y14.365 E132.16926
G1 X72.800 Y15.972 E132.22262
G1 X69.773 Y21.177 E132.40195
G1 X69.388 Y23.252 E132.46481
G1 X65.612 Y25.415 E132.59441
G1 X62.935 Y26.908 E132.68570
G1 X64.244 Y28.176 E132.73998
G1 X63.007 Y41.795 E133.14727
G1 X62.526 Y41.803 E133.16160
G1 X62.057 Y41.800 E133.17557
G1 X60.719 Y28.189 E133.58290
G1 X62.022 Y26.909 E133.63730
G1 X60.801 Y26.245 E133.67870
G1 X59.323 Y25.435 E133.72890
G1 X55.542 Y23.302 E133.85819
G0 F10500 X55.008 Y21.344
G0 X54.664 Y21.410
;TYPE:WALL-OUTER
G1 F1320 X51.631 Y16.282 E134.03563
G1 X50.784 Y14.595 E134.09186
G1 X50.666 Y14.393 E134.09882
G1 X51.030 Y13.954 E134.11581
G1 X51.411 Y13.941 E134.12716
G1 X51.469 Y13.579 E134.13808
G1 X51.875 Y13.129 E134.15613
G1 X52.326 Y13.135 E134.16957
G1 X52.399 Y12.692 E134.18294
G1 X52.662 Y12.415 E134.19431
G1 X53.247 Y12.898 E134.21691
G1 X54.355 Y13.567 E134.25546
G1 X56.997 Y15.808 E134.35864
G1 X59.406 Y15.388 E134.43147
G1 X62.437 Y15.829 E134.52269
G1 X65.464 Y15.368 E134.61389
G1 X67.876 Y15.770 E134.68672
G1 X70.498 Y13.510 E134.78981
G1 X71.606 Y12.828 E134.82856
G1 X72.187 Y12.343 E134.85111
G1 X72.453 Y12.622 E134.86259
G1 X72.528 Y13.062 E134.87588
G1 X72.979 Y13.052 E134.88932
G1 X73.387 Y13.501 E134.90738
G1 X73.450 Y13.861 E134.91827
G1 X73.829 Y13.870 E134.92956
G1 X74.197 Y14.309 E134.94662
G1 X73.240 Y16.210 E135.01001
G1 X70.249 Y21.354 E135.18723
G1 X69.836 Y23.572 E135.25443
G1 X65.863 Y25.848 E135.39080
G1 X63.766 Y27.017 E135.46230
G1 X64.764 Y27.983 E135.50367
G1 X63.464 Y42.285 E135.93139
G1 X62.531 Y42.303 E135.95918
G1 X61.603 Y42.293 E135.98682
G1 X60.199 Y27.999 E136.41459
G1 X61.190 Y27.026 E136.45596
G1 X59.082 Y25.873 E136.52752
G1 X55.095 Y23.623 E136.66387
G1 X54.664 Y21.410 E136.73102
G0 F10500 X55.073 Y20.779
;TYPE:SKIN
G1 F1920 X59.778 Y25.484 E136.92919
G0 F10500 X58.171 Y24.583
G1 F1920 X55.435 Y21.848 E137.04441
G0 F10500 X55.607 Y22.727
G1 F1920 X56.548 Y23.667 E137.08403
G0 F10500 X54.050 Y19.048
G1 F1920 X61.336 Y26.334 E137.39091
G0 F10500 X62.089 Y27.087
G1 F1920 X63.993 Y28.992 E137.47113
G0 F10500 X63.935 Y29.640
G1 F1920 X61.733 Y27.438 E137.56388
G0 F10500 X61.376 Y27.788
G1 F1920 X63.876 Y30.288 E137.66918
G0 F10500 X63.817 Y30.937
G1 F1920 X61.019 Y28.139 E137.78703
G0 F10500 X60.951 Y28.778
G1 F1920 X63.758 Y31.585 E137.90526
G0 F10500 X63.699 Y32.233
G1 F1920 X61.028 Y29.562 E138.01776
G0 F10500 X61.106 Y30.346
G1 F1920 X63.641 Y32.881 E138.12454
G0 F10500 X63.581 Y33.529
G1 F1920 X61.183 Y31.131 E138.22554
G0 F10500 X61.260 Y31.915
G1 F1920 X63.522 Y34.178 E138.32084
G0 F10500 X63.464 Y34.826
G1 F1920 X61.337 Y32.700 E138.41041
G0 F10500 X61.415 Y33.484
G1 F1920 X63.405 Y35.474 E138.49423
G0 F10500 X63.346 Y36.122
G1 F1920 X61.492 Y34.268 E138.57232
G0 F10500 X61.569 Y35.052
G1 F1920 X63.287 Y36.770 E138.64468
G0 F10500 X63.228 Y37.419
G1 F1920 X61.646 Y35.836 E138.71133
G0 F10500 X61.723 Y36.621
G1 F1920 X63.169 Y38.067 E138.77224
G0 F10500 X63.110 Y38.715
G1 F1920 X61.800 Y37.405 E138.82742
G0 F10500 X61.877 Y38.189
G1 F1920 X63.052 Y39.363 E138.87689
G0 F10500 X62.993 Y40.012
G1 F1920 X61.954 Y38.973 E138.92065
G0 F10500 X62.031 Y39.757
G1 F1920 X62.933 Y40.660 E138.95866
G0 F10500 X62.875 Y41.308
G1 F1920 X62.108 Y40.541 E138.99097
G0 F10500 X62.185 Y41.326
G1 F1920 X62.487 Y41.627 E139.00367
G0 F10500 X64.053 Y28.344
G1 F1920 X53.027 Y17.318 E139.46808
G0 F10500 X52.068 Y15.652
G1 F1920 X63.053 Y26.637 E139.93077
G0 F10500 X63.504 Y26.381
G1 F1920 X51.729 Y14.605 E140.42676
G0 F10500 X52.050 Y14.219
G1 F1920 X63.956 Y26.126 E140.92826
G0 F10500 X64.407 Y25.870
G1 F1920 X52.349 Y13.811 E141.43617
G0 F10500 X52.921 Y13.676
G1 F1920 X64.859 Y25.614 E141.93899
G0 F10500 X65.310 Y25.358
G1 F1920 X54.678 Y14.726 E142.38682
G0 F10500 X57.129 Y16.470
G1 F1920 X65.762 Y25.103 E142.75044
G0 F10500 X66.213 Y24.847
G1 F1920 X57.731 Y16.365 E143.10770
G0 F10500 X58.333 Y16.260
G1 F1920 X66.665 Y24.592 E143.45864
G0 F10500 X67.116 Y24.336
G1 F1920 X58.935 Y16.155 E143.80323
G0 F10500 X59.582 Y16.095
G1 F1920 X67.568 Y24.081 E144.13960
G0 F10500 X68.019 Y23.825
G1 F1920 X60.410 Y16.216 E144.46009
G0 F10500 X61.237 Y16.336
G1 F1920 X68.471 Y23.569 E144.76477
G0 F10500 X68.923 Y23.314
G1 F1920 X62.065 Y16.457 E145.05360
G0 F10500 X62.775 Y16.460
G1 F1920 X69.265 Y22.949 E145.32694
G0 F10500 X69.376 Y22.353
G1 F1920 X63.389 Y16.366 E145.57912
G0 F10500 X64.002 Y16.272
G1 F1920 X69.487 Y21.757 E145.81014
G0 F10500 X69.598 Y21.161
G1 F1920 X64.616 Y16.179 E146.01999
G0 F10500 X65.229 Y16.085
G1 F1920 X69.846 Y20.702 E146.21445
G0 F10500 X70.106 Y20.255
G1 F1920 X65.990 Y16.139 E146.38782
G0 F10500 X66.839 Y16.281
G1 F1920 X70.366 Y19.808 E146.53638
G0 F10500 X70.626 Y19.361
G1 F1920 X67.688 Y16.423 E146.66013
G0 F10500 X68.282 Y16.310
G1 F1920 X70.886 Y18.913 E146.76979
G0 F10500 X71.146 Y18.466
G1 F1920 X68.662 Y15.982 E146.87441
G0 F10500 X69.041 Y15.655
G1 F1920 X71.406 Y18.019 E146.97401
G0 F10500 X71.665 Y17.572
G1 F1920 X69.422 Y15.328 E147.06850
G0 F10500 X69.802 Y15.001
G1 F1920 X71.926 Y17.125 E147.15797
G0 F10500 X72.185 Y16.677
G1 F1920 X70.181 Y14.673 E147.24237
G0 F10500 X70.562 Y14.347
G1 F1920 X72.445 Y16.230 E147.32169
G0 F10500 X72.699 Y15.777
G1 F1920 X70.948 Y14.026 E147.39544
G0 F10500 X71.385 Y13.756
G1 F1920 X72.933 Y15.303 E147.46062
G0 F10500 X73.167 Y14.830
G1 F1920 X72.084 Y13.748 E147.50621
G0 F10500 X71.933 Y13.597
G1 F1920 X71.822 Y13.486 E147.51089
G1 F600 E146.01089
G1 Z1.285
G0 F10500 X86.981 Y15.651
;TYPE:WALL-INNER
G1 Z1.185
G1 F600 E147.51089
G1 F1440 X87.552 Y15.627 E147.52791
G1 X87.652 Y15.005 E147.54667
G1 X87.807 Y14.833 E147.55357
G1 X88.462 Y14.840 E147.57308
G1 X88.534 Y14.398 E147.58642
G1 X88.668 Y14.508 E147.59158
G1 X89.778 Y15.179 E147.63021
G1 X92.564 Y17.543 E147.73903
G1 X95.126 Y17.095 E147.81650
G1 X98.149 Y17.536 E147.90748
G1 X101.172 Y17.076 E147.99856
G1 X103.737 Y17.504 E148.07601
G1 X106.508 Y15.116 E148.18495
G1 X107.611 Y14.437 E148.22353
G1 X107.743 Y14.327 E148.22865
G1 X107.819 Y14.773 E148.24212
G1 X108.473 Y14.758 E148.26161
G1 X108.631 Y14.931 E148.26858
G1 X108.739 Y15.552 E148.28736
G1 X109.303 Y15.566 E148.30416
G1 X108.506 Y17.186 E148.35793
G1 X105.484 Y22.378 E148.53685
G1 X105.098 Y24.453 E148.59972
G1 X101.323 Y26.617 E148.72931
G1 X98.648 Y28.109 E148.82054
G1 X99.956 Y29.377 E148.87479
G1 X98.719 Y42.997 E149.28211
G1 X98.238 Y43.005 E149.29644
G1 X97.768 Y43.002 E149.31044
G1 X96.430 Y29.390 E149.71780
G1 X97.732 Y28.113 E149.77212
G1 X95.034 Y26.636 E149.86373
G1 X91.254 Y24.503 E149.99300
G1 X90.850 Y22.431 E150.05587
G1 X87.783 Y17.243 E150.23537
G1 X86.981 Y15.651 E150.28846
G0 F10500 X87.123 Y15.142
;TYPE:WALL-OUTER
G1 F1320 X87.181 Y14.780 E150.29938
G1 X87.587 Y14.330 E150.31743
G1 X88.038 Y14.335 E150.33086
G1 X88.110 Y13.895 E150.34414
G1 X88.373 Y13.617 E150.35554
G1 X88.958 Y14.099 E150.37812
G1 X90.067 Y14.769 E150.41671
G1 X92.709 Y17.010 E150.51989
G1 X95.118 Y16.589 E150.59272
G1 X98.148 Y17.031 E150.68392
G1 X101.176 Y16.570 E150.77515
G1 X103.588 Y16.972 E150.84797
G1 X106.210 Y14.712 E150.95107
G1 X107.318 Y14.030 E150.98982
G1 X107.898 Y13.545 E151.01234
G1 X108.164 Y13.823 E151.02380
G1 X108.239 Y14.263 E151.03709
G1 X108.690 Y14.253 E151.05053
G1 X109.098 Y14.702 E151.06860
G1 X109.161 Y15.062 E151.07948
G1 X109.540 Y15.071 E151.09077
G1 X109.908 Y15.510 E151.10783
G1 X108.952 Y17.412 E151.17124
G1 X105.960 Y22.555 E151.34845
G1 X105.547 Y24.773 E151.41564
G1 X101.574 Y27.050 E151.55203
G1 X99.479 Y28.218 E151.62347
G1 X100.475 Y29.185 E151.66481
G1 X99.176 Y43.487 E152.09253
G1 X98.243 Y43.505 E152.12032
G1 X97.314 Y43.494 E152.14799
G1 X95.910 Y29.200 E152.57576
G1 X96.901 Y28.228 E152.61710
G1 X94.797 Y27.076 E152.68855
G1 X90.807 Y24.824 E152.82500
G1 X90.376 Y22.611 E152.89215
G1 X87.343 Y17.483 E153.06960
G1 X86.495 Y15.796 E153.12583
G1 X86.377 Y15.594 E153.13280
G1 X86.742 Y15.155 E153.14980
G1 X87.123 Y15.142 E153.16116
G0 F10500 X87.781 Y15.303
;TYPE:SKIN
G1 F1920 X99.755 Y27.277 E153.66550
G0 F10500 X99.303 Y27.532
G1 F1920 X87.573 Y15.801 E154.15959
G0 F10500 X87.643 Y16.578
G1 F1920 X98.852 Y27.788 E154.63174
G0 F10500 X98.400 Y28.043
G1 F1920 X88.542 Y18.185 E155.04696
G0 F10500 X89.564 Y19.914
G1 F1920 X97.345 Y27.695 E155.37469
G0 F10500 X97.872 Y28.222
G1 F1920 X99.717 Y30.067 E155.45240
G0 F10500 X99.658 Y30.715
G1 F1920 X97.514 Y28.572 E155.54269
G0 F10500 X97.157 Y28.922
G1 F1920 X99.599 Y31.363 E155.64553
G0 F10500 X99.540 Y32.012
G1 F1920 X96.800 Y29.272 E155.76093
G0 F10500 X96.648 Y29.827
G1 F1920 X99.481 Y32.659 E155.88024
G0 F10500 X99.422 Y33.308
G1 F1920 X96.725 Y30.611 E155.99384
G0 F10500 X96.802 Y31.395
G1 F1920 X99.364 Y33.956 E156.10173
G0 F10500 X99.305 Y34.605
G1 F1920 X96.879 Y32.179 E156.20391
G0 F10500 X96.957 Y32.963
G1 F1920 X99.245 Y35.252 E156.30030
G0 F10500 X99.187 Y35.901
G1 F1920 X97.034 Y33.748 E156.39099
G0 F10500 X97.111 Y34.532
G1 F1920 X99.128 Y36.549 E156.47594
G0 F10500 X99.069 Y37.198
G1 F1920 X97.188 Y35.316 E156.55519
G0 F10500 X97.265 Y36.100
G1 F1920 X99.010 Y37.845 E156.62869
G0 F10500 X98.951 Y38.494
G1 F1920 X97.342 Y36.884 E156.69648
G0 F10500 X97.419 Y37.668
G1 F1920 X98.893 Y39.142 E156.75857
G0 F10500 X98.833 Y39.790
G1 F1920 X97.496 Y38.453 E156.81488
G0 F10500 X97.573 Y39.237
G1 F1920 X98.775 Y40.438 E156.86549
G0 F10500 X98.716 Y41.087
G1 F1920 X97.650 Y40.021 E156.91039
G0 F10500 X97.727 Y40.805
G1 F1920 X98.657 Y41.735 E156.94956
G0 F10500 X98.598 Y42.383
G1 F1920 X97.804 Y41.589 E156.98301
G0 F10500 X97.881 Y42.374
G1 F1920 X98.335 Y42.828 E157.00213
G0 F10500 X98.865 Y28.139
G0 X100.206 Y27.021
G1 F1920 X88.198 Y15.012 E157.50793
G0 F10500 X88.651 Y14.758
G1 F1920 X100.658 Y26.766 E158.01368
G0 F10500 X101.109 Y26.510
G1 F1920 X91.302 Y16.702 E158.42678
G0 F10500 X92.958 Y17.651
G1 F1920 X101.561 Y26.254 E158.78913
G0 F10500 X102.012 Y25.998
G1 F1920 X93.560 Y17.546 E159.14513
G0 F10500 X94.162 Y17.441
G1 F1920 X102.464 Y25.742 E159.49479
G0 F10500 X102.915 Y25.487
G1 F1920 X94.764 Y17.336 E159.83811
G0 F10500 X95.455 Y17.319
G1 F1920 X103.366 Y25.231 E160.17135
G0 F10500 X103.818 Y24.976
G1 F1920 X96.283 Y17.440 E160.48874
G0 F10500 X97.111 Y17.561
G1 F1920 X104.269 Y24.720 E160.79026
G0 F10500 X104.721 Y24.465
G1 F1920 X97.939 Y17.682 E161.07594
G0 F10500 X98.607 Y17.643
G1 F1920 X104.997 Y24.033 E161.34509
G0 F10500 X105.108 Y23.437
G1 F1920 X99.221 Y17.550 E161.59305
G0 F10500 X99.834 Y17.456
G1 F1920 X105.219 Y22.841 E161.81986
G0 F10500 X105.349 Y22.263
G1 F1920 X100.448 Y17.363 E162.02627
G0 F10500 X101.061 Y17.269
G1 F1920 X105.608 Y21.816 E162.21779
G0 F10500 X105.868 Y21.369
G1 F1920 X101.869 Y17.370 E162.38623
G0 F10500 X102.717 Y17.511
G1 F1920 X106.128 Y20.922 E162.52990
G0 F10500 X106.389 Y20.475
G1 F1920 X103.566 Y17.652 E162.64881
G0 F10500 X104.068 Y17.447
G1 F1920 X106.649 Y20.028 E162.75752
G0 F10500 X106.909 Y19.581
G1 F1920 X104.448 Y17.120 E162.86118
G0 F10500 X104.828 Y16.793
G1 F1920 X107.169 Y19.134 E162.95978
G0 F10500 X107.429 Y18.687
G1 F1920 X105.208 Y16.466 E163.05333
G0 F10500 X105.588 Y16.139
G1 F1920 X107.689 Y18.240 E163.14182
G0 F10500 X107.949 Y17.793
G1 F1920 X105.968 Y15.812 E163.22526
G0 F10500 X106.348 Y15.484
G1 F1920 X108.209 Y17.346 E163.30367
G0 F10500 X108.458 Y16.887
G1 F1920 X106.746 Y15.175 E163.37578
G0 F10500 X107.183 Y14.906
G1 F1920 X108.691 Y16.414 E163.43930
G0 F10500 X108.924 Y15.939
G1 F1920 X108.638 Y15.653 E163.44826
G1 X107.931 Y14.946 E163.47804
G0 F10500 X95.750 Y26.807
G1 F1920 X90.587 Y21.644 E163.69550
G0 F10500 X91.114 Y22.878
G1 F1920 X94.154 Y25.918 E163.82355
G0 F10500 X92.558 Y25.029
G1 F1920 X91.285 Y23.756 E163.87717
;LAYER:3
G1 F600 E162.37717
G1 Z1.285
G0 F10500 X39.536 Y15.757 Z1.565
;TYPE:WALL-INNER
G1 Z1.565
G1 F600 E163.87717
G1 F1740 X38.884 Y17.076 E163.92099
G1 X36.324 Y21.476 E164.07260
G1 X35.776 Y24.425 E164.16194
G1 X32.269 Y26.434 E164.28231
G1 X30.235 Y27.570 E164.35170
G1 X28.894 Y28.314 E164.39737
G1 X30.528 Y29.893 E164.46505
G1 X29.335 Y43.003 E164.85712
G1 X28.749 Y43.011 E164.87458
G1 X28.170 Y43.008 E164.89182
G1 X26.882 Y29.907 E165.28389
G1 X28.506 Y28.314 E165.35165
G1 X27.160 Y27.582 E165.39728
G1 X25.115 Y26.461 E165.46674
G1 X21.597 Y24.476 E165.58705
G1 X21.023 Y21.531 E165.67641
G1 X18.431 Y17.146 E165.82812
G1 X17.772 Y15.835 E165.87182
G1 X18.166 Y15.331 E165.89087
G1 X18.569 Y14.821 E165.91023
G1 X18.625 Y14.758 E165.91274
G1 X18.973 Y14.765 E165.92311
G1 X19.053 Y14.311 E165.93684
G1 X19.109 Y14.252 E165.93926
G1 X20.364 Y15.012 E165.98296
G1 X22.745 Y17.032 E166.07596
G1 X26.199 Y16.429 E166.18038
G1 X28.656 Y16.788 E166.25434
G1 X31.114 Y16.414 E166.32839
G1 X34.572 Y16.991 E166.43280
G1 X36.939 Y14.951 E166.52587
G1 X38.187 Y14.182 E166.56953
G1 X38.230 Y14.227 E166.57138
G1 X38.293 Y14.690 E166.58530
G1 X38.672 Y14.683 E166.59659
G1 X39.135 Y15.254 E166.61848
G1 X39.536 Y15.757 E166.63764
G0 F10500 X39.119 Y14.429
;TYPE:WALL-OUTER
G1 F1500 X40.125 Y15.693 E166.68576
G1 X39.324 Y17.314 E166.73961
G1 X36.800 Y21.653 E166.88911
G1 X36.224 Y24.745 E166.98279
G1 X32.513 Y26.871 E167.11017
G1 X29.727 Y28.425 E167.20518
G1 X31.047 Y29.701 E167.25986
G1 X29.792 Y43.493 E167.67233
G1 X28.753 Y43.511 E167.70328
G1 X28.062 Y43.507 E167.72386
G1 X27.717 Y43.501 E167.73413
G1 X26.362 Y29.717 E168.14665
G1 X27.673 Y28.431 E168.20134
G1 X24.873 Y26.899 E168.29640
G1 X21.150 Y24.797 E168.42374
G1 X20.549 Y21.711 E168.51738
G1 X17.991 Y17.386 E168.66703
G1 X17.182 Y15.778 E168.72065
G1 X17.773 Y15.021 E168.74925
G1 X18.179 Y14.506 E168.76878
G1 X18.407 Y14.253 E168.77892
G1 X18.556 Y14.256 E168.78336
G1 X18.588 Y14.075 E168.78884
G1 X19.034 Y13.604 E168.80816
G1 X19.121 Y13.675 E168.81150
G1 X20.653 Y14.603 E168.86485
G1 X22.890 Y16.499 E168.95218
G1 X26.191 Y15.923 E169.05198
G1 X28.655 Y16.283 E169.12615
G1 X31.118 Y15.908 E169.20035
G1 X34.423 Y16.459 E169.30014
G1 X36.641 Y14.547 E169.38736
G1 X38.171 Y13.605 E169.44087
G1 X38.258 Y13.533 E169.44424
G1 X38.703 Y13.998 E169.46341
G1 X38.728 Y14.181 E169.46891
G1 X38.888 Y14.178 E169.47367
G1 X39.119 Y14.429 E169.48383
G0 F10500 X38.526 Y14.859
;TYPE:SKIN
G1 F2400 X37.516 Y15.869 E169.52637
G0 F10500 X37.203 Y15.475
G1 F2400 X38.100 Y14.579 E169.56413
G0 F10500 X38.877 Y15.216
G1 F2400 X37.830 Y16.263 E169.60823
G0 F10500 X38.143 Y16.657
G1 F2400 X39.192 Y15.607 E169.65244
G0 F10500 X38.938 Y16.569
G1 F2400 X38.456 Y17.051 E169.67274
G0 F10500 X34.164 Y17.100
G1 F2400 X33.226 Y18.039 E169.71227
G0 F10500 X32.548 Y18.009
G1 F2400 X33.558 Y16.999 E169.75481
G0 F10500 X32.952 Y16.898
G1 F2400 X31.715 Y18.135 E169.80692
G0 F10500 X30.880 Y18.263
G1 F2400 X32.346 Y16.797 E169.86866
G0 F10500 X31.740 Y16.696
G1 F2400 X30.047 Y18.389 E169.93997
G0 F10500 X29.212 Y18.517
G1 F2400 X31.134 Y16.595 E170.02093
G0 F10500 X30.309 Y16.713
G1 F2400 X28.451 Y18.570 E170.09917
G0 F10500 X27.835 Y18.480
G1 F2400 X29.475 Y16.839 E170.16826
G0 F10500 X28.645 Y16.962
G1 F2400 X27.217 Y18.390 E170.22841
G0 F10500 X26.600 Y18.300
G1 F2400 X28.028 Y16.872 E170.28856
G0 F10500 X27.411 Y16.782
G1 F2400 X25.983 Y18.210 E170.34871
G0 F10500 X25.366 Y18.121
G1 F2400 X26.795 Y16.691 E170.40892
G0 F10500 X26.168 Y16.611
G1 F2400 X24.748 Y18.031 E170.46873
G0 F10500 X23.982 Y18.089
G1 F2400 X25.312 Y16.760 E170.52473
G0 F10500 X24.455 Y16.909
G1 F2400 X23.416 Y17.949 E170.56851
G0 F10500 X23.034 Y17.623
G1 F2400 X23.599 Y17.058 E170.59231
G0 F10500 X22.765 Y16.959
G0 X20.003 Y14.998
G1 F2400 X18.368 Y16.633 E170.66117
G0 F10500 X18.607 Y17.101
G1 F2400 X19.857 Y15.851 E170.71382
G0 F10500 X19.562 Y14.731
G1 F2400 X18.131 Y16.163 E170.77412
G0 F10500 X21.449 Y22.037
G1 F2400 X21.517 Y22.322 E170.77935
G1 X21.707 Y22.839 E170.79077
G1 X21.613 Y23.640 E170.80840
G1 X22.377 Y23.583 E170.83222
G1 X22.107 Y24.561 E170.85900
G1 X23.195 Y24.180 E170.88578
G1 X23.010 Y25.071 E170.91250
G1 X24.099 Y24.690 E170.93930
G1 X23.914 Y25.582 E170.96611
G1 X25.003 Y25.200 E170.99285
G1 X24.818 Y26.092 E171.01966
G1 X25.907 Y25.711 E171.04646
G1 X25.728 Y26.596 E171.07308
G1 X26.814 Y26.217 E171.09953
G1 X26.643 Y27.096 E171.12604
G1 X27.730 Y26.716 E171.15252
G1 X27.328 Y27.471 E171.17799
G0 F10500 X28.288 Y28.346
G0 X28.516 Y29.112
G1 F2400 X27.118 Y30.510 E171.23688
G0 F10500 X27.181 Y31.155
G1 F2400 X29.344 Y28.992 E171.32798
G0 F10500 X29.703 Y29.339
G1 F2400 X28.723 Y30.320 E171.36928
G0 F10500 X29.083 Y30.667
G1 F2400 X30.063 Y29.687 E171.41056
G0 F10500 X30.329 Y30.127
G1 F2400 X29.442 Y31.015 E171.44794
G0 F10500 X29.734 Y31.430
G1 F2400 X30.223 Y31.294 E171.47004
G1 X29.890 Y32.334 E171.49209
G1 X29.820 Y33.111 E171.51417
G1 X29.749 Y33.889 E171.53627
G1 X29.678 Y34.667 E171.55837
G1 X29.607 Y35.445 E171.58043
G1 X29.537 Y36.223 E171.60249
G1 X29.466 Y37.001 E171.62454
G1 X29.395 Y37.778 E171.64662
G1 X29.325 Y38.556 E171.66868
G1 X29.254 Y39.333 E171.69071
G1 X28.729 Y39.859 E171.71271
G1 X28.315 Y40.273 E171.73095
G1 X28.378 Y40.917 E171.74918
G1 X28.441 Y41.561 E171.76741
G1 X28.257 Y42.099 E171.78434
G0 F10500 X28.320 Y42.743
G1 F2400 X29.269 Y41.794 E171.82432
G0 F10500 X28.816 Y41.540
G1 F2400 X29.113 Y40.889 E171.84631
G1 X29.410 Y40.239 E171.86759
G0 F10500 X29.198 Y42.572
G1 F2400 X28.938 Y42.832 E171.87855
G0 F10500 X28.004 Y39.524
G1 F2400 X28.188 Y38.985 E171.89680
G1 X28.125 Y38.341 E171.91503
G1 X28.062 Y37.698 E171.93327
G1 X27.999 Y37.054 E171.95150
G1 X27.936 Y36.409 E171.96976
G1 X27.872 Y35.766 E171.98801
G1 X27.809 Y35.122 E172.00624
G1 X27.746 Y34.478 E172.02455
G1 X27.683 Y33.834 E172.04282
G1 X27.620 Y33.190 E172.06112
G1 X27.556 Y32.547 E172.07937
G1 X27.493 Y31.902 E172.09767
G1 X27.678 Y31.364 E172.11461
G0 F10500 X29.613 Y27.308
G1 F2400 X30.924 Y25.997 E172.16983
G0 F10500 X31.937 Y26.399
G1 F2400 X34.226 Y24.110 E172.26624
G0 F10500 X35.199 Y24.550
G1 F2400 X35.658 Y24.091 E172.28558
G0 F10500 X35.819 Y23.223
G1 F2400 X33.568 Y25.474 E172.38039
G0 F10500 X32.575 Y25.053
G1 F2400 X30.305 Y27.323 E172.47600
G0 F10500 X35.278 Y23.057
G1 F2400 X35.981 Y22.355 E172.50559
G1 F600 E171.00559
G1 Z1.665
G0 F10500 X52.211 Y16.177
;TYPE:WALL-INNER
G1 Z1.565
G1 F600 E172.50559
G1 F1740 X51.551 Y14.866 E172.54931
G1 X51.944 Y14.361 E172.56836
G1 X52.348 Y13.852 E172.58772
G1 X52.404 Y13.789 E172.59023
G1 X52.752 Y13.796 E172.60060
G1 X52.833 Y13.341 E172.61436
G1 X52.888 Y13.283 E172.61674
G1 X54.144 Y14.042 E172.66045
G1 X56.525 Y16.063 E172.75346
G1 X59.978 Y15.460 E172.85786
G1 X62.436 Y15.818 E172.93184
G1 X64.893 Y15.444 E173.00586
G1 X68.351 Y16.021 E173.11028
G1 X70.719 Y13.981 E173.20337
G1 X71.967 Y13.212 E173.24703
G1 X72.010 Y13.257 E173.24888
G1 X72.073 Y13.721 E173.26283
G1 X72.452 Y13.714 E173.27412
G1 X72.914 Y14.285 E173.29599
G1 X73.315 Y14.788 E173.31515
G1 X72.663 Y16.107 E173.35897
G1 X70.104 Y20.507 E173.51057
G1 X69.556 Y23.455 E173.59988
G1 X66.049 Y25.464 E173.72025
G1 X64.012 Y26.601 E173.78973
G1 X62.674 Y27.345 E173.83533
G1 X64.307 Y28.923 E173.90296
G1 X63.114 Y42.033 E174.29504
G1 X62.528 Y42.042 E174.31249
G1 X61.950 Y42.038 E174.32971
G1 X60.662 Y28.938 E174.72175
G1 X62.284 Y27.346 E174.78944
G1 X60.938 Y26.612 E174.83510
G1 X58.895 Y25.492 E174.90449
G1 X55.376 Y23.507 E175.02482
G1 X54.802 Y20.562 E175.11419
G1 X52.211 Y16.177 E175.26588
G0 F10500 X51.771 Y16.417
;TYPE:WALL-OUTER
G1 F1500 X50.962 Y14.808 E175.31952
G1 X51.552 Y14.052 E175.34808
G1 X51.958 Y13.537 E175.36761
G1 X52.186 Y13.284 E175.37776
G1 X52.335 Y13.287 E175.38220
G1 X52.367 Y13.105 E175.38770
G1 X52.814 Y12.634 E175.40704
G1 X52.901 Y12.706 E175.41040
G1 X54.434 Y13.633 E175.46376
G1 X56.670 Y15.530 E175.55109
G1 X59.970 Y14.954 E175.65086
G1 X62.435 Y15.313 E175.72505
G1 X64.897 Y14.938 E175.79923
G1 X68.202 Y15.489 E175.89902
G1 X70.421 Y13.577 E175.98626
G1 X71.951 Y12.635 E176.03977
G1 X72.037 Y12.563 E176.04311
G1 X72.483 Y13.027 E176.06228
G1 X72.508 Y13.212 E176.06784
G1 X72.668 Y13.209 E176.07261
G1 X73.904 Y14.724 E176.13084
G1 X73.103 Y16.345 E176.18469
G1 X70.580 Y20.684 E176.33418
G1 X70.004 Y23.775 E176.42782
G1 X66.293 Y25.901 E176.55520
G1 X63.507 Y27.455 E176.65022
G1 X64.827 Y28.731 E176.70490
G1 X63.571 Y42.523 E177.11737
G1 X62.533 Y42.542 E177.14829
G1 X61.841 Y42.537 E177.16890
G1 X61.497 Y42.532 E177.17914
G1 X60.142 Y28.748 E177.59166
G1 X61.452 Y27.462 E177.64633
G1 X58.654 Y25.930 E177.74134
G1 X54.929 Y23.828 E177.86873
G1 X54.328 Y20.742 E177.96237
G1 X51.771 Y16.417 E178.11201
G0 F10500 X52.289 Y15.946
;TYPE:SKIN
G1 F2400 X54.046 Y14.189 E178.18601
G0 F10500 X53.607 Y13.921
G1 F2400 X52.052 Y15.475 E178.25149
G0 F10500 X51.816 Y15.005
G1 F2400 X52.849 Y13.972 E178.29500
G0 F10500 X52.908 Y13.913
G1 F2400 X53.165 Y13.655 E178.30584
G0 F10500 X56.660 Y16.525
G1 F2400 X57.035 Y16.149 E178.32166
G0 F10500 X57.043 Y16.849
G1 F2400 X57.891 Y16.001 E178.35738
G0 F10500 X58.747 Y15.851
G1 F2400 X57.425 Y17.174 E178.41308
G0 F10500 X58.276 Y17.030
G1 F2400 X59.604 Y15.702 E178.46902
G0 F10500 X60.326 Y15.687
G1 F2400 X58.897 Y17.116 E178.52921
G0 F10500 X59.515 Y17.206
G1 F2400 X60.943 Y15.777 E178.58938
G0 F10500 X61.561 Y15.866
G1 F2400 X60.132 Y17.295 E178.64956
G0 F10500 X60.749 Y17.385
G1 F2400 X62.178 Y15.956 E178.70975
G0 F10500 X62.921 Y15.920
G1 F2400 X61.366 Y17.475 E178.77525
G0 F10500 X61.984 Y17.565
G1 F2400 X63.756 Y15.793 E178.84989
G0 F10500 X64.590 Y15.665
G1 F2400 X62.657 Y17.599 E178.93133
G0 F10500 X63.491 Y17.471
G1 F2400 X65.278 Y15.685 E179.00657
G0 F10500 X65.884 Y15.786
G1 F2400 X64.326 Y17.344 E179.07220
G0 F10500 X65.159 Y17.218
G1 F2400 X66.489 Y15.887 E179.12824
G0 F10500 X67.095 Y15.989
G1 F2400 X65.994 Y17.090 E179.17461
G0 F10500 X66.763 Y17.028
G1 F2400 X67.701 Y16.090 E179.21412
G0 F10500 X68.307 Y16.192
G1 F2400 X67.369 Y17.129 E179.25361
G0 F10500 X70.857 Y14.349
G1 F2400 X71.502 Y13.703 E179.28080
G0 F10500 X72.016 Y13.896
G1 F2400 X71.170 Y14.743 E179.31645
G0 F10500 X71.483 Y15.137
G1 F2400 X72.530 Y14.090 E179.36055
G0 F10500 X72.845 Y14.482
G1 F2400 X71.796 Y15.530 E179.40471
G0 F10500 X72.110 Y15.924
G1 F2400 X72.996 Y15.038 E179.44203
G0 F10500 X69.826 Y21.037
G1 F2400 X69.453 Y21.409 E179.45772
G0 F10500 X69.664 Y21.905
G1 F2400 X66.694 Y24.876 E179.58284
G0 F10500 X65.693 Y24.462
G1 F2400 X63.608 Y26.547 E179.67066
G0 F10500 X63.249 Y26.199
G1 F2400 X64.043 Y25.405 E179.70410
G0 F10500 X65.062 Y25.800
G1 F2400 X67.343 Y23.519 E179.80018
G0 F10500 X68.326 Y23.951
G1 F2400 X69.502 Y22.774 E179.84973
G0 F10500 X62.893 Y27.376
G0 X63.698 Y28.579
G1 F2400 X62.718 Y29.559 E179.89101
G0 F10500 X63.077 Y29.907
G1 F2400 X64.058 Y28.926 E179.93233
G0 F10500 X64.065 Y29.625
G1 F2400 X63.715 Y30.328 E179.95881
G1 X63.697 Y31.054 E179.98087
G1 X63.626 Y31.832 E180.00293
G1 X63.555 Y32.610 E180.02499
G1 X63.485 Y33.387 E180.04697
G1 X63.414 Y34.165 E180.06898
G1 X63.343 Y34.943 E180.09099
G1 X63.273 Y35.721 E180.11300
G1 X63.202 Y36.498 E180.13498
G1 X63.132 Y37.276 E180.15694
G1 X63.061 Y38.054 E180.17895
G1 X62.990 Y38.832 E180.20092
G1 X62.537 Y39.638 E180.22289
G1 X62.195 Y40.334 E180.24114
G1 X62.270 Y40.966 E180.25937
G1 X62.252 Y41.691 E180.27856
G1 X62.777 Y41.166 E180.30261
G1 X62.848 Y40.388 E180.32458
G1 X63.146 Y39.737 E180.34590
G0 F10500 X62.318 Y39.151
G1 F2400 X61.852 Y39.263 E180.36415
G1 X62.006 Y38.402 E180.38243
G1 X61.943 Y37.758 E180.40070
G1 X61.880 Y37.114 E180.41901
G1 X61.816 Y36.470 E180.43725
G1 X61.753 Y35.826 E180.45555
G1 X61.690 Y35.182 E180.47386
G1 X61.627 Y34.538 E180.49217
G1 X61.563 Y33.895 E180.51049
G1 X61.500 Y33.251 E180.52884
G1 X61.437 Y32.607 E180.54719
G1 X61.374 Y31.963 E180.56549
G1 X61.310 Y31.319 E180.58381
G1 X61.497 Y30.779 E180.60083
G0 F10500 X60.998 Y30.571
G1 F2400 X63.339 Y28.231 E180.69941
G0 F10500 X62.789 Y28.073
G1 F2400 X60.934 Y29.928 E180.77754
G0 F10500 X60.871 Y29.284
G1 F2400 X62.112 Y28.043 E180.82981
G0 F10500 X62.066 Y27.377
G0 X60.924 Y26.403
G1 F2400 X61.327 Y25.646 E180.85643
G1 X60.238 Y26.028 E180.88296
G1 X60.411 Y25.147 E180.90949
G1 X59.324 Y25.528 E180.93604
G1 X59.505 Y24.639 E180.96279
G1 X58.416 Y25.021 E180.98953
G1 X58.601 Y24.129 E181.01634
G1 X57.512 Y24.511 E181.04308
G1 X57.697 Y23.619 E181.06989
G1 X56.608 Y24.001 E181.09663
G1 X56.793 Y23.108 E181.12346
G1 X55.724 Y23.470 E181.15022
G1 X56.012 Y22.476 E181.17531
G1 X55.344 Y22.436 E181.19664
G1 X55.515 Y21.558 E181.21177
G1 X55.172 Y21.549 E181.22199
G1 F600 E179.72199
G1 Z1.665
G0 F10500 X87.263 Y16.067
;TYPE:WALL-INNER
G1 Z1.565
G1 F600 E181.22199
G1 F1740 X87.657 Y15.563 E181.24104
G1 X88.060 Y15.053 E181.26040
G1 X88.116 Y14.990 E181.26291
G1 X88.464 Y14.997 E181.27328
G1 X88.544 Y14.543 E181.28701
G1 X88.600 Y14.484 E181.28943
G1 X89.855 Y15.244 E181.33313
G1 X92.236 Y17.264 E181.42612
G1 X95.690 Y16.661 E181.53055
G1 X98.147 Y17.020 E181.60451
G1 X100.605 Y16.646 E181.67856
G1 X104.063 Y17.223 E181.78297
G1 X106.430 Y15.183 E181.87604
G1 X107.678 Y14.414 E181.91970
G1 X107.721 Y14.459 E181.92155
G1 X107.784 Y14.922 E181.93547
G1 X108.163 Y14.915 E181.94676
G1 X108.625 Y15.486 E181.96863
G1 X109.025 Y15.989 E181.98777
G1 X108.369 Y17.320 E182.03197
G1 X105.815 Y21.708 E182.18318
G1 X105.267 Y24.657 E182.27252
G1 X101.760 Y26.666 E182.39289
G1 X99.726 Y27.802 E182.46228
G1 X98.385 Y28.546 E182.50795
G1 X100.019 Y30.125 E182.57563
G1 X98.826 Y43.235 E182.96770
G1 X98.240 Y43.243 E182.98516
G1 X97.661 Y43.240 E183.00240
G1 X96.373 Y30.139 E183.39448
G1 X97.997 Y28.546 E183.46223
G1 X96.651 Y27.814 E183.50786
G1 X94.606 Y26.693 E183.57732
G1 X91.088 Y24.708 E183.69763
G1 X90.514 Y21.763 E183.78699
G1 X87.922 Y17.378 E183.93870
G1 X87.263 Y16.067 E183.98240
G0 F10500 X87.264 Y15.253
;TYPE:WALL-OUTER
G1 F1500 X87.670 Y14.738 E184.00193
G1 X87.898 Y14.485 E184.01208
G1 X88.047 Y14.488 E184.01652
G1 X88.079 Y14.307 E184.02199
G1 X88.525 Y13.836 E184.04131
G1 X88.612 Y13.907 E184.04465
G1 X90.144 Y14.835 E184.09800
G1 X92.381 Y16.731 E184.18534
G1 X95.682 Y16.155 E184.28514
G1 X98.146 Y16.515 E184.35930
G1 X100.609 Y16.140 E184.43350
G1 X103.914 Y16.691 E184.53330
G1 X106.132 Y14.779 E184.62051
G1 X107.662 Y13.837 E184.67403
G1 X107.749 Y13.765 E184.67739
G1 X108.194 Y14.230 E184.69656
G1 X108.219 Y14.413 E184.70206
G1 X108.379 Y14.410 E184.70683
G1 X109.615 Y15.925 E184.76506
G1 X108.815 Y17.546 E184.81890
G1 X106.291 Y21.885 E184.96840
G1 X105.715 Y24.977 E185.06208
G1 X102.004 Y27.103 E185.18945
G1 X99.218 Y28.657 E185.28447
G1 X100.538 Y29.933 E185.33915
G1 X99.283 Y43.725 E185.75162
G1 X98.244 Y43.743 E185.78257
G1 X97.553 Y43.739 E185.80315
G1 X97.208 Y43.733 E185.81342
G1 X95.853 Y29.949 E186.22594
G1 X97.164 Y28.663 E186.28063
G1 X94.364 Y27.131 E186.37569
G1 X90.641 Y25.029 E186.50303
G1 X90.040 Y21.943 E186.59667
G1 X87.482 Y17.618 E186.74632
G1 X86.673 Y16.010 E186.79993
G1 X87.264 Y15.253 E186.82854
G0 F10500 X87.479 Y16.111
;TYPE:SKIN
G1 F2400 X88.420 Y15.170 E186.86817
G0 F10500 X88.650 Y14.940
G1 F2400 X88.788 Y14.802 E186.87398
G0 F10500 X89.229 Y15.069
G1 F2400 X87.716 Y16.581 E186.93769
G0 F10500 X87.952 Y17.052
G1 F2400 X89.668 Y15.336 E187.00997
G0 F10500 X88.333 Y17.379
G1 F2400 X88.203 Y17.508 E187.01542
G0 F10500 X92.295 Y17.659
G1 F2400 X92.573 Y17.381 E187.02713
G0 F10500 X92.677 Y17.984
G1 F2400 X93.430 Y17.232 E187.05883
G0 F10500 X94.286 Y17.082
G1 F2400 X93.060 Y18.309 E187.11049
G0 F10500 X93.813 Y18.263
G1 F2400 X95.142 Y16.933 E187.16649
G0 F10500 X95.913 Y16.870
G1 F2400 X94.484 Y18.299 E187.22668
G0 F10500 X95.101 Y18.389
G1 F2400 X96.530 Y16.959 E187.28689
G0 F10500 X97.147 Y17.050
G1 F2400 X95.718 Y18.479 E187.34708
G0 F10500 X96.335 Y18.569
G1 F2400 X97.764 Y17.140 E187.40727
G0 F10500 X98.463 Y17.148
G1 F2400 X96.952 Y18.659 E187.47091
G0 F10500 X97.570 Y18.748
G1 F2400 X99.297 Y17.021 E187.54365
G0 F10500 X100.131 Y16.894
G1 F2400 X98.200 Y18.826 E187.62501
G0 F10500 X99.034 Y18.698
G1 F2400 X100.866 Y16.866 E187.70217
G0 F10500 X101.472 Y16.967
G1 F2400 X99.868 Y18.572 E187.76975
G0 F10500 X100.702 Y18.444
G1 F2400 X102.078 Y17.068 E187.82771
G0 F10500 X102.684 Y17.169
G1 F2400 X101.536 Y18.317 E187.87606
G0 F10500 X102.352 Y18.209
G1 F2400 X103.290 Y17.271 E187.91557
G0 F10500 X103.896 Y17.372
G1 F2400 X102.958 Y18.310 E187.95508
G0 F10500 X106.505 Y15.470
G1 F2400 X106.841 Y15.134 E187.96923
G0 F10500 X106.819 Y15.863
G1 F2400 X107.624 Y15.058 E188.00314
G0 F10500 X108.177 Y15.212
G1 F2400 X107.133 Y16.257 E188.04713
G0 F10500 X107.446 Y16.650
G1 F2400 X108.494 Y15.603 E188.09125
G0 F10500 X108.806 Y15.998
G1 F2400 X107.759 Y17.044 E188.13533
G0 F10500 X105.459 Y22.173
G1 F2400 X105.361 Y22.271 E188.13946
G0 F10500 X105.407 Y22.932
G1 F2400 X104.542 Y23.797 E188.17589
G0 F10500 X104.371 Y23.968
G1 F2400 X102.075 Y26.264 E188.27260
G0 F10500 X101.070 Y25.855
G1 F2400 X99.247 Y27.678 E188.34939
G0 F10500 X98.888 Y27.329
G1 F2400 X99.419 Y26.799 E188.37173
G0 F10500 X97.633 Y27.171
G1 F2400 X96.771 Y27.678 E188.39836
G1 X96.945 Y26.797 E188.42489
G1 X95.857 Y27.178 E188.45140
G1 X96.030 Y26.298 E188.47789
G1 X94.943 Y26.678 E188.50444
G1 X95.125 Y25.789 E188.53125
G1 X94.036 Y26.171 E188.55799
G1 X94.221 Y25.279 E188.58480
G1 X93.132 Y25.660 E188.61160
G1 X93.317 Y24.768 E188.63841
G1 X92.228 Y25.150 E188.66515
G1 X92.413 Y24.258 E188.69195
G1 X91.378 Y24.586 E188.71873
G1 X91.682 Y23.575 E188.74357
G1 X91.032 Y23.517 E188.76367
G1 X91.174 Y22.669 E188.77760
G1 X90.860 Y22.630 E188.78702
G0 F10500 X97.779 Y28.578
G0 X97.730 Y29.195
G1 F2400 X96.570 Y30.355 E188.83588
G0 F10500 X96.633 Y30.998
G1 F2400 X98.188 Y29.444 E188.90136
G0 F10500 X98.977 Y29.361
G1 F2400 X96.696 Y31.643 E188.99745
G0 F10500 X97.194 Y31.852
G1 F2400 X97.008 Y32.391 E189.01569
G1 X97.072 Y33.034 E189.03394
G1 X97.135 Y33.679 E189.05220
G1 X97.198 Y34.322 E189.07048
G1 X97.261 Y34.966 E189.08871
G1 X97.325 Y35.610 E189.10694
G1 X97.388 Y36.254 E189.12517
G1 X97.451 Y36.897 E189.14341
G1 X97.514 Y37.542 E189.16167
G1 X97.578 Y38.185 E189.17992
G1 X97.641 Y38.829 E189.19823
G1 X97.704 Y39.473 E189.21646
G1 X97.768 Y40.117 E189.23473
G1 X97.830 Y40.761 E189.25304
G1 X97.894 Y41.404 E189.27128
G1 X97.957 Y42.049 E189.28954
G1 X97.772 Y42.588 E189.30651
G0 F10500 X98.000 Y43.067
G1 F2400 X98.730 Y42.337 E189.33726
G0 F10500 X98.279 Y42.081
G1 F2400 X98.575 Y41.431 E189.35921
G1 X98.645 Y40.653 E189.38118
G1 X98.716 Y39.875 E189.40314
G1 X98.787 Y39.097 E189.42515
G1 X98.858 Y38.319 E189.44716
G1 X98.928 Y37.542 E189.46914
G1 X98.999 Y36.764 E189.49120
G1 X99.069 Y35.987 E189.51327
G1 X99.140 Y35.209 E189.53533
G1 X99.211 Y34.431 E189.55744
G1 X99.282 Y33.653 E189.57954
G1 X99.352 Y32.875 E189.60164
G1 X99.423 Y32.097 E189.62375
G1 X99.721 Y31.446 E189.64507
G0 F10500 X99.076 Y31.384
G1 F2400 X99.792 Y30.668 E189.67523
G0 F10500 X99.696 Y30.057
G1 F2400 X98.716 Y31.037 E189.71651
G0 F10500 X98.356 Y30.690
G1 F2400 X99.337 Y29.709 E189.75783
G0 F10500 X98.603 Y28.575
G0 X100.443 Y27.188
G1 F2400 X102.720 Y24.912 E189.85371
G0 F10500 X103.707 Y25.339
G1 F2400 X105.246 Y23.800 E189.91854
;LAYER:4
G1 F600 E188.41854
G1 Z1.665
G0 F10500 X39.235 Y16.222 Z1.945
;TYPE:WALL-INNER
G1 Z1.945
G1 F600 E189.91854
G1 F2100 X38.746 Y17.211 E189.95140
G1 X36.655 Y20.806 E190.07526
G1 X35.943 Y24.628 E190.19105
G1 X32.698 Y26.488 E190.30245
G1 X30.101 Y27.938 E190.39104
G1 X28.703 Y28.715 E190.43867
G1 X27.295 Y27.948 E190.48643
G1 X24.685 Y26.518 E190.57506
G1 X21.431 Y24.681 E190.68636
G1 X20.687 Y20.864 E190.80218
G1 X18.569 Y17.281 E190.92614
G1 X18.076 Y16.299 E190.95887
G1 X19.487 Y14.500 E191.02696
G1 X20.442 Y15.077 E191.06019
G1 X22.417 Y16.753 E191.13734
G1 X26.762 Y15.995 E191.26871
G1 X28.654 Y16.271 E191.32565
G1 X30.550 Y15.985 E191.38276
G1 X34.897 Y16.709 E191.51401
G1 X36.860 Y15.018 E191.59118
G1 X37.811 Y14.433 E191.62443
G1 X39.235 Y16.222 E191.69253
G0 F10500 X28.701 Y28.818
G1 F2100 X30.589 Y30.642 E191.77072
G1 X29.443 Y43.240 E192.14748
G1 X28.753 Y43.250 E192.16803
G1 X28.064 Y43.243 E192.18855
G1 X26.825 Y30.657 E192.56522
G1 X28.701 Y28.818 E192.64346
G0 F10500 X29.467 Y28.863
;TYPE:WALL-OUTER
G1 F1800 X31.109 Y30.450 E192.71147
G1 X29.900 Y43.731 E193.10866
G1 X28.755 Y43.750 E193.14277
G1 X27.611 Y43.738 E193.17684
G1 X26.305 Y30.467 E193.57401
G1 X27.936 Y28.867 E193.64206
G1 X24.445 Y26.956 E193.76059
G1 X20.984 Y25.002 E193.87896
G1 X20.213 Y21.044 E193.99906
G1 X18.129 Y17.520 E194.12100
G1 X17.486 Y16.241 E194.16363
G1 X19.367 Y13.842 E194.25443
G1 X20.732 Y14.668 E194.30195
G1 X22.562 Y16.220 E194.37341
G1 X26.754 Y15.489 E194.50015
G1 X28.653 Y15.766 E194.55730
G1 X30.551 Y15.478 E194.61448
G1 X34.748 Y16.177 E194.74120
G1 X36.562 Y14.614 E194.81252
G1 X37.926 Y13.774 E194.86023
G1 X39.824 Y16.158 E194.95099
G1 X39.186 Y17.449 E194.99388
G1 X37.131 Y20.983 E195.11563
G1 X36.391 Y24.948 E195.23576
G1 X32.942 Y26.925 E195.35417
G1 X29.467 Y28.863 E195.47267
G0 F10500 X28.993 Y29.347
;TYPE:SKIN
G1 F3000 X30.402 Y30.756 E195.53202
G0 F10500 X30.344 Y31.404
G1 F3000 X28.348 Y29.409 E195.61607
G0 F10500 X27.991 Y29.759
G1 F3000 X30.285 Y32.053 E195.71269
G0 F10500 X29.960 Y32.434
G1 F3000 X30.063 Y32.891 E195.72385
G1 X30.004 Y33.540 E195.73503
G1 X29.946 Y34.188 E195.74623
G1 X29.886 Y34.836 E195.75736
G1 X29.827 Y35.484 E195.76856
G1 X29.769 Y36.133 E195.77974
G1 X29.710 Y36.781 E195.79086
G1 X29.651 Y37.429 E195.80198
G1 X29.592 Y38.077 E195.81319
G1 X29.533 Y38.725 E195.82431
G1 X29.474 Y39.374 E195.83545
G1 X29.578 Y39.831 E195.84941
G0 F10500 X28.196 Y39.863
G1 F3000 X27.998 Y39.311 E195.86286
G1 X27.920 Y38.527 E195.87642
G1 X27.843 Y37.743 E195.88998
G1 X27.766 Y36.958 E195.90351
G1 X27.689 Y36.174 E195.91698
G1 X27.612 Y35.390 E195.93050
G1 X27.534 Y34.606 E195.94406
G1 X27.457 Y33.821 E195.95764
G1 X27.380 Y33.037 E195.97120
G1 X27.361 Y32.311 E195.98474
G1 X27.104 Y31.700 E196.00448
G0 F10500 X27.026 Y30.915
G1 F3000 X27.898 Y31.787 E196.04121
G0 F10500 X28.255 Y31.437
G1 F3000 X27.277 Y30.459 E196.08240
G0 F10500 X27.634 Y30.109
G1 F3000 X28.613 Y31.087 E196.12362
G0 F10500 X28.551 Y28.782
G0 X27.502 Y27.856
G1 F3000 X25.822 Y26.176 E196.19438
G0 F10500 X25.944 Y27.005
G1 F3000 X24.200 Y25.260 E196.26786
G0 F10500 X24.369 Y26.137
G1 F3000 X22.577 Y24.344 E196.34336
G0 F10500 X22.745 Y25.220
G1 F3000 X21.464 Y23.939 E196.39731
G0 F10500 X21.934 Y23.702
G1 F3000 X21.519 Y22.933 E196.42433
G1 X21.121 Y22.182 E196.44964
G0 F10500 X27.391 Y27.037
G1 F3000 X27.939 Y27.585 E196.47272
G0 F10500 X29.678 Y27.203
G1 F3000 X30.394 Y27.566 E196.49338
G1 X30.354 Y26.819 E196.51401
G1 X31.297 Y27.055 E196.53469
G1 X31.256 Y26.307 E196.55535
G1 X32.201 Y26.544 E196.57606
G1 X32.158 Y25.794 E196.59683
G1 X33.104 Y26.032 E196.61757
G1 X33.060 Y25.282 E196.63843
G1 X34.007 Y25.521 E196.65925
G1 X33.961 Y24.769 E196.68017
G1 X34.910 Y25.010 E196.70105
G1 X34.864 Y24.257 E196.72199
G1 X35.717 Y24.403 E196.74292
G1 X35.685 Y23.664 E196.76125
G1 X35.609 Y22.881 E196.77952
G1 X36.125 Y22.690 E196.79529
G1 X35.954 Y22.165 E196.81173
G0 F10500 X34.107 Y17.490
G1 F3000 X33.225 Y16.608 E196.84888
G0 F10500 X32.377 Y16.467
G1 F3000 X33.460 Y17.551 E196.89452
G0 F10500 X32.613 Y17.410
G1 F3000 X31.529 Y16.326 E196.94018
G0 F10500 X30.680 Y16.184
G1 F3000 X31.897 Y17.401 E196.99144
G0 F10500 X31.284 Y17.495
G1 F3000 X30.029 Y16.240 E197.04430
G0 F10500 X29.414 Y16.333
G1 F3000 X30.670 Y17.589 E197.09720
G0 F10500 X30.056 Y17.682
G1 F3000 X28.800 Y16.426 E197.15010
G0 F10500 X28.023 Y16.356
G1 F3000 X29.443 Y17.775 E197.20989
G0 F10500 X28.830 Y17.870
G1 F3000 X27.195 Y16.235 E197.27876
G0 F10500 X26.476 Y16.223
G1 F3000 X28.061 Y17.808 E197.34552
G0 F10500 X27.233 Y17.687
G1 F3000 X25.873 Y16.327 E197.40280
G0 F10500 X25.271 Y16.432
G1 F3000 X26.406 Y17.567 E197.45061
G0 F10500 X25.578 Y17.446
G1 F3000 X24.669 Y16.537 E197.48889
G0 F10500 X24.067 Y16.642
G1 F3000 X24.838 Y17.413 E197.52137
G0 F10500 X24.236 Y17.518
G1 F3000 X23.464 Y16.747 E197.55386
G0 F10500 X22.862 Y16.852
G1 F3000 X23.634 Y17.623 E197.58636
G0 F10500 X20.491 Y15.895
G1 F3000 X19.439 Y14.842 E197.63069
G0 F10500 X19.127 Y15.238
G1 F3000 X20.180 Y16.291 E197.67504
G0 F10500 X22.437 Y16.680
G0 X34.074 Y16.749
G1 F3000 X34.487 Y17.162 E197.69244
G0 F10500 X37.292 Y16.433
G1 F3000 X38.369 Y17.510 E197.73780
G0 F10500 X38.625 Y17.058
G1 F3000 X36.835 Y15.268 E197.81320
G0 F10500 X37.253 Y14.980
G1 F3000 X38.859 Y16.585 E197.88082
G0 F10500 X38.258 Y15.277
G1 F3000 X37.691 Y14.710 E197.90470
G0 F10500 X34.876 Y16.635
G0 X22.437 Y16.680
G0 X19.869 Y16.687
G1 F3000 X18.817 Y15.635 E197.94901
G0 F10500 X18.507 Y16.032
G1 F3000 X19.558 Y17.083 E197.99328
G0 F10500 X19.248 Y17.480
G1 F3000 X18.475 Y16.707 E198.02584
G0 F10500 X20.636 Y20.883
G0 X28.551 Y28.782
G0 X27.953 Y40.327
G1 F3000 X28.151 Y40.879 E198.03932
G1 X28.228 Y41.664 E198.05281
G1 X28.548 Y42.337 E198.06626
G1 X29.309 Y42.744 E198.09181
G1 X29.239 Y41.967 E198.10291
G1 X29.298 Y41.318 E198.11406
G1 X29.356 Y40.670 E198.12518
G1 X29.254 Y40.214 E198.13909
G0 F10500 X28.185 Y42.680
G1 F3000 X28.576 Y43.071 E198.15556
G1 F600 E196.65556
G1 Z2.045
G0 F10500 X55.210 Y23.712
;TYPE:WALL-INNER
G1 Z1.945
G1 F600 E198.15556
G1 F2100 X54.466 Y19.894 E198.27142
G1 X52.349 Y16.311 E198.39536
G1 X51.856 Y15.330 E198.42806
G1 X53.267 Y13.531 E198.49616
G1 X54.222 Y14.108 E198.52939
G1 X56.197 Y15.784 E198.60654
G1 X60.541 Y15.026 E198.73787
G1 X62.434 Y15.302 E198.79485
G1 X64.327 Y15.014 E198.85188
G1 X68.677 Y15.739 E198.98322
G1 X70.640 Y14.048 E199.06039
G1 X71.590 Y13.463 E199.09362
G1 X73.014 Y15.253 E199.16174
G1 X72.526 Y16.241 E199.19456
G1 X70.435 Y19.837 E199.31845
G1 X69.723 Y23.659 E199.43424
G1 X66.478 Y25.518 E199.54562
G1 X63.881 Y26.968 E199.63421
G1 X62.481 Y27.746 E199.68191
G1 X61.074 Y26.979 E199.72964
G1 X58.466 Y25.549 E199.81823
G1 X55.210 Y23.712 E199.92957
G0 F10500 X62.329 Y27.813
G0 X60.605 Y29.687
G1 F2100 X62.480 Y27.847 E200.00781
G1 X64.369 Y29.672 E200.08604
G1 X63.222 Y42.270 E200.46280
G1 X62.531 Y42.280 E200.48339
G1 X61.844 Y42.273 E200.50385
G1 X60.605 Y29.687 E200.88051
G0 F10500 X60.085 Y29.497
;TYPE:WALL-OUTER
G1 F1800 X61.715 Y27.898 E200.94852
G1 X58.225 Y25.987 E201.06703
G1 X54.763 Y24.033 E201.18543
G1 X53.992 Y20.074 E201.30555
G1 X51.909 Y16.550 E201.42747
G1 X51.266 Y15.272 E201.47008
G1 X53.147 Y12.873 E201.56088
G1 X54.512 Y13.699 E201.60840
G1 X56.342 Y15.251 E201.67986
G1 X60.533 Y14.520 E201.80657
G1 X62.433 Y14.797 E201.86376
G1 X64.331 Y14.508 E201.92094
G1 X68.528 Y15.207 E202.04766
G1 X70.341 Y13.644 E202.11895
G1 X71.706 Y12.805 E202.16667
G1 X73.603 Y15.189 E202.25741
G1 X72.966 Y16.479 E202.30026
G1 X70.911 Y20.014 E202.42204
G1 X70.171 Y23.979 E202.54217
G1 X66.722 Y25.955 E202.66056
G1 X63.247 Y27.893 E202.77906
G1 X64.889 Y29.480 E202.84708
G1 X63.679 Y42.761 E203.24427
G1 X62.533 Y42.780 E203.27841
G1 X61.391 Y42.769 E203.31242
G1 X60.085 Y29.497 E203.70961
G0 F10500 X61.005 Y29.539
;TYPE:SKIN
G1 F3000 X61.984 Y30.518 E203.75085
G0 F10500 X61.628 Y30.869
G1 F3000 X60.817 Y30.058 E203.78501
G0 F10500 X60.894 Y30.842
G1 F3000 X61.121 Y31.422 E203.80089
G1 X61.171 Y32.180 E203.81451
G1 X61.249 Y32.964 E203.82812
G1 X61.325 Y33.749 E203.84169
G1 X61.403 Y34.533 E203.85526
G1 X61.480 Y35.317 E203.86882
G1 X61.556 Y36.101 E203.88238
G1 X61.633 Y36.885 E203.89594
G1 X61.711 Y37.669 E203.90950
G1 X61.788 Y38.453 E203.92302
G1 X61.865 Y39.237 E203.93648
G1 X62.514 Y39.887 E203.94994
G1 X63.067 Y40.440 E203.96103
G1 X63.008 Y41.088 E203.97212
G1 X63.034 Y41.821 E203.98326
G1 X62.282 Y41.423 E204.00895
G1 X62.019 Y40.806 E204.02242
G1 X61.820 Y40.254 E204.03989
G0 F10500 X61.975 Y41.822
G1 F3000 X62.254 Y42.101 E204.05164
G0 F10500 X63.288 Y39.600
G1 F3000 X63.185 Y39.144 E204.06276
G1 X63.244 Y38.495 E204.07390
G1 X63.303 Y37.847 E204.08502
G1 X63.363 Y37.199 E204.09615
G1 X63.421 Y36.551 E204.10731
G1 X63.481 Y35.903 E204.11843
G1 X63.539 Y35.255 E204.12959
G1 X63.598 Y34.607 E204.14076
G1 X63.657 Y33.959 E204.15188
G1 X63.716 Y33.310 E204.16302
G1 X63.776 Y32.663 E204.17413
G1 X63.834 Y32.014 E204.18531
G1 X63.731 Y31.558 E204.19923
G0 F10500 X64.056 Y31.175
G1 F3000 X61.719 Y28.838 E204.29766
G0 F10500 X62.075 Y28.487
G1 F3000 X64.114 Y30.527 E204.38357
G0 F10500 X64.174 Y29.879
G1 F3000 X62.708 Y28.413 E204.44532
G0 F10500 X61.362 Y29.188
G1 F3000 X62.342 Y30.168 E204.48659
G0 F10500 X62.329 Y27.813
G0 X61.668 Y26.667
G1 F3000 X60.950 Y25.948 E204.51686
G0 F10500 X61.060 Y26.765
G1 F3000 X59.375 Y25.080 E204.58783
G0 F10500 X59.467 Y25.880
G1 F3000 X57.752 Y24.165 E204.66007
G0 F10500 X57.874 Y24.994
G1 F3000 X56.130 Y23.250 E204.73352
G0 F10500 X55.736 Y22.855
G1 F3000 X55.329 Y22.095 E204.76053
G1 X54.923 Y21.336 E204.78617
G0 F10500 X55.266 Y23.092
G1 F3000 X56.282 Y24.108 E204.82897
G0 F10500 X63.394 Y26.271
G1 F3000 X64.110 Y26.633 E204.84956
G1 X64.069 Y25.886 E204.87024
G1 X65.013 Y26.121 E204.89093
G1 X64.972 Y25.374 E204.91165
G1 X65.916 Y25.611 E204.93235
G1 X65.873 Y24.861 E204.95311
G1 X66.819 Y25.100 E204.97392
G1 X66.775 Y24.349 E204.99475
G1 X67.722 Y24.588 E205.01558
G1 X67.677 Y23.837 E205.03647
G1 X68.625 Y24.077 E205.05732
G1 X68.579 Y23.325 E205.07823
G1 X69.457 Y23.495 E205.09917
G1 X69.449 Y22.780 E205.11744
G1 X69.560 Y22.184 E205.13571
G1 X69.566 Y21.483 E205.15238
G1 X69.944 Y21.508 E205.16366
G0 F10500 X72.112 Y16.604
G1 F3000 X71.470 Y15.962 E205.19070
G0 F10500 X72.371 Y16.156
G1 F3000 X70.561 Y14.346 E205.26694
G0 F10500 X70.971 Y14.049
G1 F3000 X72.605 Y15.683 E205.33576
G0 F10500 X72.423 Y14.794
G1 F3000 X71.409 Y13.780 E205.37847
G0 F10500 X68.211 Y16.239
G1 F3000 X67.732 Y15.759 E205.39867
G0 F10500 X67.832 Y16.566
G1 F3000 X66.883 Y15.618 E205.43862
G0 F10500 X66.035 Y15.477
G1 F3000 X67.119 Y16.561 E205.48428
G0 F10500 X66.272 Y16.421
G1 F3000 X65.186 Y15.335 E205.53002
G0 F10500 X64.338 Y15.194
G1 F3000 X65.589 Y16.445 E205.58271
G0 F10500 X64.976 Y16.539
G1 F3000 X63.720 Y15.284 E205.63559
G0 F10500 X63.107 Y15.377
G1 F3000 X64.362 Y16.633 E205.68847
G0 F10500 X63.749 Y16.726
G1 F3000 X62.493 Y15.470 E205.74138
G0 F10500 X61.685 Y15.370
G1 F3000 X63.135 Y16.819 E205.80243
G0 F10500 X62.522 Y16.913
G1 F3000 X60.857 Y15.249 E205.87254
G0 F10500 X60.170 Y15.269
G1 F3000 X61.723 Y16.822 E205.93795
G0 F10500 X60.896 Y16.701
G1 F3000 X59.568 Y15.373 E205.99389
G0 F10500 X58.966 Y15.479
G1 F3000 X60.068 Y16.580 E206.04028
G0 F10500 X59.240 Y16.460
G1 F3000 X58.363 Y15.583 E206.07722
G0 F10500 X57.761 Y15.688
G1 F3000 X58.532 Y16.459 E206.10970
G0 F10500 X57.930 Y16.564
G1 F3000 X57.159 Y15.793 E206.14217
G0 F10500 X56.557 Y15.898
G1 F3000 X57.327 Y16.669 E206.17462
G0 F10500 X54.226 Y14.982
G1 F3000 X53.174 Y13.930 E206.21893
G0 F10500 X52.863 Y14.325
G1 F3000 X53.916 Y15.378 E206.26329
G0 F10500 X53.606 Y15.776
G1 F3000 X52.552 Y14.722 E206.30768
G0 F10500 X52.242 Y15.119
G1 F3000 X53.296 Y16.172 E206.35205
G0 F10500 X52.986 Y16.570
G1 F3000 X52.357 Y15.941 E206.37855
G1 F600 E204.87855
G1 Z2.045
G0 F10500 X87.567 Y16.531
;TYPE:WALL-INNER
G1 Z1.945
G1 F600 E206.37855
G1 F2100 X88.978 Y14.732 E206.44664
G1 X89.933 Y15.309 E206.47987
G1 X91.908 Y16.985 E206.55702
G1 X96.253 Y16.227 E206.68839
G1 X98.145 Y16.503 E206.74533
G1 X100.041 Y16.217 E206.80244
G1 X104.388 Y16.941 E206.93369
G1 X106.351 Y15.250 E207.01086
G1 X107.302 Y14.665 E207.04411
G1 X108.725 Y16.453 E207.11217
G1 X108.231 Y17.455 E207.14544
G1 X106.146 Y21.038 E207.26891
G1 X105.434 Y24.860 E207.38470
G1 X102.189 Y26.720 E207.49610
G1 X99.592 Y28.170 E207.58469
G1 X98.194 Y28.947 E207.63232
G1 X96.786 Y28.180 E207.68008
G1 X94.176 Y26.750 E207.76871
G1 X90.922 Y24.913 E207.88001
G1 X90.178 Y21.096 E207.99583
G1 X88.060 Y17.513 E208.11979
G1 X87.567 Y16.531 E208.15252
G0 F10500 X98.192 Y29.050
G1 F2100 X100.080 Y30.874 E208.23070
G1 X98.934 Y43.472 E208.60746
G1 X98.244 Y43.482 E208.62802
G1 X97.555 Y43.475 E208.64854
G1 X96.316 Y30.889 E209.02520
G1 X98.192 Y29.050 E209.10345
G0 F10500 X98.958 Y29.095
;TYPE:WALL-OUTER
G1 F1800 X100.600 Y30.682 E209.17146
G1 X99.391 Y43.963 E209.56865
G1 X98.246 Y43.982 E209.60275
G1 X97.102 Y43.970 E209.63683
G1 X95.796 Y30.699 E210.03399
G1 X97.427 Y29.099 E210.10204
G1 X93.936 Y27.188 E210.22057
G1 X90.475 Y25.234 E210.33895
G1 X89.704 Y21.276 E210.45905
G1 X87.620 Y17.752 E210.58098
G1 X86.977 Y16.473 E210.62362
G1 X88.858 Y14.074 E210.71441
G1 X90.223 Y14.900 E210.76193
G1 X92.053 Y16.452 E210.83340
G1 X96.245 Y15.721 E210.96013
G1 X98.144 Y15.998 E211.01729
G1 X100.042 Y15.710 E211.07447
G1 X104.239 Y16.409 E211.20119
G1 X106.053 Y14.846 E211.27250
G1 X107.417 Y14.006 E211.32021
G1 X109.314 Y16.390 E211.41095
G1 X108.677 Y17.681 E211.45383
G1 X106.622 Y21.215 E211.57559
G1 X105.882 Y25.180 E211.69572
G1 X102.433 Y27.157 E211.81412
G1 X98.958 Y29.095 E211.93262
G0 F10500 X97.857 Y29.622
;TYPE:SKIN
G1 F3000 X99.837 Y31.602 E212.01602
G0 F10500 X99.778 Y32.249
G1 F3000 X97.500 Y29.972 E212.11195
G0 F10500 X97.144 Y30.322
G1 F3000 X98.123 Y31.301 E212.15318
G0 F10500 X97.765 Y31.651
G1 F3000 X96.787 Y30.672 E212.19440
G0 F10500 X96.512 Y31.104
G1 F3000 X97.408 Y32.001 E212.23216
G0 F10500 X97.051 Y32.351
G1 F3000 X96.628 Y32.281 E212.25162
G1 X96.867 Y33.227 E212.26522
G1 X96.944 Y34.011 E212.27878
G1 X97.021 Y34.795 E212.29234
G1 X97.098 Y35.579 E212.30590
G1 X97.175 Y36.363 E212.31947
G1 X97.251 Y37.148 E212.33304
G1 X97.329 Y37.932 E212.34661
G1 X97.406 Y38.716 E212.36017
G1 X97.483 Y39.500 E212.37368
G1 X97.560 Y40.285 E212.38721
G1 X97.637 Y41.069 E212.40077
G1 X97.714 Y41.852 E212.41427
G1 X98.055 Y42.547 E212.42774
G1 X98.805 Y42.944 E212.45205
G1 X98.731 Y42.163 E212.46317
G1 X98.791 Y41.515 E212.47426
G1 X98.849 Y40.866 E212.48544
G1 X98.908 Y40.218 E212.49656
G1 X98.968 Y39.570 E212.50769
G1 X99.026 Y38.922 E212.51885
G1 X99.085 Y38.274 E212.53001
G1 X99.144 Y37.626 E212.54117
G1 X99.203 Y36.977 E212.55231
G1 X99.262 Y36.329 E212.56344
G1 X99.320 Y35.681 E212.57464
G1 X99.380 Y35.033 E212.58576
G1 X99.439 Y34.385 E212.59692
G1 X99.497 Y33.736 E212.60810
G1 X99.557 Y33.089 E212.61925
G1 X99.453 Y32.632 E212.63321
G0 F10500 X99.896 Y30.953
G1 F3000 X99.523 Y30.580 E212.64892
G0 F10500 X98.343 Y29.013
G0 X99.683 Y27.912
G1 F3000 X99.419 Y27.294 E212.66950
G1 X100.360 Y27.529 E212.69018
G1 X100.321 Y26.782 E212.71081
G1 X101.264 Y27.017 E212.73147
G1 X101.222 Y26.269 E212.75223
G1 X102.167 Y26.506 E212.77294
G1 X102.124 Y25.757 E212.79372
G1 X103.070 Y25.995 E212.81447
G1 X103.026 Y25.245 E212.83532
G1 X103.973 Y25.484 E212.85615
G1 X103.928 Y24.732 E212.87706
G1 X104.876 Y24.973 E212.89792
G1 X104.757 Y24.147 E212.91885
G1 X105.399 Y24.082 E212.93715
G1 X105.109 Y23.085 E212.95539
G1 X105.621 Y22.890 E212.97086
G1 X105.459 Y22.374 E212.98697
G0 F10500 X103.618 Y17.705
G1 F3000 X102.761 Y16.848 E213.02306
G0 F10500 X101.913 Y16.706
G1 F3000 X102.997 Y17.791 E213.06874
G0 F10500 X102.150 Y17.650
G1 F3000 X101.064 Y16.565 E213.11447
G0 F10500 X100.216 Y16.423
G1 F3000 X101.421 Y17.629 E213.16524
G0 F10500 X100.807 Y17.722
G1 F3000 X99.552 Y16.467 E213.21810
G0 F10500 X98.938 Y16.560
G1 F3000 X100.194 Y17.816 E213.27100
G0 F10500 X103.610 Y16.989
G1 F3000 X103.998 Y17.377 E213.28735
G0 F10500 X106.645 Y16.489
G1 F3000 X107.874 Y17.718 E213.33911
G0 F10500 X108.128 Y17.265
G1 F3000 X106.346 Y15.483 E213.41417
G0 F10500 X106.768 Y15.198
G1 F3000 X108.361 Y16.791 E213.48127
G0 F10500 X107.602 Y15.325
G1 F3000 X107.206 Y14.929 E213.49795
G0 F10500 X104.367 Y16.867
G0 X99.580 Y17.909
G1 F3000 X98.323 Y16.653 E213.55087
G0 F10500 X97.558 Y16.594
G1 F3000 X98.967 Y18.003 E213.61022
G0 F10500 X98.353 Y18.096
G1 F3000 X96.730 Y16.474 E213.67856
G0 F10500 X95.998 Y16.449
G1 F3000 X97.596 Y18.047 E213.74587
G0 F10500 X96.768 Y17.926
G1 F3000 X95.396 Y16.554 E213.80365
G0 F10500 X94.794 Y16.659
G1 F3000 X95.940 Y17.805 E213.85192
G0 F10500 X95.113 Y17.685
G1 F3000 X94.192 Y16.764 E213.89072
G0 F10500 X93.590 Y16.869
G1 F3000 X94.361 Y17.640 E213.92319
G0 F10500 X93.758 Y17.744
G1 F3000 X92.988 Y16.974 E213.95562
G0 F10500 X92.386 Y17.079
G1 F3000 X93.157 Y17.850 E213.98810
G0 F10500 X89.998 Y16.105
G1 F3000 X88.946 Y15.053 E214.03241
G0 F10500 X88.635 Y15.449
G1 F3000 X89.688 Y16.502 E214.07676
G0 F10500 X89.376 Y16.898
G1 F3000 X88.324 Y15.846 E214.12107
G0 F10500 X88.013 Y16.242
G1 F3000 X89.065 Y17.294 E214.16538
G0 F10500 X88.755 Y17.691
G1 F3000 X87.928 Y16.863 E214.20024
G0 F10500 X90.603 Y22.367
G1 F3000 X90.978 Y23.095 E214.22463
G1 X91.415 Y23.886 E214.25154
G0 F10500 X90.945 Y24.123
G1 F3000 X92.325 Y25.503 E214.30967
G0 F10500 X92.157 Y24.629
G1 F3000 X93.950 Y26.421 E214.38517
G0 F10500 X93.780 Y25.544
G1 F3000 X95.521 Y27.285 E214.45850
G0 F10500 X95.402 Y26.459
G1 F3000 X97.080 Y28.137 E214.52918
G0 F10500 X97.449 Y27.799
G1 F3000 X96.966 Y27.316 E214.54952
G0 F10500 X98.042 Y29.014
G0 X97.669 Y42.869
G1 F3000 X98.105 Y43.304 E214.56786
;LAYER:5
G1 F600 E213.06786
G1 Z2.045
G0 F10500 X36.110 Y24.832 Z2.325
;TYPE:WALL-INNER
G1 Z2.325
G1 F600 E214.56786
G1 F2100 X33.127 Y26.542 E214.67027
G1 X29.967 Y28.306 E214.77806
G1 X28.701 Y29.008 E214.82117
G1 X27.433 Y28.316 E214.86419
G1 X24.257 Y26.574 E214.97208
G1 X21.265 Y24.886 E215.07439
G1 X20.352 Y20.196 E215.21670
G1 X18.711 Y17.419 E215.31277
G1 X18.380 Y16.763 E215.33465
G1 X19.930 Y14.787 E215.40945
G1 X20.521 Y15.144 E215.43002
G1 X22.089 Y16.474 E215.49125
G1 X27.325 Y15.561 E215.64955
G1 X28.653 Y15.755 E215.68953
G1 X29.984 Y15.554 E215.72962
G1 X35.223 Y16.428 E215.88781
G1 X36.783 Y15.083 E215.94915
G1 X37.371 Y14.722 E215.96970
G1 X38.309 Y15.904 E216.01465
G1 X38.934 Y16.688 E216.04451
G1 X38.609 Y17.345 E216.06634
G1 X36.987 Y20.136 E216.16248
G1 X36.110 Y24.832 E216.30476
G0 F10500 X28.593 Y29.218
G0 X30.651 Y31.391
G1 F2100 X29.551 Y43.476 E216.66618
G1 X28.753 Y43.489 E216.68995
G1 X27.958 Y43.481 E216.71363
G1 X26.769 Y31.406 E217.07501
G1 X28.705 Y29.508 E217.15575
G1 X30.651 Y31.391 E217.23640
G0 F10500 X31.171 Y31.199
;TYPE:WALL-OUTER
G1 F1800 X30.008 Y43.969 E217.61831
G1 X28.756 Y43.989 E217.65561
G1 X27.505 Y43.976 E217.69287
G1 X26.249 Y31.216 E218.07474
G1 X28.199 Y29.303 E218.15610
G1 X24.019 Y27.014 E218.29804
G1 X20.818 Y25.207 E218.40751
G1 X19.878 Y20.376 E218.55410
G1 X18.274 Y17.664 E218.64794
G1 X17.791 Y16.704 E218.67995
G1 X19.810 Y14.129 E218.77740
G1 X20.810 Y14.734 E218.81221
G1 X22.234 Y15.941 E218.86781
G1 X27.317 Y15.055 E219.02148
G1 X28.652 Y15.250 E219.06166
G1 X29.986 Y15.047 E219.10185
G1 X35.074 Y15.896 E219.25548
G1 X36.485 Y14.680 E219.31096
G1 X37.486 Y14.063 E219.34598
G1 X39.523 Y16.624 E219.44344
G1 X39.049 Y17.583 E219.47530
G1 X37.462 Y20.313 E219.56935
G1 X36.558 Y25.152 E219.71597
G1 X33.371 Y26.979 E219.82538
G1 X29.208 Y29.300 E219.96734
G1 X31.171 Y31.199 E220.04868
G0 F10500 X30.440 Y31.430
;TYPE:SKIN
G1 F3000 X29.461 Y32.410 E220.08994
G0 F10500 X29.102 Y32.062
G1 F3000 X30.081 Y31.082 E220.13119
G0 F10500 X29.722 Y30.735
G1 F3000 X28.742 Y31.715 E220.17247
G0 F10500 X29.363 Y30.387
G1 F3000 X27.071 Y32.678 E220.26899
G0 F10500 X27.397 Y33.060
G1 F3000 X27.297 Y33.513 E220.28004
G1 X27.361 Y34.156 E220.29105
G1 X27.424 Y34.800 E220.30208
G1 X27.487 Y35.444 E220.31310
G1 X27.550 Y36.088 E220.32408
G1 X27.614 Y36.731 E220.33505
G1 X27.677 Y37.376 E220.34609
G1 X27.740 Y38.019 E220.35706
G1 X27.803 Y38.663 E220.36805
G1 X27.867 Y39.307 E220.37903
G1 X27.768 Y39.759 E220.39282
G0 F10500 X29.378 Y40.271
G1 F3000 X29.572 Y39.723 E220.40615
G1 X29.643 Y38.945 E220.41946
G1 X29.714 Y38.167 E220.43277
G1 X29.784 Y37.390 E220.44606
G1 X29.854 Y36.612 E220.45936
G1 X29.925 Y35.834 E220.47272
G1 X29.996 Y35.057 E220.48606
G1 X30.066 Y34.279 E220.49941
G1 X30.137 Y33.501 E220.51277
G1 X30.076 Y32.856 E220.52612
G1 X30.402 Y32.176 E220.54858
G0 F10500 X29.004 Y30.039
G1 F3000 X27.007 Y32.035 E220.63267
G0 F10500 X27.326 Y30.657
G0 X28.813 Y29.218
G0 X27.864 Y28.350
G1 F3000 X28.128 Y27.732 E220.65333
G1 X27.181 Y27.971 E220.67404
G1 X27.220 Y27.226 E220.69475
G1 X26.272 Y27.466 E220.71549
G1 X26.312 Y26.720 E220.73622
G1 X25.363 Y26.962 E220.75699
G1 X25.404 Y26.214 E220.77783
G1 X24.453 Y26.457 E220.79870
G1 X24.496 Y25.707 E220.81960
G1 X23.544 Y25.952 E220.84051
G1 X23.588 Y25.201 E220.86148
G1 X22.635 Y25.447 E220.88241
G1 X22.679 Y24.695 E220.90341
G1 X21.725 Y24.942 E220.92442
G1 X21.877 Y24.083 E220.94547
G1 X21.267 Y23.986 E220.96360
G1 X21.368 Y23.179 E220.98172
G1 X21.252 Y22.587 E220.99987
G1 X21.255 Y21.877 E221.01700
G1 X20.806 Y21.619 E221.02792
G1 X20.861 Y21.211 E221.04018
G0 F10500 X29.404 Y28.224
G1 F3000 X30.731 Y26.897 E221.09607
G0 F10500 X30.585 Y27.751
G1 F3000 X32.364 Y25.972 E221.17100
G0 F10500 X32.209 Y26.833
G1 F3000 X33.996 Y25.046 E221.24627
G0 F10500 X33.833 Y25.916
G1 F3000 X36.162 Y23.587 E221.34437
G0 F10500 X35.691 Y23.352
G1 F3000 X36.088 Y22.600 E221.37101
G1 X36.487 Y21.848 E221.39637
G0 F10500 X36.000 Y24.457
G1 F3000 X35.457 Y25.000 E221.41924
G0 F10500 X37.709 Y17.798
G1 F3000 X38.657 Y16.850 E221.45917
G0 F10500 X38.445 Y16.355
G1 F3000 X37.396 Y17.404 E221.50335
G0 F10500 X37.082 Y17.010
G1 F3000 X38.132 Y15.961 E221.54756
G0 F10500 X37.818 Y15.567
G1 F3000 X36.769 Y16.617 E221.59176
G0 F10500 X36.456 Y16.223
G1 F3000 X37.504 Y15.174 E221.63593
G0 F10500 X34.740 Y16.525
G1 F3000 X33.963 Y17.301 E221.66863
G0 F10500 X33.357 Y17.200
G1 F3000 X34.134 Y16.423 E221.70136
G0 F10500 X33.528 Y16.322
G1 F3000 X32.751 Y17.099 E221.73409
G0 F10500 X32.145 Y16.998
G1 F3000 X32.922 Y16.221 E221.76682
G0 F10500 X32.316 Y16.120
G1 F3000 X31.486 Y16.950 E221.80177
G0 F10500 X30.653 Y17.076
G1 F3000 X31.710 Y16.019 E221.84630
G0 F10500 X31.104 Y15.918
G1 F3000 X29.819 Y17.203 E221.90042
G0 F10500 X28.985 Y17.330
G1 F3000 X30.498 Y15.817 E221.96415
G0 F10500 X29.858 Y15.749
G1 F3000 X28.282 Y17.325 E222.03053
G0 F10500 X27.665 Y17.235
G1 F3000 X29.025 Y15.875 E222.08781
G0 F10500 X28.311 Y15.882
G1 F3000 X27.048 Y17.145 E222.14101
G0 F10500 X26.431 Y17.055
G1 F3000 X27.695 Y15.791 E222.19425
G0 F10500 X26.981 Y15.798
G1 F3000 X25.815 Y16.964 E222.24336
G0 F10500 X25.027 Y17.045
G1 F3000 X26.125 Y15.947 E222.28961
G0 F10500 X25.269 Y16.096
G1 F3000 X24.170 Y17.195 E222.33590
G0 F10500 X23.314 Y17.344
G1 F3000 X24.412 Y16.245 E222.38217
G0 F10500 X23.555 Y16.395
G1 F3000 X22.785 Y17.166 E222.41462
G0 F10500 X22.402 Y16.841
G1 F3000 X22.699 Y16.544 E222.42713
G0 F10500 X20.897 Y16.225
G1 F3000 X19.206 Y17.916 E222.49836
G0 F10500 X18.944 Y17.471
G1 F3000 X20.803 Y15.612 E222.57666
G0 F10500 X20.420 Y15.288
G1 F3000 X18.700 Y17.008 E222.64910
G0 F10500 X20.301 Y20.215
G0 X28.813 Y29.218
G0 X26.697 Y31.378
G0 X28.094 Y40.141
G1 F3000 X27.993 Y40.594 E222.66013
G1 X28.057 Y41.238 E222.67112
G1 X28.121 Y41.882 E222.68211
G1 X28.195 Y42.514 E222.69310
G1 X28.273 Y43.144 E222.70509
G1 X29.123 Y42.647 E222.73119
G1 X29.360 Y42.056 E222.74454
G1 X29.431 Y41.278 E222.75785
G1 X29.624 Y40.732 E222.77510
G0 F10500 X29.412 Y43.065
G1 F3000 X29.171 Y43.306 E222.78525
G1 F600 E221.28525
G1 Z2.425
G0 F10500 X55.044 Y23.917
;TYPE:WALL-INNER
G1 Z2.325
G1 F600 E222.78525
G1 F2100 X54.131 Y19.226 E222.92758
G1 X52.487 Y16.445 E223.02380
G1 X52.160 Y15.793 E223.04552
G1 X53.710 Y13.817 E223.12032
G1 X54.300 Y14.174 E223.14086
G1 X55.869 Y15.505 E223.20214
G1 X61.104 Y14.592 E223.36041
G1 X62.432 Y14.785 E223.40038
G1 X63.763 Y14.584 E223.44047
G1 X69.004 Y15.458 E223.59872
G1 X70.562 Y14.114 E223.66000
G1 X71.151 Y13.752 E223.68059
G1 X72.573 Y15.543 E223.74870
G1 X72.714 Y15.719 E223.75542
G1 X72.389 Y16.376 E223.77725
G1 X70.767 Y19.167 E223.87339
G1 X69.890 Y23.863 E224.01567
G1 X66.907 Y25.572 E224.11806
G1 X63.745 Y27.337 E224.22592
G1 X62.481 Y28.038 E224.26897
G1 X61.211 Y27.345 E224.31206
G1 X58.037 Y25.605 E224.41986
G1 X55.044 Y23.917 E224.52220
G0 F10500 X62.592 Y28.248
G0 X60.549 Y30.436
G1 F2100 X62.483 Y28.538 E224.60291
G1 X64.431 Y30.421 E224.68360
G1 X63.330 Y42.506 E225.04502
G1 X62.531 Y42.519 E225.06882
